xiao-wang007/linearmpc_panda/paper_data/panda_inverse_dynamics_controller_error_match_to_start_low_pass_acceleration/4/trajectory.csv
Commanded Joint 0 Position,Commanded Joint 1 Position,Commanded Joint 2 Position,Commanded Joint 3 Position,Commanded Joint 4 Position,Commanded Joint 5 Position,Commanded Joint 6 Position,Commanded Joint 0 Velocity,Commanded Joint 1 Velocity,Commanded Joint 2 Velocity,Commanded Joint 3 Velocity,Commanded Joint 4 Velocity,Commanded Joint 5 Velocity,Commanded Joint 6 Velocity,Commanded Joint 0 Acceleration,Commanded Joint 1 Acceleration,Commanded Joint 2 Acceleration,Commanded Joint 3 Acceleration,Commanded Joint 4 Acceleration,Commanded Joint 5 Acceleration,Commanded Joint 6 Acceleration,Commanded Joint 0 Torque,Commanded Joint 1 Torque,Commanded Joint 2 Torque,Commanded Joint 3 Torque,Commanded Joint 4 Torque,Commanded Joint 5 Torque,Commanded Joint 6 Torque,Actual Joint 0 Position,Actual Joint 1 Position,Actual Joint 2 Position,Actual Joint 3 Position,Actual Joint 4 Position,Actual Joint 5 Position,Actual Joint 6 Position,Actual Joint 0 Velocity,Actual Joint 1 Velocity,Actual Joint 2 Velocity,Actual Joint 3 Velocity,Actual Joint 4 Velocity,Actual Joint 5 Velocity,Actual Joint 6 Velocity,Actual Joint 0 Acceleration,Actual Joint 1 Acceleration,Actual Joint 2 Acceleration,Actual Joint 3 Acceleration,Actual Joint 4 Acceleration,Actual Joint 5 Acceleration,Actual Joint 6 Acceleration,Actual Joint 0 Torque,Actual Joint 1 Torque,Actual Joint 2 Torque,Actual Joint 3 Torque,Actual Joint 4 Torque,Actual Joint 5 Torque,Actual Joint 6 Torque,
-0.0656343,-0.084594,0.0842313,-1.79015,-0.00953444,0.154844,0.0364794,0.000992425,0.018753,0.00136835,-0.0340914,-0.00457746,0.0515326,-0.000376592,0.620266,11.7206,0.855222,-21.3072,-2.86091,32.2079,-0.23537,0.0537809,21.3478,0.350585,-24.1327,-0.527003,2.03992,-0.0249679,-0.0657337,-0.0852451,0.0841117,-1.78735,-0.00916427,0.149352,0.0365201,0.00095669,-0.000435358,0.000789707,-3.37233e-05,-0.00555017,-0.000377886,-0.000454574,0,0,0,0,0,0,0,-0.0202602,-32.0982,-0.538622,27.0779,0.679012,3.02025,0.0706026,
-0.065726,-0.0852478,0.0841195,-1.78735,-0.0092088,0.149357,0.0365193,0.000829416,0.0150005,0.00112865,-0.0272613,-0.00383779,0.0412996,-0.000304658,-0.101881,-2.34527,-0.149814,4.26885,0.462296,-6.39568,0.0449584,0.0480852,21.7885,0.340289,-24.049,-0.527335,1.78865,-0.0234525,-0.0657337,-0.0852451,0.0841117,-1.78735,-0.00916427,0.149352,0.0365201,0.00095669,-0.000435358,0.000789707,-3.37233e-05,-0.00555017,-0.000377886,-0.000454574,0,0,0,0,0,0,0,-0.0202602,-32.0982,-0.538622,27.0779,0.679012,3.02025,0.0706026,
-0.0657251,-0.0852474,0.0841203,-1.78735,-0.00921244,0.14936,0.0365192,0.000685805,0.0120109,0.000922096,-0.0217972,-0.00316135,0.033134,-0.000245936,-0.0897565,-1.86854,-0.129098,3.41505,0.422769,-5.10345,0.0367015,0.0409121,22.3609,0.328471,-23.9407,-0.526839,1.44164,-0.0214912,-0.0657317,-0.0852133,0.0841097,-1.78753,-0.00916197,0.149352,0.0365174,0.000891864,0.00130936,0.00163936,0.000355813,-0.0099346,-0.000544985,-0.0010103,-0.0081033,0.21809,0.106206,0.048692,-0.548054,-0.0208873,-0.0694659,0.00751081,-31.7491,-0.487047,26.8042,0.6488,3.06603,0.0907442,
-0.0657246,-0.0852467,0.0841207,-1.78735,-0.00921424,0.149365,0.0365191,0.00056309,0.00962773,0.000748125,-0.0174266,-0.00257395,0.0266148,-0.000198304,-0.0766968,-1.48945,-0.108732,2.73163,0.367127,-4.07451,0.0297701,0.0350176,22.885,0.319087,-23.773,-0.524853,1.05609,-0.0194913,-0.0657317,-0.0852133,0.0841097,-1.78753,-0.00916197,0.149352,0.0365174,0.000891864,0.00130936,0.00163936,0.000355813,-0.0099346,-0.000544985,-0.0010103,0,0,0,0,0,0,0,0.00751081,-31.7491,-0.487047,26.8042,0.6488,3.06603,0.0907442,
-0.0657025,-0.0848496,0.0841447,-1.78812,-0.00938791,0.149565,0.0365227,0.00118142,0.0167951,0.00147461,-0.0287348,-0.00770761,0.0266204,-2.44251e-05,0.386456,4.47959,0.454052,-7.0676,-3.20853,0.00347815,0.108674,3.50051e-06,27.5014,0.299546,-23.0405,-0.946614,-2.20741,0.000401299,-0.0657317,-0.0852133,0.0841097,-1.78753,-0.00916197,0.149352,0.0365174,0.000891864,0.00130936,0.00163936,0.000355813,-0.0099346,-0.000544985,-0.0010103,0,0,0,0,0,0,0,0.00751081,-31.7491,-0.487047,26.8042,0.6488,3.06603,0.0907442,
-0.0657379,-0.0844766,0.084124,-1.78839,-0.00868563,0.149112,0.0365111,6.11905e-05,0.0227619,0.000661685,-0.02961,0.0113909,0.00996463,-0.000309639,-0.700144,3.72927,-0.508076,-0.546998,11.9366,-10.4098,-0.178258,0.472908,0.149844,0.471509,-0.221775,2.97964,-1.20229,-0.00106671,-0.0657317,-0.0852133,0.0841097,-1.78753,-0.00916197,0.149352,0.0365174,0.000891864,0.00130936,0.00163936,0.000355813,-0.0099346,-0.000544985,-0.0010103,0,0,0,0,0,0,0,0.00751081,-31.7491,-0.487047,26.8042,0.6488,3.06603,0.0907442,
-0.0657939,-0.0841688,0.0840752,-1.78856,-0.00741391,0.148389,0.0365037,-0.00135289,0.0259032,-0.000691396,-0.0279836,0.0409058,-0.0101059,-0.000432176,-0.883803,1.96334,-0.845675,1.01651,18.4468,-12.5441,-0.0765858,0.464632,0.171215,0.46043,-0.214068,2.95358,-1.1841,-0.000977848,-0.0657322,-0.084697,0.0841072,-1.7883,-0.00915474,0.149656,0.0365143,0.000635653,0.0612169,0.00201997,-0.0435397,-0.0127901,0.0347147,-0.00127777,-0.0320264,7.48844,0.0475763,-5.48694,-0.356935,4.40746,-0.033434,0.0551182,-22.8902,-0.387865,17.6596,0.569149,1.43548,0.11821,
-0.0658517,-0.0839246,0.0840203,-1.78869,-0.00579883,0.147534,0.0364997,-0.0025266,0.026829,-0.00192546,-0.0257024,0.0731017,-0.029466,-0.000446315,-0.733565,0.578625,-0.771292,1.42574,20.1224,-12.1001,-0.00883665,0.457118,0.170827,0.452074,-0.210561,2.92971,-1.17381,-0.000903857,-0.0657322,-0.084697,0.0841072,-1.7883,-0.00915474,0.149656,0.0365143,0.000635653,0.0612169,0.00201997,-0.0435397,-0.0127901,0.0347147,-0.00127777,0,0,0,0,0,0,0,0.0551182,-22.8902,-0.387865,17.6596,0.569149,1.43548,0.11821,
-0.0657059,-0.0839384,0.0841427,-1.78911,-0.00941897,0.1499,0.0365183,-0.00136233,0.0404281,-0.000653998,-0.040824,0.0518755,-0.0174853,-0.000256966,0.727671,8.49943,0.794666,-9.45103,-13.2664,7.48792,0.118343,-0.00143644,27.5218,0.296246,-23.0359,-0.946653,-2.20063,0.0003733,-0.0657322,-0.084697,0.0841072,-1.7883,-0.00915474,0.149656,0.0365143,0.000635653,0.0612169,0.00201997,-0.0435397,-0.0127901,0.0347147,-0.00127777,0,0,0,0,0,0,0,0.0551182,-22.8902,-0.387865,17.6596,0.569149,1.43548,0.11821,
-0.0658425,-0.0832469,0.0840486,-1.78944,-0.00649129,0.148061,0.0364812,-0.00450493,0.0496298,-0.00287514,-0.0409334,0.114692,-0.0599416,-0.00113337,-1.96413,5.75106,-1.38821,-0.0683799,39.2606,-26.5352,-0.547752,3.90031,0.657489,3.98826,-1.77214,11.0533,-6.28281,-0.00383221,-0.0657322,-0.084697,0.0841072,-1.7883,-0.00915474,0.149656,0.0365143,0.000635653,0.0612169,0.00201997,-0.0435397,-0.0127901,0.0347147,-0.00127777,0,0,0,0,0,0,0,0.0551182,-22.8902,-0.387865,17.6596,0.569149,1.43548,0.11821,
-0.0660032,-0.0827054,0.08391,-1.78966,-0.00159968,0.14512,0.0364604,-0.00762257,0.0532433,-0.00576364,-0.0383113,0.214044,-0.121492,-0.00142626,-1.94853,2.2584,-1.80531,1.63881,62.0949,-38.4691,-0.183056,3.84587,0.716251,3.94222,-1.72202,11.0533,-6.15501,-0.00259833,-0.0657322,-0.084697,0.0841072,-1.7883,-0.00915474,0.149656,0.0365143,0.000635653,0.0612169,0.00201997,-0.0435397,-0.0127901,0.0347147,-0.00127777,0,0,0,0,0,0,0,0.0551182,-22.8902,-0.387865,17.6596,0.569149,1.43548,0.11821,
-0.0661368,-0.0822873,0.0837876,-1.78986,0.00450945,0.14153,0.0364509,-0.00943868,0.0530463,-0.0076709,-0.0355502,0.323964,-0.186932,-0.00137937,-1.13507,-0.123092,-1.19204,1.72574,68.6996,-40.9001,0.0293064,3.77666,0.792937,3.87412,-1.66877,11.0535,-6.01223,-0.00184342,-0.0656918,-0.0840121,0.0841551,-1.79007,-0.00912026,0.150375,0.0365139,0.00380061,0.0936952,0.00245674,-0.0601039,-0.00156765,-0.00104744,-1.00223e-05,0.39562,4.05979,0.0545965,-2.07053,1.4028,-4.47026,0.158469,0.0828892,-24.6358,-0.288683,19.1077,0.520626,1.91887,0.0843355,
-0.0656551,-0.0830537,0.0842022,-1.791,-0.00932648,0.15038,0.0365178,-0.00663401,0.0663982,-0.00496063,-0.0516761,0.254015,-0.149424,-0.0010069,1.75292,8.34495,1.69391,-10.0787,-43.7177,23.4429,0.232792,-0.00317756,27.5512,0.292141,-23.0326,-0.946461,-2.18995,0.000324382,-0.0656918,-0.0840121,0.0841551,-1.79007,-0.00912026,0.150375,0.0365139,0.00380061,0.0936952,0.00245674,-0.0601039,-0.00156765,-0.00104744,-1.00223e-05,0,0,0,0,0,0,0,0.0828892,-24.6358,-0.288683,19.1077,0.520626,1.91887,0.0843355,
-0.0652542,-0.0822968,0.0846248,-1.79159,-0.00731018,0.146538,0.0365779,0.00471622,0.0720405,0.00659883,-0.0560672,0.25362,-0.215593,0.000695886,7.09389,3.5264,7.22466,-2.74447,-0.247168,-41.3558,1.06424,27.9066,1.40863,28.6472,-12.4612,11.0535,-14.19,0.0707576,-0.0656918,-0.0840121,0.0841551,-1.79007,-0.00912026,0.150375,0.0365139,0.00380061,0.0936952,0.00245674,-0.0601039,-0.00156765,-0.00104744,-1.00223e-05,0,0,0,0,0,0,0,0.0828892,-24.6358,-0.288683,19.1077,0.520626,1.91887,0.0843355,
-0.0645699,-0.0817058,0.0853599,-1.79212,-0.00363489,0.140444,0.0366557,0.0208807,0.0724073,0.0236543,-0.057977,0.294778,-0.324836,0.00250359,10.1028,0.229234,10.6596,-1.1936,25.7239,-68.2771,1.12982,26.568,2.80572,27.6076,-10.6968,11.0535,-13.5985,0.0885811,-0.0656918,-0.0840121,0.0841551,-1.79007,-0.00912026,0.150375,0.0365139,0.00380061,0.0936952,0.00245674,-0.0601039,-0.00156765,-0.00104744,-1.00223e-05,0,0,0,0,0,0,0,0.0828892,-24.6358,-0.288683,19.1077,0.520626,1.91887,0.0843355,
-0.0655194,-0.0803364,0.0843674,-1.79358,-0.00846309,0.149721,0.0365183,0.019136,0.0910452,0.0217347,-0.0748093,0.236272,-0.265859,0.00205066,-1.09044,11.6487,-1.19975,-10.5202,-36.5662,36.8611,-0.283085,-0.00799195,27.6405,0.279233,-23.015,-0.948259,-2.15844,0.000161351,-0.0656167,-0.0816612,0.084255,-1.79244,-0.00848108,0.149961,0.0365163,0.00906871,0.152006,0.0165578,-0.0932511,0.0387525,-0.0276788,-0.00110654,0.658512,7.2888,1.76263,-4.14339,5.04002,-3.32892,-0.137065,-0.29797,-23.1917,-0.736986,20.6271,1.05163,1.80627,0.104477,
-0.0648134,-0.0795817,0.0850959,-1.79495,-0.00671592,0.146101,0.0367502,0.0329592,0.0917034,0.035599,-0.0941201,0.232697,-0.303183,0.00744022,8.63955,0.411325,8.6652,-12.0693,-2.23451,-23.3279,3.36848,40.2528,-2.88378,41.3863,-23.6124,11.0517,-14.1584,0.269761,-0.0656167,-0.0816612,0.084255,-1.79244,-0.00848108,0.149961,0.0365163,0.00906871,0.152006,0.0165578,-0.0932511,0.0387525,-0.0276788,-0.00110654,0,0,0,0,0,0,0,-0.29797,-23.1917,-0.736986,20.6271,1.05163,1.80627,0.104477,
-0.0637122,-0.0790985,0.086234,-1.79635,-0.00340854,0.140073,0.0368871,0.0538978,0.0854422,0.0569319,-0.110303,0.268842,-0.393262,0.0093736,13.0866,-3.91325,13.3331,-10.1145,22.5907,-56.2993,1.20836,35.7563,-0.648686,36.761,-21.9836,11.0517,-14.1584,0.147437,-0.0656167,-0.0816612,0.084255,-1.79244,-0.00848108,0.149961,0.0365163,0.00906871,0.152006,0.0165578,-0.0932511,0.0387525,-0.0276788,-0.00110654,0,0,0,0,0,0,0,-0.29797,-23.1917,-0.736986,20.6271,1.05163,1.80627,0.104477,
-0.0623511,-0.0787363,0.0876432,-1.79772,0.00120883,0.132393,0.0369574,0.0771453,0.0774085,0.0807761,-0.122535,0.330508,-0.506611,0.00925675,14.5297,-5.02104,14.9027,-7.64466,38.5412,-70.8432,-0.0730301,32.4009,1.02278,33.3505,-20.3397,11.0517,-14.1584,0.0726371,-0.0656167,-0.0816612,0.084255,-1.79244,-0.00848108,0.149961,0.0365163,0.00906871,0.152006,0.0165578,-0.0932511,0.0387525,-0.0276788,-0.00110654,0,0,0,0,0,0,0,-0.29797,-23.1917,-0.736986,20.6271,1.05163,1.80627,0.104477,
-0.0623976,-0.0773822,0.0875563,-1.80069,0.0055631,0.135133,0.0370012,0.101102,0.068492,0.105319,-0.153133,0.36754,-0.561483,0.0107557,14.973,-5.5728,15.3391,-19.1236,23.1448,-34.2949,0.936833,48.8034,-7.46434,50.2203,-34.4516,11.0278,-14.0869,0.399248,-0.0651335,-0.0782046,0.0847402,-1.79637,-0.00158934,0.145426,0.0365208,0.044358,0.182156,0.0601553,-0.157095,0.283094,-0.191833,-0.000759673,4.41115,3.76884,5.44969,-7.98046,30.5427,-20.5192,0.0433584,7.10498,-25.9371,6.83656,25.7568,1.81518,1.86577,0.050461,
-0.0605889,-0.0772084,0.0894296,-1.80284,0.0107796,0.127314,0.0370092,0.126098,0.0591386,0.131088,-0.176086,0.424445,-0.644669,0.00880391,15.6225,-5.8459,16.1057,-14.3457,35.5655,-51.9909,-1.21986,41.1155,-3.52267,42.3468,-31.9812,11.0278,-14.0869,0.131718,-0.0651335,-0.0782046,0.0847402,-1.79637,-0.00158934,0.145426,0.0365208,0.044358,0.182156,0.0601553,-0.157095,0.283094,-0.191833,-0.000759673,0,0,0,0,0,0,0,7.10498,-25.9371,6.83656,25.7568,1.81518,1.86577,0.050461,
-0.05865,-0.0770623,0.0914387,-1.80492,0.0169306,0.118448,0.0369703,0.149351,0.0509619,0.155096,-0.193068,0.49333,-0.737375,0.00607071,14.5328,-5.11042,15.005,-10.614,43.0532,-57.9414,-1.70825,36.0961,-0.789101,37.1999,-29.7887,11.0278,-14.0869,-0.00805588,-0.0651335,-0.0782046,0.0847402,-1.79637,-0.00158934,0.145426,0.0365208,0.044358,0.182156,0.0601553,-0.157095,0.283094,-0.191833,-0.000759673,0,0,0,0,0,0,0,7.10498,-25.9371,6.83656,25.7568,1.81518,1.86577,0.050461,
-0.056645,-0.0769533,0.0935156,-1.80707,0.0238396,0.109402,0.036953,0.169607,0.0434946,0.176001,-0.208205,0.56739,-0.816062,0.00442407,12.6601,-4.66708,13.0659,-9.4608,46.2875,-49.1797,-1.02915,32.7918,0.372668,33.8106,-28.1997,11.0278,-14.0869,-0.0561443,-0.0651335,-0.0782046,0.0847402,-1.79637,-0.00158934,0.145426,0.0365208,0.044358,0.182156,0.0601553,-0.157095,0.283094,-0.191833,-0.000759673,0,0,0,0,0,0,0,7.10498,-25.9371,6.83656,25.7568,1.81518,1.86577,0.050461,
-0.063973,-0.0776448,0.0859284,-1.79849,0.00143776,0.141381,0.0368672,0.164697,0.0487916,0.170507,-0.2194,0.529589,-0.753972,0.0121998,-3.0685,3.31061,-3.43394,-6.99687,-23.6252,38.8068,4.85984,48.839,-7.18799,50.2485,-34.4202,11.0374,-13.9275,0.398903,-0.0623553,-0.0736988,0.0881825,-1.80209,0.00785996,0.132185,0.0364932,0.130889,0.160953,0.190558,-0.228876,0.343004,-0.45265,-0.00388994,10.8164,-2.65036,16.3003,-8.97267,7.48871,-32.6021,-0.391284,19.5067,-26.4845,19.3375,23.7891,3.49426,-0.12916,0.0980684,
-0.0623976,-0.0773822,0.0875563,-1.80069,0.0055631,0.135133,0.0370012,0.171144,0.0455985,0.177103,-0.230625,0.526805,-0.759371,0.0131101,4.02902,-1.99568,4.12279,-7.01545,-1.74036,-3.37493,0.56895,41.151,-3.24631,42.375,-31.9497,11.0374,-13.9275,0.131374,-0.0623553,-0.0736988,0.0881825,-1.80209,0.00785996,0.132185,0.0364932,0.130889,0.160953,0.190558,-0.228876,0.343004,-0.45265,-0.00388994,0,0,0,0,0,0,0,19.5067,-26.4845,19.3375,23.7891,3.49426,-0.12916,0.0980684,
-0.0605889,-0.0772084,0.0894296,-1.80284,0.0107796,0.127314,0.0370092,0.182131,0.0408237,0.188516,-0.23808,0.551857,-0.802979,0.0106875,6.86731,-2.9842,7.13266,-4.65914,15.6574,-27.2548,-1.51417,36.1316,-0.512747,37.2281,-29.7573,11.0374,-13.9275,-0.00840038,-0.0623553,-0.0736988,0.0881825,-1.80209,0.00785996,0.132185,0.0364932,0.130889,0.160953,0.190558,-0.228876,0.343004,-0.45265,-0.00388994,0,0,0,0,0,0,0,19.5067,-26.4845,19.3375,23.7891,3.49426,-0.12916,0.0980684,
-0.0573082,-0.0719507,0.0934374,-1.80845,0.0236849,0.110678,0.0364306,0.190993,0.0425835,0.197822,-0.244745,0.598474,-0.845959,0.00810056,5.53841,1.09987,5.81652,-4.16596,29.1356,-26.8625,-1.61682,36.1316,-0.512747,37.2281,-29.7573,11.0374,-13.9275,-0.00840038,-0.0623553,-0.0736988,0.0881825,-1.80209,0.00785996,0.132185,0.0364932,0.130889,0.160953,0.190558,-0.228876,0.343004,-0.45265,-0.00388994,0,0,0,0,0,0,0,19.5067,-26.4845,19.3375,23.7891,3.49426,-0.12916,0.0980684,
-0.0554495,-0.0716871,0.0953649,-1.81075,0.0306982,0.102682,0.0364345,0.199261,0.0406585,0.206447,-0.253209,0.654111,-0.876671,0.0065774,5.1676,-1.20316,5.3903,-5.29,34.7732,-19.1947,-0.951973,33.1254,1.2305,34.1599,-28.0748,11.1986,-13.5307,-0.057208,-0.0546972,-0.0713117,0.0994686,-1.81297,0.0228439,0.105975,0.0364559,0.295708,0.0237427,0.457975,-0.404138,0.587372,-0.90957,0.000192283,20.6024,-17.1513,33.4271,-21.9077,30.546,-57.115,0.510279,28.0522,-37.9143,28.0853,30.9897,5.38208,0.493399,0.00376909,
-0.0535946,-0.0715098,0.0972882,-1.81314,0.0382922,0.0952945,0.036408,0.205781,0.0369585,0.213238,-0.262483,0.713139,-0.886019,0.00460093,4.075,-2.31246,4.2444,-5.79586,36.8926,-5.84283,-1.23529,30.6653,1.1214,31.6294,-27.2577,11.1986,-11.7611,-0.0243334,-0.0546972,-0.0713117,0.0994686,-1.81297,0.0228439,0.105975,0.0364559,0.295708,0.0237427,0.457975,-0.404138,0.587372,-0.90957,0.000192283,0,0,0,0,0,0,0,28.0522,-37.9143,28.0853,30.9897,5.38208,0.493399,0.00376909,
-0.0517721,-0.071359,0.0991781,-1.81556,0.0463159,0.0887042,0.0363476,0.210189,0.0333366,0.217838,-0.270502,0.771103,-0.873574,0.00216997,2.75471,-2.26372,2.87522,-5.01195,36.2275,7.77838,-1.51935,28.1197,0.229111,29.0099,-27.2253,11.1986,-9.64094,0.00467594,-0.0546972,-0.0713117,0.0994686,-1.81297,0.0228439,0.105975,0.0364559,0.295708,0.0237427,0.457975,-0.404138,0.587372,-0.90957,0.000192283,0,0,0,0,0,0,0,28.0522,-37.9143,28.0853,30.9897,5.38208,0.493399,0.00376909,
-0.0452115,-0.0702032,0.109348,-1.82317,0.0540698,0.0780904,0.0362235,0.220834,0.0324541,0.228952,-0.278176,0.835367,-0.843936,-0.000399007,6.65326,-0.551539,6.94602,-4.7961,40.1649,18.5237,-1.60561,28.1197,0.229111,29.0099,-27.2253,11.1986,-9.64094,0.00467594,-0.0546972,-0.0713117,0.0994686,-1.81297,0.0228439,0.105975,0.0364559,0.295708,0.0237427,0.457975,-0.404138,0.587372,-0.90957,0.000192283,0,0,0,0,0,0,0,28.0522,-37.9143,28.0853,30.9897,5.38208,0.493399,0.00376909,
-0.0432266,-0.0699793,0.111408,-1.82558,0.0630047,0.0731982,0.0361422,0.226288,0.0315611,0.234647,-0.282919,0.891667,-0.797455,-0.0023528,3.40861,-0.5581,3.55957,-2.96487,35.1877,29.0502,-1.22112,25.3839,-0.634352,26.2239,-27.0651,11.1474,-7.51095,-0.0345825,-0.0458195,-0.0697605,0.113333,-1.82471,0.0313922,0.0751926,0.0364541,0.213067,-0.00687165,0.401295,-0.355648,0.172649,-0.931951,0.000557212,-10.3301,-3.82679,-7.08495,6.06126,-51.8404,-2.79767,0.0456161,-3.41626,-41.1119,-4.38689,36.893,0.971981,2.12487,0.0577852,
-0.0413426,-0.0697633,0.113362,-1.82794,0.0720194,0.0691961,0.0360683,0.228132,0.0306491,0.236583,-0.285357,0.938701,-0.738015,-0.00372797,1.1525,-0.570026,1.20979,-1.52345,29.3964,37.1502,-0.859476,23.1669,-0.253386,23.9557,-26.5618,11.1474,-5.81245,-0.0761674,-0.0458195,-0.0697605,0.113333,-1.82471,0.0313922,0.0751926,0.0364541,0.213067,-0.00687165,0.401295,-0.355648,0.172649,-0.931951,0.000557212,0,0,0,0,0,0,0,-3.41626,-41.1119,-4.38689,36.893,0.971981,2.12487,0.0577852,
-0.0395434,-0.0695577,0.115229,-1.83025,0.0810467,0.0660337,0.0360054,0.227486,0.0296594,0.235927,-0.285981,0.976642,-0.669472,-0.00455661,-0.403411,-0.618536,-0.409547,-0.39036,23.7129,42.8394,-0.517901,21.6726,0.203574,22.4317,-25.9515,11.1474,-4.40556,-0.0937494,-0.0458195,-0.0697605,0.113333,-1.82471,0.0313922,0.0751926,0.0364541,0.213067,-0.00687165,0.401295,-0.355648,0.172649,-0.931951,0.000557212,0,0,0,0,0,0,0,-3.41626,-41.1119,-4.38689,36.893,0.971981,2.12487,0.0577852,
-0.0417299,-0.069592,0.11764,-1.82977,0.0415491,0.0614044,0.0363253,0.230962,0.0262351,0.239995,-0.291109,0.930585,-0.698921,-0.00556834,2.1725,-2.14023,2.54226,-3.20489,-28.7856,-18.4056,-0.632333,25.3839,-0.634352,26.2239,-27.0651,11.1474,-7.51095,-0.0345825,-0.0458195,-0.0697605,0.113333,-1.82471,0.0313922,0.0751926,0.0364541,0.213067,-0.00687165,0.401295,-0.355648,0.172649,-0.931951,0.000557212,0,0,0,0,0,0,0,-3.41626,-41.1119,-4.38689,36.893,0.971981,2.12487,0.0577852,
-0.0398945,-0.0694667,0.119555,-1.83221,0.0486176,0.0557448,0.0362405,0.230655,0.0241209,0.239886,-0.293779,0.921181,-0.700627,-0.00657441,-0.191795,-1.32134,-0.0678904,-1.66885,-5.87742,-1.06624,-0.628793,23.1623,-0.625329,23.9946,-26.1918,11.1054,-5.50534,-0.0778148,-0.0372615,-0.0704543,0.13096,-1.83883,0.0430415,0.0435915,0.0364607,0.222751,-0.0731127,0.494081,-0.366438,0.460744,-0.767881,0.000625775,1.21049,-8.28013,11.5982,-1.34873,36.0119,20.5087,0.0085704,0.94379,-33.5979,-0.0387439,28.3237,2.52929,2.32354,0.0440523,
-0.0381461,-0.0693222,0.121377,-1.83459,0.0563546,0.0509941,0.0361608,0.228235,0.0229089,0.237453,-0.294568,0.930369,-0.679271,-0.00725043,-1.51256,-0.757523,-1.52073,-0.493092,5.74217,13.3478,-0.422511,21.668,-0.168369,22.4706,-25.5815,11.1054,-4.09845,-0.0953968,-0.0372615,-0.0704543,0.13096,-1.83883,0.0430415,0.0435915,0.0364607,0.222751,-0.0731127,0.494081,-0.366438,0.460744,-0.767881,0.000625775,0,0,0,0,0,0,0,0.94379,-33.5979,-0.0387439,28.3237,2.52929,2.32354,0.0440523,
-0.0307129,-0.0708619,0.137832,-1.84594,0.064234,0.0294279,0.0361847,0.231994,0.0173134,0.241484,-0.2926,0.944957,-0.638752,-0.00784391,2.34928,-3.49718,2.5193,1.23009,9.11795,25.3238,-0.370929,21.668,-0.168369,22.4706,-25.5815,11.1054,-4.09845,-0.0953968,-0.0372615,-0.0704543,0.13096,-1.83883,0.0430415,0.0435915,0.0364607,0.222751,-0.0731127,0.494081,-0.366438,0.460744,-0.767881,0.000625775,0,0,0,0,0,0,0,0.94379,-33.5979,-0.0387439,28.3237,2.52929,2.32354,0.0440523,
-0.0288684,-0.070858,0.139753,-1.84817,0.0726818,0.0264826,0.0361168,0.231707,0.0139481,0.241219,-0.289791,0.967161,-0.584633,-0.00797156,-0.179083,-2.1033,-0.16534,1.756,13.8771,33.8245,-0.0797761,20.6334,0.0841979,21.4132,-25.0528,11.1054,-2.91205,-0.0930356,-0.0372615,-0.0704543,0.13096,-1.83883,0.0430415,0.0435915,0.0364607,0.222751,-0.0731127,0.494081,-0.366438,0.460744,-0.767881,0.000625775,0,0,0,0,0,0,0,0.94379,-33.5979,-0.0387439,28.3237,2.52929,2.32354,0.0440523,
-0.0271233,-0.0708278,0.14157,-1.85035,0.0813483,0.0243286,0.0360603,0.228993,0.0119129,0.238391,-0.286407,0.990392,-0.521556,-0.00779039,-1.69643,-1.27205,-1.76777,2.11478,14.5195,39.4231,0.113229,19.8387,0.169091,20.597,-24.6135,11.1054,-1.88672,-0.0854541,-0.0372615,-0.0704543,0.13096,-1.83883,0.0430415,0.0435915,0.0364607,0.222751,-0.0731127,0.494081,-0.366438,0.460744,-0.767881,0.000625775,0,0,0,0,0,0,0,0.94379,-33.5979,-0.0387439,28.3237,2.52929,2.32354,0.0440523,
-0.0254572,-0.0707831,0.143304,-1.85249,0.0901165,0.0228809,0.0360154,0.224848,0.0106486,0.234061,-0.282567,1.01152,-0.453438,-0.00735398,-2.59069,-0.790148,-2.7063,2.40029,13.2034,42.5737,0.272757,18.9512,-0.413292,19.7197,-24.1585,10.8481,-0.982224,-0.0733257,-0.0312485,-0.0707667,0.144431,-1.84953,0.0648903,0.0256959,0.0364485,0.109631,-0.0699509,0.309613,-0.266861,0.695193,-0.517926,-0.0146094,-14.1401,0.395228,-23.0584,12.4471,29.3061,31.2445,-1.9044,3.20118,-30.2297,1.81398,21.972,0.349423,3.69591,0.251877,
-0.025293,-0.0715999,0.150675,-1.85779,0.0949042,0.0181077,0.0362611,0.215767,0.00625248,0.224696,-0.276676,1.01215,-0.382558,-0.00667697,-5.67558,-2.74759,-5.85295,3.68153,0.392252,44.3003,0.423133,18.9512,-0.413292,19.7197,-24.1585,10.8481,-0.982224,-0.0733257,-0.0312485,-0.0707667,0.144431,-1.84953,0.0648903,0.0256959,0.0364485,0.109631,-0.0699509,0.309613,-0.266861,0.695193,-0.517926,-0.0146094,0,0,0,0,0,0,0,3.20118,-30.2297,1.81398,21.972,0.349423,3.69591,0.251877,
-0.023884,-0.0716519,0.152145,-1.85978,0.103195,0.0178759,0.0362387,0.20784,0.0037028,0.216502,-0.271155,1.01698,-0.31184,-0.00590159,-4.95425,-1.59355,-5.12131,3.45051,3.02103,44.1987,0.484611,18.3643,-0.442159,19.1102,-23.809,10.8481,-0.230527,-0.0618735,-0.0312485,-0.0707667,0.144431,-1.84953,0.0648903,0.0256959,0.0364485,0.109631,-0.0699509,0.309613,-0.266861,0.695193,-0.517926,-0.0146094,0,0,0,0,0,0,0,3.20118,-30.2297,1.81398,21.972,0.349423,3.69591,0.251877,
-0.0225006,-0.0716782,0.153588,-1.86174,0.111591,0.0181176,0.0362243,0.200857,0.00230391,0.209274,-0.265856,1.02349,-0.24343,-0.00508265,-4.3645,-0.874303,-4.51791,3.31216,4.06889,42.7561,0.511837,17.8285,-0.466841,18.5522,-23.4761,10.8481,0.402645,-0.048635,-0.0312485,-0.0707667,0.144431,-1.84953,0.0648903,0.0256959,0.0364485,0.109631,-0.0699509,0.309613,-0.266861,0.695193,-0.517926,-0.0146094,0,0,0,0,0,0,0,3.20118,-30.2297,1.81398,21.972,0.349423,3.69591,0.251877,
-0.0185474,-0.0705974,0.163288,-1.86844,0.134338,0.00622683,0.0364095,0.194171,0.00247076,0.202374,-0.260381,1.02951,-0.173232,-0.00387991,-4.17893,0.104283,-4.31202,3.42203,3.76436,43.8737,0.751713,16.8204,-0.607477,17.532,-22.7314,10.7135,1.52133,-0.0260906,-0.0257683,-0.0705125,0.15573,-1.8584,0.0939958,0.00791368,0.0364552,0.149224,0.000951882,0.287814,-0.219289,0.823295,-0.447445,-0.000822351,4.94923,8.86285,-2.7249,5.94644,16.0127,8.81004,1.72338,-7.52636,-32.5505,-7.96141,24.2889,0.795284,3.5833,0.104477,
-0.0172467,-0.0705674,0.164646,-1.87029,0.142807,0.00743319,0.0364236,0.187855,0.00272819,0.195846,-0.25468,1.03535,-0.108427,-0.00275011,-3.94763,0.160893,-4.07998,3.56314,3.64591,40.5033,0.706121,16.3597,-0.578595,17.0515,-22.4078,10.7135,1.87853,-0.015632,-0.0257683,-0.0705125,0.15573,-1.8584,0.0939958,0.00791368,0.0364552,0.149224,0.000951882,0.287814,-0.219289,0.823295,-0.447445,-0.000822351,0,0,0,0,0,0,0,-7.52636,-32.5505,-7.96141,24.2889,0.795284,3.5833,0.104477,
-0.0159821,-0.0705367,0.165966,-1.8721,0.151291,0.00891029,0.0364445,0.181898,0.00295049,0.189684,-0.248906,1.04038,-0.049814,-0.00167827,-3.72298,0.138939,-3.85129,3.60818,3.14887,36.633,0.6699,15.917,-0.534062,16.5896,-22.0846,10.7135,2.16859,-0.00479773,-0.0257683,-0.0705125,0.15573,-1.8584,0.0939958,0.00791368,0.0364552,0.149224,0.000951882,0.287814,-0.219289,0.823295,-0.447445,-0.000822351,0,0,0,0,0,0,0,-7.52636,-32.5505,-7.96141,24.2889,0.795284,3.5833,0.104477,
-0.0147521,-0.0705078,0.16725,-1.87386,0.159775,0.0105988,0.0364717,0.176268,0.00308262,0.183858,-0.243174,1.04439,0.00236163,-0.000662626,-3.51845,0.0825777,-3.64152,3.58267,2.50389,32.6098,0.634779,15.487,-0.481928,16.1407,-21.7618,10.7135,2.3987,0.00463856,-0.0257683,-0.0705125,0.15573,-1.8584,0.0939958,0.00791368,0.0364552,0.149224,0.000951882,0.287814,-0.219289,0.823295,-0.447445,-0.000822351,0,0,0,0,0,0,0,-7.52636,-32.5505,-7.96141,24.2889,0.795284,3.5833,0.104477,
-0.0153839,-0.0700185,0.170818,-1.87242,0.165953,0.0093332,0.0365518,0.169839,0.00237881,0.177212,-0.236772,1.04422,0.0518135,0.00034135,-4.01802,-0.439881,-4.15372,4.00115,-0.104297,30.9074,0.627485,15.0442,-0.664226,15.704,-21.397,10.5298,2.60226,0.0126383,-0.0213745,-0.0700401,0.164542,-1.86387,0.124886,0.00118387,0.0364499,0.102263,0.0441767,0.23006,-0.126359,0.942636,0.00282666,-0.000382203,-5.87021,5.4031,-7.21924,11.6162,14.9177,56.284,0.0550185,-6.74084,-30.6026,-7.31078,24.7849,0.306393,3.23907,0.138352,
-0.0142556,-0.0700197,0.171997,-1.87408,0.174316,0.0114252,0.0365931,0.164077,0.0018736,0.171251,-0.230884,1.04445,0.0937509,0.00130533,-3.60165,-0.315754,-3.72568,3.68036,0.141875,26.2109,0.602488,14.6377,-0.606095,15.2796,-21.0782,10.5298,2.74205,0.0211485,-0.0213745,-0.0700401,0.164542,-1.86387,0.124886,0.00118387,0.0364499,0.102263,0.0441767,0.23006,-0.126359,0.942636,0.00282666,-0.000382203,0,0,0,0,0,0,0,-6.74084,-30.6026,-7.31078,24.7849,0.306393,3.23907,0.138352,
-0.013154,-0.0700197,0.173148,-1.87571,0.182683,0.0135891,0.0366385,0.158802,0.00149992,0.16577,-0.225434,1.04475,0.129097,0.0021804,-3.29701,-0.23355,-3.42521,3.40617,0.190119,22.0915,0.546917,14.2413,-0.547794,14.8658,-20.7629,10.5298,2.85095,0.0297156,-0.0213745,-0.0700401,0.164542,-1.86387,0.124886,0.00118387,0.0364499,0.102263,0.0441767,0.23006,-0.126359,0.942636,0.00282666,-0.000382203,0,0,0,0,0,0,0,-6.74084,-30.6026,-7.31078,24.7849,0.306393,3.23907,0.138352,
-0.01208,-0.0700186,0.174268,-1.87731,0.191049,0.0158063,0.0366882,0.153891,0.00122554,0.160609,-0.220358,1.04494,0.158709,0.00298536,-3.06883,-0.17149,-3.22592,3.17264,0.117763,18.5074,0.5031,13.8506,-0.492685,14.4577,-20.4518,10.5298,2.93317,0.0377459,-0.0213745,-0.0700401,0.164542,-1.86387,0.124886,0.00118387,0.0364499,0.102263,0.0441767,0.23006,-0.126359,0.942636,0.00282666,-0.000382203,0,0,0,0,0,0,0,-6.74084,-30.6026,-7.31078,24.7849,0.306393,3.23907,0.138352,
-0.0201316,-0.0699907,0.165856,-1.86551,0.132857,0.00226441,0.0364536,0.154184,0.0022148,0.161321,-0.217271,1.03524,0.153981,0.00247984,0.182826,0.618286,0.444729,1.92903,-6.06278,-2.95515,-0.315948,15.0512,-0.720463,15.7286,-21.4106,10.3917,2.58865,0.0120505,-0.0184137,-0.0687211,0.172914,-1.86712,0.155798,0.00642491,0.0364555,0.0641883,0.0999182,0.232821,-0.0847105,0.893655,0.28554,-0.00116656,-4.75931,6.96769,0.345133,5.20611,-6.12265,35.3391,-0.0980448,-3.31707,-31.9237,-4.13695,28.6966,0.226742,3.99438,0.0907442,
-0.0189111,-0.0699971,0.167132,-1.86726,0.141022,0.00374946,0.0364674,0.153862,0.00161372,0.160962,-0.217551,1.03231,0.160311,0.00232905,-0.201507,-0.375671,-0.224249,-0.175033,-1.83211,3.95618,-0.0942461,14.6447,-0.662332,15.3042,-21.0918,10.3917,2.72844,0.0205607,-0.0184137,-0.0687211,0.172914,-1.86712,0.155798,0.00642491,0.0364555,0.0641883,0.0999182,0.232821,-0.0847105,0.893655,0.28554,-0.00116656,0,0,0,0,0,0,0,-3.31707,-31.9237,-4.13695,28.6966,0.226742,3.99438,0.0907442,
-0.0177129,-0.0700079,0.168384,-1.86901,0.149286,0.00546252,0.0364889,0.153043,0.00101932,0.160075,-0.217707,1.03244,0.171075,0.00240169,-0.511511,-0.3715,-0.554122,-0.0974966,0.08069,6.72766,0.045404,14.2484,-0.60403,14.8903,-20.7765,10.3917,2.83734,0.0291278,-0.0184137,-0.0687211,0.172914,-1.86712,0.155798,0.00642491,0.0364555,0.0641883,0.0999182,0.232821,-0.0847105,0.893655,0.28554,-0.00116656,0,0,0,0,0,0,0,-3.31707,-31.9237,-4.13695,28.6966,0.226742,3.99438,0.0907442,
-0.0165368,-0.070015,0.169613,-1.87073,0.157604,0.00733623,0.0365169,0.151836,0.000637345,0.158787,-0.217168,1.03392,0.183703,0.00262098,-0.754296,-0.238736,-0.805203,0.337211,0.923442,7.89239,0.137056,13.8576,-0.548922,14.4823,-20.4654,10.3917,2.91956,0.0371581,-0.0184137,-0.0687211,0.172914,-1.86712,0.155798,0.00642491,0.0364555,0.0641883,0.0999182,0.232821,-0.0847105,0.893655,0.28554,-0.00116656,0,0,0,0,0,0,0,-3.31707,-31.9237,-4.13695,28.6966,0.226742,3.99438,0.0907442,
-0.0132262,-0.0680287,0.178365,-1.87495,0.195872,0.0197108,0.036665,0.146341,0.00176961,0.152953,-0.212948,1.0321,0.209153,0.00344086,-3.43448,0.707668,-3.64625,2.63701,-1.1345,15.906,0.512421,13.4905,-0.542598,14.112,-20.2429,10.2852,2.89228,0.0467188,-0.0170194,-0.0678584,0.179075,-1.86963,0.184216,0.0194292,0.0364637,0.0193322,0.0760466,0.140202,-0.0602802,0.728846,0.445614,0.00182511,-5.60702,-2.98394,-11.5774,3.05379,-20.6012,20.0092,0.373959,-4.53503,-32.4513,-5.46202,31.3864,0.837399,4.16649,0.017502,
-0.0122561,-0.06799,0.179377,-1.87649,0.204099,0.022148,0.0367193,0.141326,0.00238485,0.147651,-0.208942,1.03137,0.228251,0.00410893,-3.13475,0.38452,-3.3139,2.50433,-0.454829,11.9365,0.417545,13.0814,-0.490153,13.6845,-19.9438,10.2852,2.93704,0.0550135,-0.0170194,-0.0678584,0.179075,-1.86963,0.184216,0.0194292,0.0364637,0.0193322,0.0760466,0.140202,-0.0602802,0.728846,0.445614,0.00182511,0,0,0,0,0,0,0,-4.53503,-32.4513,-5.46202,31.3864,0.837399,4.16649,0.017502,
-0.0113086,-0.0679567,0.180369,-1.87801,0.212246,0.0245451,0.0367734,0.136748,0.00274071,0.142924,-0.204967,1.02876,0.242531,0.00464,-2.86077,0.222418,-2.95383,2.48424,-1.63393,8.9247,0.331918,12.6462,-0.435627,13.2194,-19.6546,10.2852,2.96522,0.0603887,-0.0170194,-0.0678584,0.179075,-1.86963,0.184216,0.0194292,0.0364637,0.0193322,0.0760466,0.140202,-0.0602802,0.728846,0.445614,0.00182511,0,0,0,0,0,0,0,-4.53503,-32.4513,-5.46202,31.3864,0.837399,4.16649,0.017502,
-0.0103616,-0.0679247,0.181359,-1.87947,0.219933,0.0269041,0.0368289,0.133072,0.00299036,0.139082,-0.200617,1.01518,0.252999,0.00509943,-2.29755,0.156031,-2.40159,2.71854,-8.48689,6.54264,0.287148,12.2186,-0.369683,12.742,-19.3674,10.2852,2.98405,0.0658452,-0.0170194,-0.0678584,0.179075,-1.86963,0.184216,0.0194292,0.0364637,0.0193322,0.0760466,0.140202,-0.0602802,0.728846,0.445614,0.00182511,0,0,0,0,0,0,0,-4.53503,-32.4513,-5.46202,31.3864,0.837399,4.16649,0.017502,
-0.0135284,-0.0674752,0.182772,-1.87645,0.218965,0.0354245,0.0367402,0.125947,0.00313846,0.131709,-0.194865,0.976387,0.270587,0.00549388,-4.4532,0.0925601,-4.60806,3.59507,-24.2464,10.9929,0.246526,11.7362,-0.290175,12.2271,-19.101,10.2041,2.9604,0.0718178,-0.0157876,-0.0670504,0.183725,-1.87171,0.204218,0.0324456,0.0364525,0.030065,0.025821,0.150738,-0.0907188,0.541719,0.427275,0.00310469,1.3416,-6.2782,1.31703,-3.80482,-23.3908,-2.29236,0.159948,0.717655,-33.4709,0.238966,30.9381,1.24664,1.54809,0.0376436,
-0.0127159,-0.0674499,0.183622,-1.8778,0.224924,0.0380044,0.036795,0.121071,0.00314301,0.126629,-0.18956,0.930085,0.280968,0.00576376,-3.04743,0.00284107,-3.1752,3.3156,-28.9387,6.48818,0.16868,11.2469,-0.204014,11.7269,-18.8263,10.2041,2.9539,0.0722637,-0.0157876,-0.0670504,0.183725,-1.87171,0.204218,0.0324456,0.0364525,0.030065,0.025821,0.150738,-0.0907188,0.541719,0.427275,0.00310469,0,0,0,0,0,0,0,0.717655,-33.4709,0.238966,30.9381,1.24664,1.54809,0.0376436,
-0.0118803,-0.0674282,0.184495,-1.87912,0.230225,0.0404653,0.036848,0.117747,0.00305682,0.123138,-0.184656,0.876586,0.286296,0.00593579,-2.07733,-0.0538673,-2.18188,3.06513,-33.4368,3.32958,0.10752,10.7553,-0.0830331,11.2853,-18.5343,9.85506,2.94513,0.0713785,-0.0157876,-0.0670504,0.183725,-1.87171,0.204218,0.0324456,0.0364525,0.030065,0.025821,0.150738,-0.0907188,0.541719,0.427275,0.00310469,0,0,0,0,0,0,0,0.717655,-33.4709,0.238966,30.9381,1.24664,1.54809,0.0376436,
-0.0129726,-0.0671239,0.18672,-1.87679,0.22469,0.0446485,0.0366601,0.112903,0.00205355,0.118164,-0.179876,0.819945,0.296529,0.00607906,-3.02775,-0.627044,-3.10886,2.98763,-35.4007,6.39561,0.0895401,10.3222,0.05842,10.8707,-18.2225,8.39839,2.92073,0.0706403,-0.0157876,-0.0670504,0.183725,-1.87171,0.204218,0.0324456,0.0364525,0.030065,0.025821,0.150738,-0.0907188,0.541719,0.427275,0.00310469,0,0,0,0,0,0,0,0.717655,-33.4709,0.238966,30.9381,1.24664,1.54809,0.0376436,
-0.0121988,-0.0671313,0.187531,-1.87806,0.228935,0.0471827,0.0367133,0.109667,0.00145726,0.114803,-0.175646,0.762082,0.300578,0.00619146,-2.02267,-0.372678,-2.10004,2.64369,-36.1641,2.53054,0.07025,9.94571,0.193044,10.495,-17.9091,7.15587,2.87491,0.067525,-0.0157876,-0.0670504,0.183725,-1.87171,0.204218,0.0324456,0.0364525,0.030065,0.025821,0.150738,-0.0907188,0.541719,0.427275,0.00310469,0,0,0,0,0,0,0,0.717655,-33.4709,0.238966,30.9381,1.24664,1.54809,0.0376436,
-0.0114062,-0.0671323,0.188361,-1.87931,0.232642,0.0495838,0.0367661,0.107549,0.00114086,0.112575,-0.171848,0.702341,0.300488,0.00627544,-1.32383,-0.197753,-1.39294,2.37347,-37.3381,-0.0559766,0.0524897,9.6655,0.393636,10.2136,-17.7047,5.98603,2.73879,0.0660124,-0.0145182,-0.0659727,0.187777,-1.87446,0.222232,0.0508568,0.0364589,0.033199,-0.0197213,0.0788997,-0.0899721,0.469355,0.56867,-0.00558562,0.391747,-5.69278,-8.97983,0.0933306,-9.04554,17.6744,-1.08629,-2.93621,-32.8005,-3.56169,31.0889,1.29608,2.92687,0.017502,
-0.0106011,-0.0671282,0.189202,-1.88055,0.235807,0.0518743,0.0368196,0.106165,0.00101506,0.111094,-0.168395,0.641002,0.297654,0.00635561,-0.864937,-0.0786215,-0.925538,2.1584,-38.3371,-1.77158,0.0501054,9.4331,0.495328,9.97046,-17.3903,4.99716,2.68221,0.0641939,-0.0145182,-0.0659727,0.187777,-1.87446,0.222232,0.0508568,0.0364589,0.033199,-0.0197213,0.0788997,-0.0899721,0.469355,0.56867,-0.00558562,0,0,0,0,0,0,0,-2.93621,-32.8005,-3.56169,31.0889,1.29608,2.92687,0.017502,
-0.0114369,-0.0666491,0.191016,-1.87967,0.236043,0.0670464,0.0367314,0.10242,-0.00116922,0.107156,-0.162175,0.561061,0.303144,0.00649492,-2.34056,-1.36518,-2.46118,3.88747,-49.963,3.43124,0.0870661,9.25765,0.575798,9.78275,-17.0775,4.10082,2.62364,0.063913,-0.0145182,-0.0659727,0.187777,-1.87446,0.222232,0.0508568,0.0364589,0.033199,-0.0197213,0.0788997,-0.0899721,0.469355,0.56867,-0.00558562,0,0,0,0,0,0,0,-2.93621,-32.8005,-3.56169,31.0889,1.29608,2.92687,0.017502,
-0.010717,-0.0667068,0.191768,-1.88077,0.237579,0.0694512,0.0367881,0.0999345,-0.00237855,0.104525,-0.157398,0.487246,0.302636,0.00661336,-1.55335,-0.755827,-1.64421,2.98564,-46.1344,-0.317356,0.0740298,9.12445,0.635894,9.63603,-16.7685,3.31135,2.56946,0.063758,-0.0145182,-0.0659727,0.187777,-1.87446,0.222232,0.0508568,0.0364589,0.033199,-0.0197213,0.0788997,-0.0899721,0.469355,0.56867,-0.00558562,0,0,0,0,0,0,0,-2.93621,-32.8005,-3.56169,31.0889,1.29608,2.92687,0.017502,
-0.0099841,-0.0667465,0.192533,-1.88188,0.238751,0.0716965,0.0368454,0.0982692,-0.00289704,0.102749,-0.153648,0.419115,0.29824,0.00672301,-1.04079,-0.324058,-1.1104,2.34351,-42.5822,-2.74732,0.0685292,8.94646,0.76652,9.44353,-16.5502,2.56036,2.431,0.0662799,-0.013056,-0.0651145,0.190196,-1.87718,0.229883,0.0721306,0.0364519,0.0353787,-0.00106319,0.0704007,-0.0673493,0.0261372,0.612806,9.11648e-06,0.272466,2.33226,-1.06238,2.82785,-55.4022,5.51706,0.699342,-5.74902,-31.1263,-6.21184,22.9678,0.397946,1.39519,0.0706026,
-0.0092445,-0.0667715,0.193305,-1.88299,0.239599,0.0738104,0.0369029,0.0971055,-0.00294053,0.101497,-0.150626,0.356472,0.291441,0.0068162,-0.727355,-0.0271842,-0.782099,1.88853,-39.1516,-4.24947,0.0582414,8.86482,0.790471,9.34772,-16.2491,1.94797,2.38044,0.0669639,-0.013056,-0.0651145,0.190196,-1.87718,0.229883,0.0721306,0.0364519,0.0353787,-0.00106319,0.0704007,-0.0673493,0.0261372,0.612806,9.11648e-06,0,0,0,0,0,0,0,-5.74902,-31.1263,-6.21184,22.9678,0.397946,1.39519,0.0706026,
-0.0110435,-0.0654916,0.192335,-1.88106,0.232657,0.0860416,0.0366699,0.0919543,-0.00402612,0.0962021,-0.146411,0.299928,0.303225,0.00691767,-3.21949,-0.678489,-3.30944,2.63444,-35.34,7.36494,0.0634198,8.86482,0.790471,9.34772,-16.2491,1.94797,2.38044,0.0669639,-0.013056,-0.0651145,0.190196,-1.87718,0.229883,0.0721306,0.0364519,0.0353787,-0.00106319,0.0704007,-0.0673493,0.0261372,0.612806,9.11648e-06,0,0,0,0,0,0,0,-5.74902,-31.1263,-6.21184,22.9678,0.397946,1.39519,0.0706026,
-0.0104388,-0.0655382,0.192969,-1.88211,0.233078,0.0885582,0.036729,0.0886827,-0.00438516,0.0928138,-0.143437,0.250455,0.305495,0.00701091,-2.04477,-0.2244,-2.11771,1.85908,-30.9205,1.41888,0.0582751,8.7966,0.799858,9.26556,-15.9514,1.40749,2.32946,0.0682943,-0.013056,-0.0651145,0.190196,-1.87718,0.229883,0.0721306,0.0364519,0.0353787,-0.00106319,0.0704007,-0.0673493,0.0261372,0.612806,9.11648e-06,0,0,0,0,0,0,0,-5.74902,-31.1263,-6.21184,22.9678,0.397946,1.39519,0.0706026,
-0.00980793,-0.0655671,0.19363,-1.88317,0.23332,0.090851,0.0367885,0.0867169,-0.00423254,0.0907557,-0.141279,0.206426,0.301717,0.00709591,-1.22859,0.0953827,-1.28634,1.34841,-27.5186,-2.36127,0.0531248,8.72906,0.838337,9.18304,-15.7127,0.972721,2.20502,0.069655,-0.01202,-0.064628,0.192367,-1.87993,0.227577,0.0905493,0.0364452,0.0176766,-0.00910453,0.0439282,-0.0747965,-0.108221,0.443138,0.000590831,-2.21277,-1.00517,-3.30906,-0.930892,-16.7947,-21.2085,0.0727144,-1.26202,-29.9519,-1.63756,20.5002,-0.279545,1.16356,0.050461,
-0.00915839,-0.0655813,0.194309,-1.88424,0.233393,0.0929666,0.0368479,0.085612,-0.00373965,0.0895778,-0.139645,0.166955,0.294264,0.00716184,-0.690565,0.30806,-0.736181,1.02139,-24.6691,-4.65828,0.0412071,8.66985,0.826912,9.11016,-15.422,0.575009,2.15736,0.070883,-0.01202,-0.064628,0.192367,-1.87993,0.227577,0.0905493,0.0364452,0.0176766,-0.00910453,0.0439282,-0.0747965,-0.108221,0.443138,0.000590831,0,0,0,0,0,0,0,-1.26202,-29.9519,-1.63756,20.5002,-0.279545,1.16356,0.050461,
-0.00980044,-0.0649983,0.194713,-1.88473,0.225007,0.103726,0.0367479,0.0820904,-0.00361744,0.0859092,-0.136985,0.120299,0.288561,0.00725064,-2.20102,0.0763803,-2.29287,1.66265,-29.1598,-3.56425,0.055499,8.60907,0.8088,9.03577,-15.1344,0.245559,2.1132,0.0715708,-0.01202,-0.064628,0.192367,-1.87993,0.227577,0.0905493,0.0364452,0.0176766,-0.00910453,0.0439282,-0.0747965,-0.108221,0.443138,0.000590831,0,0,0,0,0,0,0,-1.26202,-29.9519,-1.63756,20.5002,-0.279545,1.16356,0.050461,
-0.0092288,-0.065006,0.195311,-1.88575,0.224436,0.105688,0.0368081,0.0799635,-0.0030873,0.0836723,-0.134956,0.0819617,0.279897,0.00730548,-1.32932,0.331335,-1.39808,1.26777,-23.9611,-5.41466,0.0342758,8.54524,0.785584,8.95881,-14.849,-0.0345667,2.06884,0.0724279,-0.01202,-0.064628,0.192367,-1.87993,0.227577,0.0905493,0.0364452,0.0176766,-0.00910453,0.0439282,-0.0747965,-0.108221,0.443138,0.000590831,0,0,0,0,0,0,0,-1.26202,-29.9519,-1.63756,20.5002,-0.279545,1.16356,0.050461,
-0.00863777,-0.065,0.195928,-1.88676,0.223828,0.107516,0.0368674,0.0787464,-0.00231974,0.0823711,-0.133315,0.0503703,0.269622,0.00732618,-0.760691,0.479724,-0.813249,1.02588,-19.7446,-6.42214,0.0129402,8.47678,0.786282,8.87619,-14.5985,-0.223746,1.9792,0.0728968,-0.0114081,-0.064466,0.193456,-1.88245,0.22069,0.102054,0.0364024,0.0192885,0.00822682,0.0310151,-0.0648706,-0.246003,0.243264,-0.000352841,0.201492,2.16642,-1.61414,1.24074,-17.2229,-24.9842,-0.117959,-0.908932,-29.1783,-1.4868,21.3214,-0.206302,1.34209,0.0239107,
-0.0062342,-0.0641488,0.198858,-1.89222,0.210191,0.119918,0.0369693,0.0749196,-0.000609115,0.0782839,-0.125332,0.0298813,0.244826,0.00679845,-2.39172,1.06914,-2.5545,4.98928,-12.8056,-15.4977,-0.329833,7.56304,0.547992,7.86378,-12.0982,-0.855687,1.68322,0.0676376,-0.0114081,-0.064466,0.193456,-1.88245,0.22069,0.102054,0.0364024,0.0192885,0.00822682,0.0310151,-0.0648706,-0.246003,0.243264,-0.000352841,0,0,0,0,0,0,0,-0.908932,-29.1783,-1.4868,21.3214,-0.206302,1.34209,0.0239107,
-0.00576343,-0.064099,0.199347,-1.89295,0.209824,0.121056,0.0370051,0.0717048,0.000759164,0.074852,-0.118458,0.0147326,0.224304,0.0063331,-2.00928,0.855174,-2.14489,4.29625,-9.46794,-12.8258,-0.290842,7.43282,0.527385,7.72437,-11.8226,-0.835648,1.65952,0.0661372,-0.0114081,-0.064466,0.193456,-1.88245,0.22069,0.102054,0.0364024,0.0192885,0.00822682,0.0310151,-0.0648706,-0.246003,0.243264,-0.000352841,0,0,0,0,0,0,0,-0.908932,-29.1783,-1.4868,21.3214,-0.206302,1.34209,0.0239107,
-0.00530011,-0.0640495,0.199828,-1.89366,0.209503,0.122169,0.0370391,0.0689469,0.00184299,0.0719115,-0.112459,0.0037539,0.207278,0.00591732,-1.72367,0.677394,-1.83784,3.74973,-6.86169,-10.6412,-0.259865,7.29852,0.507746,7.58125,-11.5472,-0.809501,1.63638,0.0646197,-0.0114081,-0.064466,0.193456,-1.88245,0.22069,0.102054,0.0364024,0.0192885,0.00822682,0.0310151,-0.0648706,-0.246003,0.243264,-0.000352841,0,0,0,0,0,0,0,-0.908932,-29.1783,-1.4868,21.3214,-0.206302,1.34209,0.0239107,
-0.00484526,-0.0640009,0.2003,-1.89435,0.209223,0.12326,0.0370715,0.0665288,0.00269067,0.0693379,-0.107148,-0.00398522,0.193103,0.0055421,-1.51131,0.529799,-1.60851,3.31938,-4.83695,-8.85973,-0.234512,7.17005,0.507419,7.44284,-11.2833,-0.727273,1.5955,0.0628811,-0.0106069,-0.0643408,0.194599,-1.88504,0.210455,0.107704,0.0363665,0.0164877,0.0211042,0.038369,-0.0873234,-0.31081,0.113936,-0.00256863,-0.350095,1.60968,0.919245,-2.80661,-8.10086,-16.166,-0.276974,1.4516,-28.857,0.913405,22.9916,0.318295,1.28258,0.0303194,
-0.00722782,-0.0634572,0.198143,-1.89225,0.202491,0.118609,0.0367063,0.0626208,0.0037354,0.0652337,-0.100996,-0.00931124,0.180174,0.00508597,-2.44247,0.652953,-2.56512,3.84464,-3.32876,-8.08087,-0.285081,6.28129,0.401629,6.50843,-9.63189,-0.4766,1.48948,0.0515023,-0.0106069,-0.0643408,0.194599,-1.88504,0.210455,0.107704,0.0363665,0.0164877,0.0211042,0.038369,-0.0873234,-0.31081,0.113936,-0.00256863,0,0,0,0,0,0,0,1.4516,-28.857,0.913405,22.9916,0.318295,1.28258,0.0303194,
-0.00685581,-0.0633988,0.198529,-1.89284,0.202302,0.119618,0.0367306,0.059397,0.00444666,0.0618445,-0.0954851,-0.0121765,0.169352,0.00467599,-2.01488,0.444542,-2.11825,3.44448,-1.79078,-6.76362,-0.256238,6.12586,0.383202,6.3462,-9.35676,-0.435269,1.47403,0.0494866,-0.0106069,-0.0643408,0.194599,-1.88504,0.210455,0.107704,0.0363665,0.0164877,0.0211042,0.038369,-0.0873234,-0.31081,0.113936,-0.00256863,0,0,0,0,0,0,0,1.4516,-28.857,0.913405,22.9916,0.318295,1.28258,0.0303194,
-0.0064895,-0.0633451,0.198909,-1.8934,0.202164,0.120606,0.0367531,0.0566752,0.00489986,0.0589816,-0.0904913,-0.0132067,0.160183,0.00430376,-1.70116,0.283249,-1.78927,3.12113,-0.643868,-5.73069,-0.232646,5.96889,0.364193,6.1826,-9.08168,-0.394719,1.45929,0.0474122,-0.0106069,-0.0643408,0.194599,-1.88504,0.210455,0.107704,0.0363665,0.0164877,0.0211042,0.038369,-0.0873234,-0.31081,0.113936,-0.00256863,0,0,0,0,0,0,0,1.4516,-28.857,0.913405,22.9916,0.318295,1.28258,0.0303194,
-0.00613041,-0.0632958,0.199282,-1.89394,0.202073,0.121572,0.0367739,0.0543174,0.00515442,0.0565021,-0.0859156,-0.0128411,0.152291,0.00396168,-1.47361,0.159098,-1.54969,2.85977,0.228474,-4.93233,-0.213801,5.81473,0.335751,6.01905,-8.78485,-0.314359,1.45178,0.0452449,-0.00979802,-0.0640287,0.195783,-1.88836,0.201287,0.110022,0.0363412,0.0117167,0.0221341,0.0264723,-0.101445,-0.21382,0.0229557,-0.0043021,-0.596385,0.128737,-1.48709,-1.76515,12.1239,-11.3725,-0.216683,1.75708,-31.8999,1.13954,26.9034,1.14959,1.96557,0.0843355,
-0.00767832,-0.0630406,0.198012,-1.89352,0.19659,0.11602,0.0365382,0.0509429,0.00611361,0.0529958,-0.0817907,-0.0135171,0.143347,0.00361566,-2.10907,0.599496,-2.19144,2.57811,-0.422503,-5.59016,-0.216262,5.17334,0.247401,5.35329,-7.6849,-0.178409,1.3889,0.0369373,-0.00979802,-0.0640287,0.195783,-1.88836,0.201287,0.110022,0.0363412,0.0117167,0.0221341,0.0264723,-0.101445,-0.21382,0.0229557,-0.0043021,0,0,0,0,0,0,0,1.75708,-31.8999,1.13954,26.9034,1.14959,1.96557,0.0843355,
-0.0073809,-0.0629711,0.198321,-1.89402,0.196543,0.116866,0.0365541,0.0481898,0.0066282,0.0501279,-0.0777684,-0.0119788,0.135843,0.00329098,-1.72066,0.321615,-1.79246,2.51395,0.961481,-4.68974,-0.202921,5.01208,0.222858,5.18618,-7.40993,-0.146854,1.37079,0.034852,-0.00979802,-0.0640287,0.195783,-1.88836,0.201287,0.110022,0.0363412,0.0117167,0.0221341,0.0264723,-0.101445,-0.21382,0.0229557,-0.0043021,0,0,0,0,0,0,0,1.75708,-31.8999,1.13954,26.9034,1.14959,1.96557,0.0843355,
-0.00708796,-0.0629106,0.198626,-1.89448,0.196579,0.117689,0.0365682,0.0458753,0.00681551,0.0477117,-0.0738571,-0.00868231,0.129256,0.00298345,-1.44659,0.11707,-1.51009,2.44454,2.06028,-4.11681,-0.19221,4.85111,0.197268,5.01946,-7.13492,-0.115466,1.35066,0.0327955,-0.00979802,-0.0640287,0.195783,-1.88836,0.201287,0.110022,0.0363412,0.0117167,0.0221341,0.0264723,-0.101445,-0.21382,0.0229557,-0.0043021,0,0,0,0,0,0,0,1.75708,-31.8999,1.13954,26.9034,1.14959,1.96557,0.0843355,
-0.0096086,-0.0638629,0.195989,-1.88915,0.199998,0.110474,0.0363708,0.0414357,0.00959786,0.0433079,-0.0787278,-0.0391651,0.114719,0.0031286,-2.77477,1.73897,-2.75238,-3.04418,-19.0518,-9.08588,0.0907193,5.17555,0.2488,5.35176,-7.67614,-0.146096,1.39631,0.0368369,-0.00926927,-0.0635808,0.19675,-1.89138,0.193337,0.110581,0.0363393,0.010993,0.0295316,0.0256788,-0.0762067,-0.273274,0.0164456,0.00035051,-0.0904606,0.924688,-0.0991926,3.15474,-7.43186,-0.813774,0.581576,-0.0440639,-33.7209,-0.736986,28.7958,2.01019,2.37664,0.0577852,
-0.00938298,-0.0637065,0.196229,-1.88989,0.199016,0.111091,0.036401,0.038789,0.0115874,0.0406461,-0.0815181,-0.0558893,0.107196,0.00325612,-1.65419,1.24346,-1.66364,-1.74397,-10.4526,-4.7018,0.0797026,5.01429,0.224258,5.18466,-7.40117,-0.114542,1.3782,0.0347516,-0.00926927,-0.0635808,0.19675,-1.89138,0.193337,0.110581,0.0363393,0.010993,0.0295316,0.0256788,-0.0762067,-0.273274,0.0164456,0.00035051,0,0,0,0,0,0,0,-0.0440639,-33.7209,-0.736986,28.7958,2.01019,2.37664,0.0577852,
-0.00913018,-0.0635621,0.196496,-1.89059,0.198263,0.111814,0.036429,0.0373511,0.0128799,0.0391863,-0.0826488,-0.0635214,0.103831,0.00330674,-0.89868,0.807794,-0.91237,-0.706651,-4.7701,-2.10327,0.0316355,4.85332,0.198667,5.01793,-7.12616,-0.083153,1.35807,0.0326952,-0.00926927,-0.0635808,0.19675,-1.89138,0.193337,0.110581,0.0363393,0.010993,0.0295316,0.0256788,-0.0762067,-0.273274,0.0164456,0.00035051,0,0,0,0,0,0,0,-0.0440639,-33.7209,-0.736986,28.7958,2.01019,2.37664,0.0577852,
-0.00885758,-0.0634313,0.196782,-1.89124,0.197689,0.112605,0.036455,0.036696,0.0135736,0.038505,-0.0825359,-0.0651835,0.102848,0.00329322,-0.409435,0.433588,-0.42583,0.0705246,-1.03879,-0.614163,-0.00845219,4.69297,0.172151,4.85183,-6.85113,-0.0498414,1.33564,0.0306185,-0.00926927,-0.0635808,0.19675,-1.89138,0.193337,0.110581,0.0363393,0.010993,0.0295316,0.0256788,-0.0762067,-0.273274,0.0164456,0.00035051,0,0,0,0,0,0,0,-0.0440639,-33.7209,-0.736986,28.7958,2.01019,2.37664,0.0577852,
-0.00810965,-0.0627711,0.197986,-1.89481,0.189244,0.114367,0.0364408,0.0349738,0.0132507,0.0366854,-0.0778771,-0.054811,0.100112,0.00295733,-1.07637,-0.201789,-1.13725,2.91178,6.48279,-1.71006,-0.209928,4.37613,0.116372,4.52352,-6.30095,0.0267117,1.28039,0.0264745,-0.00926927,-0.0635808,0.19675,-1.89138,0.193337,0.110581,0.0363393,0.010993,0.0295316,0.0256788,-0.0762067,-0.273274,0.0164456,0.00035051,0,0,0,0,0,0,0,-0.0440639,-33.7209,-0.736986,28.7958,2.01019,2.37664,0.0577852,
-0.00788143,-0.0626888,0.198225,-1.89525,0.18929,0.11506,0.0364517,0.0336843,0.0126571,0.0353064,-0.0733146,-0.042685,0.0974279,0.00263783,-0.805902,-0.371043,-0.861848,2.85154,7.57879,-1.6775,-0.199687,4.22019,0.0841649,4.35643,-6.00382,0.109749,1.25887,0.0242735,-0.00913021,-0.0631196,0.197105,-1.89364,0.184183,0.110599,0.0363416,-0.0116935,0.0134824,-0.016503,-0.0592724,-0.259461,-0.0132716,0.00121699,-2.83581,-2.00615,-5.27272,2.11679,1.72671,-3.71464,0.10831,-1.41278,-31.5746,-1.96288,27.1771,1.52221,2.57531,0.0376436,
-0.00765301,-0.0626186,0.198463,-1.89566,0.189487,0.115718,0.0364605,0.0326581,0.0118815,0.0341978,-0.0688785,-0.0292392,0.0943792,0.00233116,-0.641378,-0.484706,-0.692907,2.7726,8.40358,-1.9054,-0.191668,4.06766,0.0544337,4.19801,-5.72867,0.166411,1.21814,0.0221827,-0.00913021,-0.0631196,0.197105,-1.89364,0.184183,0.110599,0.0363416,-0.0116935,0.0134824,-0.016503,-0.0592724,-0.259461,-0.0132716,0.00121699,0,0,0,0,0,0,0,-1.41278,-31.5746,-1.96288,27.1771,1.52221,2.57531,0.0376436,
-0.00742723,-0.062559,0.198698,-1.89604,0.189838,0.116323,0.0364673,0.031771,0.0109957,0.0332341,-0.0645822,-0.0146075,0.090647,0.00203449,-0.554449,-0.553666,-0.602275,2.68517,9.14483,-2.33261,-0.18542,3.91873,0.0241534,4.04311,-5.45355,0.23482,1.16985,0.0200875,-0.00913021,-0.0631196,0.197105,-1.89364,0.184183,0.110599,0.0363416,-0.0116935,0.0134824,-0.016503,-0.0592724,-0.259461,-0.0132716,0.00121699,0,0,0,0,0,0,0,-1.41278,-31.5746,-1.96288,27.1771,1.52221,2.57531,0.0376436,
-0.00891821,-0.0626742,0.197355,-1.89599,0.180951,0.112921,0.0364077,0.0282438,0.0108308,0.0296033,-0.0617103,-0.0118419,0.0860611,0.00184267,-2.2045,-0.10306,-2.26926,1.7949,1.72854,-2.86623,-0.119886,3.77417,-0.00643375,3.8924,-5.17853,0.318924,1.11251,0.0179639,-0.00913021,-0.0631196,0.197105,-1.89364,0.184183,0.110599,0.0363416,-0.0116935,0.0134824,-0.016503,-0.0592724,-0.259461,-0.0132716,0.00121699,0,0,0,0,0,0,0,-1.41278,-31.5746,-1.96288,27.1771,1.52221,2.57531,0.0376436,
-0.00878773,-0.0626018,0.197493,-1.89636,0.181199,0.113422,0.0364139,0.0258573,0.0104751,0.0271298,-0.058587,-0.00327895,0.0813754,0.0016288,-1.4916,-0.222283,-1.54596,1.95209,5.35182,-2.92854,-0.13367,3.63388,-0.0404431,3.74075,-4.88421,0.454331,1.05346,0.0157675,-0.00930829,-0.0627763,0.197053,-1.89591,0.176211,0.110451,0.0363338,-0.00515467,0.00301764,-0.00076421,-0.0697003,-0.185207,-0.0201201,0.000416501,0.817353,-1.3081,1.96735,-1.30349,9.28171,-0.856074,-0.100061,1.70551,-31.5508,1.21095,28.1253,1.96808,2.97997,0.0779268,
-0.00864631,-0.0625386,0.197641,-1.8967,0.181698,0.113857,0.0364177,0.0242211,0.0099591,0.0254186,-0.0553048,0.00986032,0.0759672,0.00139923,-1.02259,-0.322514,-1.0695,2.05137,8.21204,-3.38011,-0.143479,3.50047,-0.0709668,3.6008,-4.60972,0.580834,0.972496,0.0136078,-0.00930829,-0.0627763,0.197053,-1.89591,0.176211,0.110451,0.0363338,-0.00515467,0.00301764,-0.00076421,-0.0697003,-0.185207,-0.0201201,0.000416501,0,0,0,0,0,0,0,1.70551,-31.5508,1.21095,28.1253,1.96808,2.97997,0.0779268,
-0.00849931,-0.0624843,0.197795,-1.897,0.182457,0.114202,0.0364193,0.0230519,0.00932413,0.0241827,-0.0519306,0.0268668,0.0694068,0.00115937,-0.730763,-0.396859,-0.772436,2.1089,10.6291,-4.10026,-0.149914,3.37379,-0.100986,3.46737,-4.33568,0.734925,0.876667,0.0114353,-0.00930829,-0.0627763,0.197053,-1.89591,0.176211,0.110451,0.0363338,-0.00515467,0.00301764,-0.00076421,-0.0697003,-0.185207,-0.0201201,0.000416501,0,0,0,0,0,0,0,1.70551,-31.5508,1.21095,28.1253,1.96808,2.97997,0.0779268,
-0.00898403,-0.0623363,0.197419,-1.89803,0.178668,0.110471,0.0363423,0.0206401,0.00899957,0.0216796,-0.0478627,0.0581246,0.0521113,0.000839083,-1.50737,-0.202849,-1.56444,2.54246,19.5361,-10.8097,-0.20018,3.14278,-0.157518,3.22199,-3.78982,1.14601,0.631795,0.00704972,-0.00930829,-0.0627763,0.197053,-1.89591,0.176211,0.110451,0.0363338,-0.00515467,0.00301764,-0.00076421,-0.0697003,-0.185207,-0.0201201,0.000416501,0,0,0,0,0,0,0,1.70551,-31.5508,1.21095,28.1253,1.96808,2.97997,0.0779268,
-0.00889398,-0.0622829,0.197514,-1.89825,0.180541,0.110195,0.0363371,0.0187632,0.00853515,0.0197191,-0.0438055,0.0933123,0.0347961,0.000542928,-1.17305,-0.290261,-1.22529,2.53571,21.9923,-10.822,-0.185097,3.03567,-0.195926,3.10482,-3.50078,1.42231,0.488068,0.00481122,-0.00934484,-0.0626101,0.196973,-1.8978,0.173808,0.110361,0.0363349,-0.00508165,-0.000939992,-0.0176357,-0.0398342,0.00898008,-0.000237519,-0.000190775,0.00912687,-0.494704,-2.10893,3.73326,24.2734,2.48533,-0.0759095,0.741459,-33.2488,0.26277,27.9984,1.58905,2.71447,0.0980684,
-0.00880563,-0.0622368,0.197607,-1.89844,0.182835,0.109758,0.0363308,0.0172194,0.00798025,0.0180977,-0.0398095,0.131997,0.0169054,0.000276384,-0.964879,-0.346814,-1.01339,2.49749,24.1782,-11.1817,-0.16659,2.93881,-0.218276,3.00003,-3.23067,1.73527,0.312266,0.00267321,-0.00934484,-0.0626101,0.196973,-1.8978,0.173808,0.110361,0.0363349,-0.00508165,-0.000939992,-0.0176357,-0.0398342,0.00898008,-0.000237519,-0.000190775,0,0,0,0,0,0,0,0.741459,-33.2488,0.26277,27.9984,1.58905,2.71447,0.0980684,
-0.00872217,-0.0621969,0.197694,-1.8986,0.185563,0.109143,0.0363238,0.0158619,0.00738218,0.0166667,-0.0359105,0.173814,-0.00184208,4.71377e-05,-0.848468,-0.373794,-0.894345,2.43689,26.1356,-11.7172,-0.143279,2.84767,-0.23674,2.90061,-2.96202,2.09806,0.112914,0.00062264,-0.00934484,-0.0626101,0.196973,-1.8978,0.173808,0.110361,0.0363349,-0.00508165,-0.000939992,-0.0176357,-0.0398342,0.00898008,-0.000237519,-0.000190775,0,0,0,0,0,0,0,0.741459,-33.2488,0.26277,27.9984,1.58905,2.71447,0.0980684,
-0.00931864,-0.0625088,0.197011,-1.89879,0.178344,0.110015,0.0363323,0.0137178,0.00668748,0.0144529,-0.0338552,0.183329,-0.00759058,-6.39625e-05,-1.34003,-0.434186,-1.38365,1.2846,5.94682,-3.59281,-0.0694377,2.84767,-0.23674,2.90061,-2.96202,2.09806,0.112914,0.00062264,-0.00934484,-0.0626101,0.196973,-1.8978,0.173808,0.110361,0.0363349,-0.00508165,-0.000939992,-0.0176357,-0.0398342,0.00898008,-0.000237519,-0.000190775,0,0,0,0,0,0,0,0.741459,-33.2488,0.26277,27.9984,1.58905,2.71447,0.0980684,
-0.00926832,-0.0624785,0.197064,-1.89896,0.180557,0.109609,0.0363267,0.0122323,0.00610748,0.0129098,-0.031547,0.201974,-0.0162095,-0.000189756,-0.928435,-0.3625,-0.964418,1.44261,11.6529,-5.38685,-0.0786207,2.7604,-0.244496,2.80241,-2.69056,2.50919,-0.103202,-0.00132825,-0.00914152,-0.0621973,0.197263,-1.89851,0.17468,0.110181,0.0363379,0.00610079,0.0130729,0.00813117,-0.01822,0.0732731,-0.0155586,-3.63825e-05,1.39781,1.75161,3.22085,2.70176,8.03662,-1.91514,0.019299,0.0828892,-32.8481,-0.387865,27.0779,1.70532,2.03148,0.0706026,
-0.00921458,-0.06245,0.197122,-1.89912,0.183221,0.109024,0.0363203,0.0111293,0.00560039,0.0117558,-0.0290641,0.228186,-0.0275894,-0.000311498,-0.689402,-0.316935,-0.721269,1.55178,16.3823,-7.11241,-0.0760891,2.67166,-0.252244,2.70488,-2.42487,2.97349,-0.347278,-0.00301576,-0.00914152,-0.0621973,0.197263,-1.89851,0.17468,0.110181,0.0363379,0.00610079,0.0130729,0.00813117,-0.01822,0.0732731,-0.0155586,-3.63825e-05,0,0,0,0,0,0,0,0.0828892,-32.8481,-0.387865,27.0779,1.70532,2.03148,0.0706026,
-0.00896574,-0.0620622,0.197453,-1.89912,0.17969,0.109405,0.0363206,0.0104424,0.00542077,0.0110485,-0.0278449,0.236583,-0.0322385,-0.000408023,-0.429326,-0.112263,-0.442042,0.762049,5.24818,-2.90572,-0.060328,2.67166,-0.252244,2.70488,-2.42487,2.97349,-0.347278,-0.00301576,-0.00914152,-0.0621973,0.197263,-1.89851,0.17468,0.110181,0.0363379,0.00610079,0.0130729,0.00813117,-0.01822,0.0732731,-0.0155586,-3.63825e-05,0,0,0,0,0,0,0,0.0828892,-32.8481,-0.387865,27.0779,1.70532,2.03148,0.0706026,
-0.00890486,-0.062028,0.197518,-1.89928,0.182327,0.108818,0.0363138,0.0098757,0.00518947,0.0104523,-0.0262161,0.25518,-0.0404869,-0.000497571,-0.354158,-0.144564,-0.372613,1.01797,11.6233,-5.15524,-0.0559678,2.57627,-0.253193,2.60056,-2.16039,3.4834,-0.608763,-0.00438844,-0.00914152,-0.0621973,0.197263,-1.89851,0.17468,0.110181,0.0363379,0.00610079,0.0130729,0.00813117,-0.01822,0.0732731,-0.0155586,-3.63825e-05,0,0,0,0,0,0,0,0.0828892,-32.8481,-0.387865,27.0779,1.70532,2.03148,0.0706026,
-0.00884767,-0.0619968,0.197578,-1.89941,0.185433,0.10804,0.036307,0.0093304,0.00493284,0.00987071,-0.0242789,0.281787,-0.0518343,-0.000566379,-0.34081,-0.160389,-0.363511,1.21074,16.6295,-7.09211,-0.0430048,2.46724,-0.25096,2.48404,-1.89849,4.00831,-0.875162,-0.00533777,-0.00903829,-0.0621407,0.19758,-1.89875,0.179823,0.109085,0.0363371,-0.00494108,-0.00244771,-0.00280846,-0.00254967,0.175165,-0.0275969,0.000780096,-1.38023,-1.94007,-1.36745,1.9588,12.7365,-1.50479,0.10206,0.614505,-31.6261,0.0882092,26.6772,1.93145,1.83922,0.0779268,
-0.00879692,-0.0619678,0.197632,-1.89952,0.188994,0.107072,0.0363012,0.00873316,0.00467178,0.00923099,-0.0221273,0.314462,-0.0656549,-0.00059791,-0.373275,-0.163162,-0.39982,1.34477,20.422,-8.63788,-0.0197066,2.33137,-0.236436,2.33919,-1.63421,4.57454,-1.1498,-0.00566111,-0.00903829,-0.0621407,0.19758,-1.89875,0.179823,0.109085,0.0363371,-0.00494108,-0.00244771,-0.00280846,-0.00254967,0.175165,-0.0275969,0.000780096,0,0,0,0,0,0,0,0.614505,-31.6261,0.0882092,26.6772,1.93145,1.83922,0.0779268,
-0.00910485,-0.062215,0.197521,-1.89905,0.191832,0.106259,0.0363142,0.0067385,0.00362441,0.00716587,-0.0191389,0.346754,-0.0783041,-0.0005625,-1.24666,-0.654608,-1.2907,1.86776,20.1821,-7.90574,0.0221308,2.33137,-0.236436,2.33919,-1.63421,4.57454,-1.1498,-0.00566111,-0.00903829,-0.0621407,0.19758,-1.89875,0.179823,0.109085,0.0363371,-0.00494108,-0.00244771,-0.00280846,-0.00254967,0.175165,-0.0275969,0.000780096,0,0,0,0,0,0,0,0.614505,-31.6261,0.0882092,26.6772,1.93145,1.83922,0.0779268,
-0.00911649,-0.0622131,0.19751,-1.89909,0.196063,0.105041,0.0363136,0.00510001,0.00294708,0.00545671,-0.0163505,0.383175,-0.0930869,-0.000463489,-1.02406,-0.423329,-1.06822,1.74275,22.7631,-9.23925,0.061882,2.15599,-0.214266,2.15489,-1.36806,5.13783,-1.41499,-0.00520033,-0.00903829,-0.0621407,0.19758,-1.89875,0.179823,0.109085,0.0363371,-0.00494108,-0.00244771,-0.00280846,-0.00254967,0.175165,-0.0275969,0.000780096,0,0,0,0,0,0,0,0.614505,-31.6261,0.0882092,26.6772,1.93145,1.83922,0.0779268,
-0.00913362,-0.0622078,0.197493,-1.89912,0.200625,0.103672,0.0363139,0.00365152,0.00249089,0.00393411,-0.0137427,0.420605,-0.108692,-0.000363511,-0.905308,-0.285124,-0.951623,1.62988,23.3941,-9.75307,0.0624865,1.92701,-0.190115,1.92002,-1.10317,5.63981,-1.65129,-0.0038257,-0.00888216,-0.0621785,0.197962,-1.89886,0.187045,0.108772,0.036338,0.00359838,0.00190914,0.0113885,-0.000116082,0.235576,-0.00242552,0.00122533,1.06743,0.544607,1.77462,0.304199,7.55143,3.14643,0.0556538,0.94379,-31.0271,0.488905,25.9552,2.25464,1.62041,0.0706026,
-0.00898738,-0.062185,0.197872,-1.8989,0.202372,0.105107,0.0362997,0.00176324,0.00191912,0.00200826,-0.0109714,0.449014,-0.11841,-0.000833897,-1.18018,-0.357356,-1.20365,1.73204,17.7557,-6.07383,-0.293992,1.6184,-0.158754,1.60267,-0.827775,6.09588,-1.85585,-0.00129124,-0.00888216,-0.0621785,0.197962,-1.89886,0.187045,0.108772,0.036338,0.00359838,0.00190914,0.0113885,-0.000116082,0.235576,-0.00242552,0.00122533,0,0,0,0,0,0,0,0.94379,-31.0271,0.488905,25.9552,2.25464,1.62041,0.0706026,
-0.00899066,-0.0621906,0.197875,-1.8989,0.206414,0.103978,0.0363014,0.00132866,0.00139562,0.00167439,-0.00859883,0.460258,-0.122965,-0.000626054,-0.271609,-0.327187,-0.208668,1.48286,7.02716,-2.84696,0.129902,1.21077,-0.133395,1.18626,-0.547195,6.43434,-2.01024,0.00220761,-0.00888216,-0.0621785,0.197962,-1.89886,0.187045,0.108772,0.036338,0.00359838,0.00190914,0.0113885,-0.000116082,0.235576,-0.00242552,0.00122533,0,0,0,0,0,0,0,0.94379,-31.0271,0.488905,25.9552,2.25464,1.62041,0.0706026,
-0.00891526,-0.0622047,0.197952,-1.89889,0.209305,0.103262,0.0363076,0.00294793,0.000762201,0.00326538,-0.006689,0.440482,-0.116267,-0.0003452,1.01204,-0.395885,0.994367,1.19364,-12.3601,4.18656,0.175534,0.689226,-0.138251,0.655791,-0.275972,6.60505,-2.09345,0.0029497,-0.00888216,-0.0621785,0.197962,-1.89886,0.187045,0.108772,0.036338,0.00359838,0.00190914,0.0113885,-0.000116082,0.235576,-0.00242552,0.00122533,0,0,0,0,0,0,0,0.94379,-31.0271,0.488905,25.9552,2.25464,1.62041,0.0706026,
-0.00881254,-0.0622267,0.198062,-1.89888,0.211484,0.102817,0.0363085,0.00492625,6.13002e-05,0.00536353,-0.00512784,0.406869,-0.104146,-0.000253057,1.23645,-0.438063,1.31135,0.975724,-21.008,7.57525,0.057589,0.143682,-0.21144,0.12569,-0.0755456,6.36103,-1.9823,-0.0255136,-0.00872979,-0.0621952,0.198276,-1.89889,0.197027,0.108376,0.0363358,-3.85725e-05,-0.00028826,0.00716955,-0.000481884,0.340823,-0.02001,-0.000351804,-0.454618,-0.274675,-0.527367,-0.0457252,13.1558,-2.19806,-0.197141,1.04694,-31.8007,0.564283,26.5027,2.51098,1.7669,0.0907442,
-0.0086609,-0.0622513,0.198375,-1.89878,0.208499,0.106339,0.0363091,0.00580355,-0.000611533,0.00635696,-0.0034561,0.37377,-0.0895621,-0.000202663,0.548311,-0.420521,0.620891,1.04484,-20.6869,9.11505,0.0314965,0.143682,-0.21144,0.12569,-0.0755456,6.36103,-1.9823,-0.0255136,-0.00872979,-0.0621952,0.198276,-1.89889,0.197027,0.108376,0.0363358,-3.85725e-05,-0.00028826,0.00716955,-0.000481884,0.340823,-0.02001,-0.000351804,0,0,0,0,0,0,0,1.04694,-31.8007,0.564283,26.5027,2.51098,1.7669,0.0907442,
-0.00858076,-0.0622833,0.198466,-1.89876,0.210064,0.106207,0.0363065,0.00664638,-0.00128838,0.00736024,-0.0021339,0.33815,-0.0749275,-0.000227603,0.526768,-0.423031,0.627053,0.826376,-22.2624,9.14662,-0.0155875,0.233921,-0.293673,0.379445,0.177043,4.15361,-1.10242,-0.00395807,-0.00872979,-0.0621952,0.198276,-1.89889,0.197027,0.108376,0.0363358,-3.85725e-05,-0.00028826,0.00716955,-0.000481884,0.340823,-0.02001,-0.000351804,0,0,0,0,0,0,0,1.04694,-31.8007,0.564283,26.5027,2.51098,1.7669,0.0907442,
-0.00850424,-0.0623188,0.198555,-1.89873,0.211395,0.106155,0.0363024,0.00723001,-0.00191796,0.00810943,-0.00106551,0.303796,-0.0612582,-0.000283002,0.364773,-0.393487,0.468239,0.667744,-21.471,8.54332,-0.0346242,0.074738,-0.416705,0.236757,0.380259,1.08225,0.152627,-0.00629455,-0.00872979,-0.0621952,0.198276,-1.89889,0.197027,0.108376,0.0363358,-3.85725e-05,-0.00028826,0.00716955,-0.000481884,0.340823,-0.02001,-0.000351804,0,0,0,0,0,0,0,1.04694,-31.8007,0.564283,26.5027,2.51098,1.7669,0.0907442,
-0.00843536,-0.0623564,0.198637,-1.8987,0.212573,0.106155,0.0362976,0.00750601,-0.00247506,0.00853784,-0.000188489,0.272477,-0.0489983,-0.000345792,0.172497,-0.348188,0.267756,0.548136,-19.5746,7.6624,-0.0392439,0.074738,-0.416705,0.236757,0.380259,1.08225,0.152627,-0.00629455,-0.00872979,-0.0621952,0.198276,-1.89889,0.197027,0.108376,0.0363358,-3.85725e-05,-0.00028826,0.00716955,-0.000481884,0.340823,-0.02001,-0.000351804,0,0,0,0,0,0,0,1.04694,-31.8007,0.564283,26.5027,2.51098,1.7669,0.0907442,
-0.00876679,-0.0621984,0.198248,-1.89887,0.2006,0.107735,0.0363072,0.00507976,-0.0020601,0.00611768,0.000395581,0.307308,-0.0552222,-0.000991785,-1.51641,0.259353,-1.5126,0.365044,21.7692,-3.88995,-0.403746,0.140251,-0.230374,0.125071,-0.0656404,6.32051,-1.97268,-0.0254708,-0.00852564,-0.0621968,0.198548,-1.89888,0.207732,0.108168,0.0363382,0.00541313,-0.00205914,0.00562898,-0.000171376,0.227943,0.00511817,-0.00235964,0.681463,-0.22136,-0.192571,0.0388134,-14.11,3.14102,-0.25098,-0.603451,-32.3244,-0.963121,27.1771,1.78405,1.9793,0.0641939,
-0.00878528,-0.0622066,0.198239,-1.89884,0.204055,0.107021,0.0363049,0.00360137,-0.00185421,0.00467592,0.00107166,0.332223,-0.0620397,-0.000852825,-0.923993,0.128677,-0.901101,0.42255,15.5719,-4.26093,0.0868498,0.230491,-0.312608,0.378827,0.186948,4.11309,-1.0928,-0.00391523,-0.00852564,-0.0621968,0.198548,-1.89888,0.207732,0.108168,0.0363382,0.00541313,-0.00205914,0.00562898,-0.000171376,0.227943,0.00511817,-0.00235964,0,0,0,0,0,0,0,-0.603451,-32.3244,-0.963121,27.1771,1.78405,1.9793,0.0641939,
-0.0087354,-0.0622249,0.198293,-1.89881,0.206568,0.106588,0.0363091,0.00412815,-0.00194,0.00507499,0.00155773,0.328595,-0.0604398,-0.000576524,0.329239,-0.0536158,0.249422,0.303794,-2.26711,0.999972,0.172688,0.0713075,-0.435639,0.236139,0.390164,1.04173,0.162248,-0.00625171,-0.00852564,-0.0621968,0.198548,-1.89888,0.207732,0.108168,0.0363382,0.00541313,-0.00205914,0.00562898,-0.000171376,0.227943,0.00511817,-0.00235964,0,0,0,0,0,0,0,-0.603451,-32.3244,-0.963121,27.1771,1.78405,1.9793,0.0641939,
-0.00829176,-0.0623367,0.198844,-1.89873,0.213607,0.108562,0.0363167,0.00424831,-0.00244528,0.00534334,0.00203967,0.287211,-0.0458068,-0.000589005,0.0751025,-0.315802,0.167716,0.301209,-25.8653,9.14559,-0.00780027,0.0713075,-0.435639,0.236139,0.390164,1.04173,0.162248,-0.00625171,-0.00852564,-0.0621968,0.198548,-1.89888,0.207732,0.108168,0.0363382,0.00541313,-0.00205914,0.00562898,-0.000171376,0.227943,0.00511817,-0.00235964,0,0,0,0,0,0,0,-0.603451,-32.3244,-0.963121,27.1771,1.78405,1.9793,0.0641939,
-0.00825926,-0.0623738,0.19889,-1.8987,0.214537,0.10867,0.0363115,0.00421129,-0.00288285,0.00542758,0.00242424,0.253029,-0.0339531,-0.000600382,-0.0231419,-0.27348,0.052653,0.240357,-21.3634,7.40859,-0.00711076,0.0665638,-0.445179,0.232912,0.393284,1.03412,0.159473,-0.00616684,-0.00839945,-0.0623026,0.198798,-1.89853,0.20973,0.108929,0.0363371,0.00352246,-0.00299897,0.00479994,0.00536252,0.00130384,0.0282321,0.000857073,-0.236334,-0.117479,-0.103629,0.691737,-28.3299,2.88924,0.402089,-1.36517,-30.7771,-1.76055,26.2567,1.63208,2.07177,0.0641939,
-0.00823148,-0.0624115,0.198932,-1.89866,0.215437,0.108782,0.0363064,0.00406355,-0.00325073,0.00537829,0.00273127,0.224914,-0.0243581,-0.000609583,-0.0923383,-0.229923,-0.0308096,0.191894,-17.5718,5.99685,-0.00575049,0.0665638,-0.445179,0.232912,0.393284,1.03412,0.159473,-0.00616684,-0.00839945,-0.0623026,0.198798,-1.89853,0.20973,0.108929,0.0363371,0.00352246,-0.00299897,0.00479994,0.00536252,0.00130384,0.0282321,0.000857073,0,0,0,0,0,0,0,-1.36517,-30.7771,-1.76055,26.2567,1.63208,2.07177,0.0641939,
-0.00820774,-0.0624497,0.198969,-1.89863,0.216314,0.108898,0.0363012,0.00384422,-0.00355331,0.00523852,0.00297612,0.201855,-0.0165955,-0.000616428,-0.137077,-0.189116,-0.0873532,0.153032,-14.4122,4.85162,-0.00427818,0.0665638,-0.445179,0.232912,0.393284,1.03412,0.159473,-0.00616684,-0.00839945,-0.0623026,0.198798,-1.89853,0.20973,0.108929,0.0363371,0.00352246,-0.00299897,0.00479994,0.00536252,0.00130384,0.0282321,0.000857073,0,0,0,0,0,0,0,-1.36517,-30.7771,-1.76055,26.2567,1.63208,2.07177,0.0641939,
-0.00841769,-0.062396,0.198826,-1.89846,0.211144,0.109459,0.0363171,0.00278971,-0.00360866,0.00426264,0.00298437,0.176641,-0.00937114,-0.000636326,-0.659068,-0.0345925,-0.609926,0.00516068,-15.7585,4.51525,-0.0124364,0.0665638,-0.445179,0.232912,0.393284,1.03412,0.159473,-0.00616684,-0.00839945,-0.0623026,0.198798,-1.89853,0.20973,0.108929,0.0363371,0.00352246,-0.00299897,0.00479994,0.00536252,0.00130384,0.0282321,0.000857073,0,0,0,0,0,0,0,-1.36517,-30.7771,-1.76055,26.2567,1.63208,2.07177,0.0641939,
-0.00842914,-0.0624264,0.198828,-1.89843,0.21182,0.109604,0.0363119,0.00194549,-0.00364679,0.00347001,0.00303079,0.158214,-0.0038657,-0.000640623,-0.527643,-0.0238271,-0.49539,0.0290118,-11.5173,3.4409,-0.00268586,0.066641,-0.447714,0.234072,0.39121,1.03262,0.157624,-0.00615586,-0.00830068,-0.062378,0.199013,-1.89839,0.210169,0.109141,0.0363332,-0.000150752,-0.0036025,-0.0015278,0.00346072,-0.014524,0.0149832,-0.000417186,-0.459151,-0.0754419,-0.790967,-0.237724,-1.97848,-1.65611,-0.159282,-1.84521,-30.551,-2.16124,26.3043,1.3446,2.17797,0.0843355,
-0.00843915,-0.062457,0.198832,-1.89841,0.212541,0.109742,0.0363068,0.00130629,-0.00368173,0.00286635,0.00309798,0.144578,0.000367913,-0.000637948,-0.399495,-0.0218401,-0.377292,0.0419893,-8.5224,2.64601,0.00167179,0.066641,-0.447714,0.234072,0.39121,1.03262,0.157624,-0.00615586,-0.00830068,-0.062378,0.199013,-1.89839,0.210169,0.109141,0.0363332,-0.000150752,-0.0036025,-0.0015278,0.00346072,-0.014524,0.0149832,-0.000417186,0,0,0,0,0,0,0,-1.84521,-30.551,-2.16124,26.3043,1.3446,2.17797,0.0843355,
-0.00836233,-0.0624369,0.198982,-1.89836,0.210799,0.109393,0.0363198,0.000236884,-0.00364845,0.00185595,0.0028268,0.126063,0.0034082,-0.000661952,-0.668381,0.0208011,-0.631501,-0.169485,-11.5717,1.90018,-0.015002,0.066641,-0.447714,0.234072,0.39121,1.03262,0.157624,-0.00615586,-0.00830068,-0.062378,0.199013,-1.89839,0.210169,0.109141,0.0363332,-0.000150752,-0.0036025,-0.0015278,0.00346072,-0.014524,0.0149832,-0.000417186,0,0,0,0,0,0,0,-1.84521,-30.551,-2.16124,26.3043,1.3446,2.17797,0.0843355,
-0.00839269,-0.0624632,0.198966,-1.89835,0.211343,0.109516,0.0363144,-0.000569472,-0.00357682,0.00107842,0.00269037,0.114456,0.0057957,-0.000662635,-0.503972,0.0447687,-0.485952,-0.0852672,-7.25452,1.49219,-0.000427141,0.066641,-0.447714,0.234072,0.39121,1.03262,0.157624,-0.00615586,-0.00830068,-0.062378,0.199013,-1.89839,0.210169,0.109141,0.0363332,-0.000150752,-0.0036025,-0.0015278,0.00346072,-0.014524,0.0149832,-0.000417186,0,0,0,0,0,0,0,-1.84521,-30.551,-2.16124,26.3043,1.3446,2.17797,0.0843355,
-0.00841907,-0.062489,0.198953,-1.89833,0.21197,0.109638,0.0363095,-0.00111512,-0.00350625,0.000546248,0.00265336,0.107243,0.00769517,-0.000654002,-0.34103,0.0441025,-0.33261,-0.0231342,-4.50813,1.18717,0.00539576,0.0666622,-0.442588,0.23391,0.387094,1.03452,0.153171,-0.00613231,-0.00841432,-0.0623883,0.198904,-1.89835,0.209786,0.110015,0.0363325,-0.00896295,0.000794077,-0.00315738,-0.00578169,-0.0218742,0.0216747,0.000300658,-1.10152,0.549573,-0.203697,-1.1553,-0.918772,0.836438,0.0897304,-2.15069,-31.0787,-2.63732,26.5305,1.14318,2.29699,0.0779268,
-0.00844088,-0.0625151,0.198945,-1.8983,0.212652,0.109761,0.0363047,-0.00143745,-0.00345815,0.000230084,0.00268004,0.102837,0.00922075,-0.000642773,-0.201459,0.0300652,-0.197603,0.0166785,-2.75343,0.953486,0.007018,0.0666622,-0.442588,0.23391,0.387094,1.03452,0.153171,-0.00613231,-0.00841432,-0.0623883,0.198904,-1.89835,0.209786,0.110015,0.0363325,-0.00896295,0.000794077,-0.00315738,-0.00578169,-0.0218742,0.0216747,0.000300658,0,0,0,0,0,0,0,-2.15069,-31.0787,-2.63732,26.5305,1.14318,2.29699,0.0779268,
-0.00847523,-0.0623792,0.198859,-1.89837,0.209932,0.110147,0.0363264,-0.00267277,-0.00253988,-0.000927769,0.00164353,0.0859201,0.0106772,-0.000665879,-0.772071,0.573921,-0.723658,-0.647818,-10.5733,0.91027,-0.0144413,0.0666622,-0.442588,0.23391,0.387094,1.03452,0.153171,-0.00613231,-0.00841432,-0.0623883,0.198904,-1.89835,0.209786,0.110015,0.0363325,-0.00896295,0.000794077,-0.00315738,-0.00578169,-0.0218742,0.0216747,0.000300658,0,0,0,0,0,0,0,-2.15069,-31.0787,-2.63732,26.5305,1.14318,2.29699,0.0779268,
-0.00853212,-0.0623736,0.198817,-1.89837,0.210287,0.110263,0.036321,-0.00356036,-0.00189221,-0.00179568,0.00114451,0.0776151,0.011455,-0.000669559,-0.554745,0.404789,-0.542447,-0.311891,-5.19063,0.486168,-0.00229962,0.0666622,-0.442588,0.23391,0.387094,1.03452,0.153171,-0.00613231,-0.00841432,-0.0623883,0.198904,-1.89835,0.209786,0.110015,0.0363325,-0.00896295,0.000794077,-0.00315738,-0.00578169,-0.0218742,0.0216747,0.000300658,0,0,0,0,0,0,0,-2.15069,-31.0787,-2.63732,26.5305,1.14318,2.29699,0.0779268,
-0.00858201,-0.062373,0.198781,-1.89837,0.21078,0.110375,0.036316,-0.00409564,-0.00149779,-0.00233385,0.000957579,0.0744063,0.0119434,-0.000658994,-0.334553,0.246517,-0.336352,-0.116832,-2.00544,0.305251,0.00660277,0.0666503,-0.435812,0.232802,0.384823,1.03784,0.15019,-0.00612109,-0.00867875,-0.0623467,0.198575,-1.89838,0.208968,0.110631,0.0363361,-0.00487063,-0.000630929,-0.00717843,-0.00576101,-0.0296276,0.00418607,0.00104665,0.51154,-0.178126,-0.502632,0.00258505,-0.969181,-2.18608,0.0932493,0.25745,-31.2532,-0.312487,26.6058,1.65039,2.27044,0.0440523,
-0.008624,-0.0623774,0.198753,-1.89836,0.211364,0.110485,0.0363114,-0.00432623,-0.00130902,-0.00257656,0.000961499,0.0741342,0.0123069,-0.00064373,-0.144117,0.11798,-0.151694,0.00245015,-0.17012,0.227127,0.00954005,0.0666503,-0.435812,0.232802,0.384823,1.03784,0.15019,-0.00612109,-0.00867875,-0.0623467,0.198575,-1.89838,0.208968,0.110631,0.0363361,-0.00487063,-0.000630929,-0.00717843,-0.00576101,-0.0296276,0.00418607,0.00104665,0,0,0,0,0,0,0,0.25745,-31.2532,-0.312487,26.6058,1.65039,2.27044,0.0440523,
-0.00879717,-0.0623449,0.198487,-1.89841,0.209409,0.110723,0.0363248,-0.00489559,-0.00102283,-0.00312894,0.000464916,0.0676041,0.0111552,-0.000650839,-0.355848,0.178865,-0.345242,-0.310364,-4.08129,-0.71981,-0.00444332,0.0666503,-0.435812,0.232802,0.384823,1.03784,0.15019,-0.00612109,-0.00867875,-0.0623467,0.198575,-1.89838,0.208968,0.110631,0.0363361,-0.00487063,-0.000630929,-0.00717843,-0.00576101,-0.0296276,0.00418607,0.00104665,0,0,0,0,0,0,0,0.25745,-31.2532,-0.312487,26.6058,1.65039,2.27044,0.0440523,
-0.00884748,-0.0623464,0.198451,-1.89842,0.209887,0.110789,0.0363199,-0.00517401,-0.000854258,-0.00341208,0.000300182,0.0660293,0.0105719,-0.000642953,-0.174016,0.10536,-0.176963,-0.102959,-0.984252,-0.364558,0.00492876,0.0666503,-0.435812,0.232802,0.384823,1.03784,0.15019,-0.00612109,-0.00867875,-0.0623467,0.198575,-1.89838,0.208968,0.110631,0.0363361,-0.00487063,-0.000630929,-0.00717843,-0.00576101,-0.0296276,0.00418607,0.00104665,0,0,0,0,0,0,0,0.25745,-31.2532,-0.312487,26.6058,1.65039,2.27044,0.0440523,
-0.00888978,-0.0623513,0.198422,-1.89841,0.210462,0.110866,0.0363153,-0.00519688,-0.000806996,-0.00344851,0.000343038,0.067204,0.0104,-0.000629989,-0.0142902,0.0295385,-0.0227691,0.0267852,0.734202,-0.107441,0.00810285,0.0666405,-0.427327,0.230424,0.386424,1.04132,0.150887,-0.00612778,-0.00907914,-0.0621894,0.198056,-1.89848,0.208034,0.110663,0.0363272,-0.0105973,0.00506646,-0.00776106,-0.00574893,-0.0137028,0.00110637,-0.00102497,-0.715832,0.712174,-0.0728281,0.00150993,1.99061,-0.384962,-0.258953,0.336795,-31.2532,-0.237108,26.5543,1.77215,2.26403,0.124619,
-0.00922438,-0.0621347,0.19794,-1.89853,0.208587,0.110736,0.0363165,-0.00585797,-6.59287e-05,-0.00410692,-0.000225081,0.0630458,0.00943185,-0.000626994,-0.413181,0.463167,-0.411503,-0.355074,-2.5989,-0.605069,0.00187153,0.0666405,-0.427327,0.230424,0.386424,1.04132,0.150887,-0.00612778,-0.00907914,-0.0621894,0.198056,-1.89848,0.208034,0.110663,0.0363272,-0.0105973,0.00506646,-0.00776106,-0.00574893,-0.0137028,0.00110637,-0.00102497,0,0,0,0,0,0,0,0.336795,-31.2532,-0.237108,26.5543,1.77215,2.26403,0.124619,
-0.00928196,-0.0621196,0.197896,-1.89854,0.209085,0.110795,0.036312,-0.00612572,0.000326729,-0.00438679,-0.000420924,0.0628969,0.00902661,-0.000615386,-0.167346,0.245411,-0.174921,-0.122402,-0.0930446,-0.253273,0.00725523,0.0666405,-0.427327,0.230424,0.386424,1.04132,0.150887,-0.00612778,-0.00907914,-0.0621894,0.198056,-1.89848,0.208034,0.110663,0.0363272,-0.0105973,0.00506646,-0.00776106,-0.00574893,-0.0137028,0.00110637,-0.00102497,0,0,0,0,0,0,0,0.336795,-31.2532,-0.237108,26.5543,1.77215,2.26403,0.124619,
-0.00932937,-0.0621118,0.197862,-1.89854,0.20967,0.110867,0.0363075,-0.0060859,0.000454656,-0.0043642,-0.000373299,0.064948,0.00901692,-0.000602605,0.0248906,0.0799549,0.0141213,0.0297655,1.28193,-0.00605333,0.00798815,0.0666405,-0.427327,0.230424,0.386424,1.04132,0.150887,-0.00612778,-0.00907914,-0.0621894,0.198056,-1.89848,0.208034,0.110663,0.0363272,-0.0105973,0.00506646,-0.00776106,-0.00574893,-0.0137028,0.00110637,-0.00102497,0,0,0,0,0,0,0,0.336795,-31.2532,-0.237108,26.5543,1.77215,2.26403,0.124619,
-0.0093676,-0.0621108,0.197837,-1.89854,0.210316,0.110949,0.0363032,-0.0058245,0.000389744,-0.00412031,-0.000174259,0.0681001,0.00926725,-0.000591756,0.163371,-0.0405704,0.152432,0.1244,1.97008,0.156456,0.00678049,0.0666405,-0.427327,0.230424,0.386424,1.04132,0.150887,-0.00612778,-0.00907914,-0.0621894,0.198056,-1.89848,0.208034,0.110663,0.0363272,-0.0105973,0.00506646,-0.00776106,-0.00574893,-0.0137028,0.00110637,-0.00102497,0,0,0,0,0,0,0,0.336795,-31.2532,-0.237108,26.5543,1.77215,2.26403,0.124619,
-0.00962837,-0.0620404,0.19738,-1.89875,0.208003,0.110956,0.0363147,-0.0067773,0.000658507,-0.00507171,-0.000406689,0.0621929,0.00988758,-0.000593784,-0.5955,0.167977,-0.594626,-0.145269,-3.69198,0.387702,-0.00126714,0.0666811,-0.420133,0.228518,0.387731,1.04306,0.152066,-0.00613454,-0.00944642,-0.0620725,0.197533,-1.89871,0.207601,0.110756,0.036325,-0.0145043,0.00228685,-0.00980735,-0.00539687,-0.0288777,0.0143774,-0.000362314,-0.488371,-0.347452,-0.255786,0.0440076,-1.89687,1.65888,0.0828326,0.511356,-31.0033,-0.0625476,26.2805,2.41943,1.42815,0.104477,
-0.00969973,-0.0620321,0.197322,-1.89875,0.208456,0.111057,0.0363103,-0.007206,0.000734899,-0.00551332,-0.000372479,0.0610812,0.0104356,-0.000586225,-0.267934,0.0477445,-0.276005,0.0213813,-0.694842,0.342519,0.00472434,0.0666811,-0.420133,0.228518,0.387731,1.04306,0.152066,-0.00613454,-0.00944642,-0.0620725,0.197533,-1.89871,0.207601,0.110756,0.036325,-0.0145043,0.00228685,-0.00980735,-0.00539687,-0.0288777,0.0143774,-0.000362314,0,0,0,0,0,0,0,0.511356,-31.0033,-0.0625476,26.2805,2.41943,1.42815,0.104477,
-0.00975842,-0.0620295,0.197276,-1.89874,0.209008,0.111161,0.036306,-0.00723201,0.000653501,-0.00555654,-0.000178827,0.0626688,0.0109535,-0.000576649,-0.0162572,-0.0508734,-0.0270131,0.121032,0.992232,0.323682,0.00598484,0.0666811,-0.420133,0.228518,0.387731,1.04306,0.152066,-0.00613454,-0.00944642,-0.0620725,0.197533,-1.89871,0.207601,0.110756,0.036325,-0.0145043,0.00228685,-0.00980735,-0.00539687,-0.0288777,0.0143774,-0.000362314,0,0,0,0,0,0,0,0.511356,-31.0033,-0.0625476,26.2805,2.41943,1.42815,0.104477,
-0.0098058,-0.0620322,0.197241,-1.89873,0.209629,0.111269,0.0363017,-0.00697002,0.000453851,-0.00531125,0.000105023,0.0656691,0.0114462,-0.000568523,0.163747,-0.124781,0.153307,0.177407,1.87522,0.307953,0.00507871,0.0666811,-0.420133,0.228518,0.387731,1.04306,0.152066,-0.00613454,-0.00944642,-0.0620725,0.197533,-1.89871,0.207601,0.110756,0.036325,-0.0145043,0.00228685,-0.00980735,-0.00539687,-0.0288777,0.0143774,-0.000362314,0,0,0,0,0,0,0,0.511356,-31.0033,-0.0625476,26.2805,2.41943,1.42815,0.104477,
-0.00954366,-0.0620543,0.197451,-1.89874,0.207694,0.110857,0.0363195,-0.00800703,0.000817384,-0.00630481,-0.00049291,0.0548734,0.011681,-0.000590439,-0.648136,0.227208,-0.620977,-0.373708,-6.74729,0.146751,-0.0136973,0.0666661,-0.408579,0.225186,0.389883,1.04853,0.152943,-0.00614553,-0.00970327,-0.0618123,0.196994,-1.89876,0.206115,0.110724,0.0363294,-0.00407242,0.00722009,-0.0170001,-0.00297631,-0.0400956,0.00426704,-0.000611383,1.30398,0.616656,-0.8991,0.30257,-1.40224,-1.2638,-0.0311336,-0.528073,-31.8761,-1.0385,26.6772,1.87652,1.90606,0.104477,
-0.00962837,-0.0620404,0.19738,-1.89875,0.208003,0.110956,0.0363147,-0.00852333,0.00100062,-0.00681931,-0.00066161,0.0516116,0.0118186,-0.00059273,-0.322684,0.114522,-0.321563,-0.105437,-2.03864,0.0859803,-0.00143183,0.0666661,-0.408579,0.225186,0.389883,1.04853,0.152943,-0.00614553,-0.00970327,-0.0618123,0.196994,-1.89876,0.206115,0.110724,0.0363294,-0.00407242,0.00722009,-0.0170001,-0.00297631,-0.0400956,0.00426704,-0.000611383,0,0,0,0,0,0,0,-0.528073,-31.8761,-1.0385,26.6772,1.87652,1.90606,0.104477,
-0.00969973,-0.0620321,0.197322,-1.89875,0.208456,0.111057,0.0363103,-0.00860282,0.00100859,-0.0069114,-0.000576415,0.0526161,0.0119804,-0.000585381,-0.0496814,0.00498049,-0.0575551,0.0532464,0.627824,0.101142,0.00459259,0.0666661,-0.408579,0.225186,0.389883,1.04853,0.152943,-0.00614553,-0.00970327,-0.0618123,0.196994,-1.89876,0.206115,0.110724,0.0363294,-0.00407242,0.00722009,-0.0170001,-0.00297631,-0.0400956,0.00426704,-0.000611383,0,0,0,0,0,0,0,-0.528073,-31.8761,-1.0385,26.6772,1.87652,1.90606,0.104477,
-0.00987509,-0.0617456,0.19685,-1.89881,0.206448,0.110851,0.0363178,-0.00891686,0.00150913,-0.00721803,-0.00095893,0.0491854,0.0113049,-0.000597187,-0.196276,0.312838,-0.19164,-0.239072,-2.1442,-0.422218,-0.0073784,0.0666661,-0.408579,0.225186,0.389883,1.04853,0.152943,-0.00614553,-0.00970327,-0.0618123,0.196994,-1.89876,0.206115,0.110724,0.0363294,-0.00407242,0.00722009,-0.0170001,-0.00297631,-0.0400956,0.00426704,-0.000611383,0,0,0,0,0,0,0,-0.528073,-31.8761,-1.0385,26.6772,1.87652,1.90606,0.104477,
-0.00994456,-0.0617262,0.196793,-1.89882,0.206887,0.110928,0.0363132,-0.00887007,0.00169353,-0.00718262,-0.00102019,0.0503218,0.0109813,-0.000592878,0.0292435,0.115253,0.0221275,-0.038287,0.710229,-0.202257,0.00269312,0.0666567,-0.399282,0.222664,0.390785,1.05002,0.153434,-0.0061503,-0.00994269,-0.061621,0.196464,-1.89875,0.205676,0.110718,0.0363262,0.000225549,0.00149593,-0.0156074,-0.00106479,-0.0176644,0.00228066,-0.00117033,0.537246,-0.715521,0.174099,0.238939,2.8039,-0.248297,-0.0698689,0.0551182,-31.4278,-0.487047,26.5027,2.01019,2.01226,0.0907442,
-0.0100022,-0.0617145,0.196748,-1.89882,0.207431,0.111014,0.0363088,-0.00853598,0.00164622,-0.00686694,-0.000864007,0.0538666,0.0109217,-0.00058408,0.208806,-0.0295709,0.1973,0.0976142,2.21552,-0.037193,0.00549868,0.0666567,-0.399282,0.222664,0.390785,1.05002,0.153434,-0.0061503,-0.00994269,-0.061621,0.196464,-1.89875,0.205676,0.110718,0.0363262,0.000225549,0.00149593,-0.0156074,-0.00106479,-0.0176644,0.00228066,-0.00117033,0,0,0,0,0,0,0,0.0551182,-31.4278,-0.487047,26.5027,2.01019,2.01226,0.0907442,
-0.0100489,-0.0617099,0.196714,-1.89881,0.208049,0.111106,0.0363045,-0.00799782,0.00143384,-0.00634805,-0.00057527,0.0585313,0.0110499,-0.0005757,0.336353,-0.132738,0.324305,0.180461,2.91546,0.0800746,0.00523762,0.0666567,-0.399282,0.222664,0.390785,1.05002,0.153434,-0.0061503,-0.00994269,-0.061621,0.196464,-1.89875,0.205676,0.110718,0.0363262,0.000225549,0.00149593,-0.0156074,-0.00106479,-0.0176644,0.00228066,-0.00117033,0,0,0,0,0,0,0,0.0551182,-31.4278,-0.487047,26.5027,2.01019,2.01226,0.0907442,
-0.0100746,-0.0616129,0.196359,-1.89877,0.20623,0.110834,0.0363145,-0.00796964,0.00121484,-0.00631527,-0.000593899,0.0562533,0.0105108,-0.000590539,0.0176091,-0.136876,0.0204924,-0.0116431,-1.42377,-0.336896,-0.00927476,0.0666567,-0.399282,0.222664,0.390785,1.05002,0.153434,-0.0061503,-0.00994269,-0.061621,0.196464,-1.89875,0.205676,0.110718,0.0363262,0.000225549,0.00149593,-0.0156074,-0.00106479,-0.0176644,0.00228066,-0.00117033,0,0,0,0,0,0,0,0.0551182,-31.4278,-0.487047,26.5027,2.01019,2.01226,0.0907442,
-0.0101283,-0.0616132,0.196318,-1.89877,0.206738,0.110914,0.0363098,-0.00771953,0.000964786,-0.00607502,-0.000432353,0.057725,0.0103978,-0.000590361,0.15632,-0.156283,0.150153,0.100966,0.919839,-0.0706304,0.000111519,0.0666567,-0.399282,0.222664,0.390785,1.05002,0.153434,-0.0061503,-0.00994269,-0.061621,0.196464,-1.89875,0.205676,0.110718,0.0363262,0.000225549,0.00149593,-0.0156074,-0.00106479,-0.0176644,0.00228066,-0.00117033,0,0,0,0,0,0,0,0.0551182,-31.4278,-0.487047,26.5027,2.01019,2.01226,0.0907442,
-0.0101728,-0.061617,0.196286,-1.89876,0.207336,0.111003,0.0363053,-0.00728811,0.000677036,-0.00565864,-0.000156201,0.0611207,0.0105572,-0.000585408,0.269633,-0.179844,0.260235,0.172595,2.12231,0.0995991,0.00309584,0.0666567,-0.399282,0.222664,0.390785,1.05002,0.153434,-0.0061503,-0.00994269,-0.061621,0.196464,-1.89875,0.205676,0.110718,0.0363262,0.000225549,0.00149593,-0.0156074,-0.00106479,-0.0176644,0.00228066,-0.00117033,0,0,0,0,0,0,0,0.0551182,-31.4278,-0.487047,26.5027,2.01019,2.01226,0.0907442,
-0.0102088,-0.0616245,0.196262,-1.89875,0.207995,0.111101,0.0363008,-0.00672963,0.000355225,-0.00511546,0.000181378,0.0653612,0.0108791,-0.000580062,0.349053,-0.201132,0.339492,0.210987,2.65031,0.20121,0.00334107,0.0666567,-0.399282,0.222664,0.390785,1.05002,0.153434,-0.0061503,-0.00994269,-0.061621,0.196464,-1.89875,0.205676,0.110718,0.0363262,0.000225549,0.00149593,-0.0156074,-0.00106479,-0.0176644,0.00228066,-0.00117033,0,0,0,0,0,0,0,0.0551182,-31.4278,-0.487047,26.5027,2.01019,2.01226,0.0907442,
-0.0100117,-0.0616157,0.196408,-1.89877,0.205852,0.110767,0.0363197,-0.0071097,0.000417316,-0.00550171,-0.000153478,0.0567096,0.00993998,-0.000625162,-0.237542,0.0388065,-0.241408,-0.209285,-5.40728,-0.586963,-0.0281872,0.0666567,-0.399282,0.222664,0.390785,1.05002,0.153434,-0.0061503,-0.00994269,-0.061621,0.196464,-1.89875,0.205676,0.110718,0.0363262,0.000225549,0.00149593,-0.0156074,-0.00106479,-0.0176644,0.00228066,-0.00117033,0,0,0,0,0,0,0,0.0551182,-31.4278,-0.487047,26.5027,2.01019,2.01226,0.0907442,
-0.0100746,-0.0616129,0.196359,-1.89877,0.20623,0.110834,0.0363145,-0.00725915,0.000401619,-0.00563819,-0.000256465,0.0547959,0.00962293,-0.000630109,-0.0934056,-0.00981014,-0.0853004,-0.0643671,-1.19606,-0.198159,-0.00309204,0.0666712,-0.390143,0.220238,0.391902,1.04979,0.154729,-0.00615701,-0.00999647,-0.0614063,0.196007,-1.8988,0.205691,0.110689,0.0363256,-0.000506857,0.00102342,-0.00646874,-0.000637141,-0.0146972,0.00301172,-0.00139378,-0.0915507,-0.0590637,1.14233,0.0534564,0.370896,0.0913818,-0.0279302,0.209842,-31.277,-0.33629,26.5305,1.58905,2.22375,0.124619,
-0.0101283,-0.0616132,0.196318,-1.89877,0.206738,0.110914,0.0363098,-0.00715113,0.00031421,-0.00553336,-0.000162406,0.0565591,0.0096875,-0.000622017,0.0675087,-0.0546309,0.0655187,0.0587869,1.10201,0.0403585,0.00505769,0.0666712,-0.390143,0.220238,0.391902,1.04979,0.154729,-0.00615701,-0.00999647,-0.0614063,0.196007,-1.8988,0.205691,0.110689,0.0363256,-0.000506857,0.00102342,-0.00646874,-0.000637141,-0.0146972,0.00301172,-0.00139378,0,0,0,0,0,0,0,0.209842,-31.277,-0.33629,26.5305,1.58905,2.22375,0.124619,
-0.0100844,-0.0614054,0.195947,-1.89882,0.206302,0.110806,0.0363128,-0.00681245,0.000234218,-0.00517689,-0.000230054,0.0553984,0.00940636,-0.000640127,0.211677,-0.0499951,0.222792,-0.04228,-0.725477,-0.175715,-0.0113192,0.0666712,-0.390143,0.220238,0.391902,1.04979,0.154729,-0.00615701,-0.00999647,-0.0614063,0.196007,-1.8988,0.205691,0.110689,0.0363256,-0.000506857,0.00102342,-0.00646874,-0.000637141,-0.0146972,0.00301172,-0.00139378,0,0,0,0,0,0,0,0.209842,-31.277,-0.33629,26.5305,1.58905,2.22375,0.124619,
-0.0101234,-0.0614086,0.195921,-1.89881,0.206837,0.110884,0.0363077,-0.00642529,0.000108086,-0.00479272,-0.000111214,0.0577073,0.0094686,-0.000638841,0.241973,-0.0788326,0.24011,0.0742751,1.44311,0.0389036,0.000803859,0.0666712,-0.390143,0.220238,0.391902,1.04979,0.154729,-0.00615701,-0.00999647,-0.0614063,0.196007,-1.8988,0.205691,0.110689,0.0363256,-0.000506857,0.00102342,-0.00646874,-0.000637141,-0.0146972,0.00301172,-0.00139378,0,0,0,0,0,0,0,0.209842,-31.277,-0.33629,26.5305,1.58905,2.22375,0.124619,
-0.0101565,-0.0614148,0.195901,-1.8988,0.207458,0.110972,0.0363029,-0.00596718,-6.78746e-05,-0.00434631,0.000127879,0.0616885,0.00975924,-0.000630535,0.286317,-0.109975,0.279005,0.149433,2.48825,0.18165,0.00519109,0.0666369,-0.385096,0.218904,0.392469,1.04932,0.155456,-0.00616043,-0.010023,-0.0612602,0.195886,-1.89881,0.205791,0.110692,0.0363291,0.00330306,0.00318609,0.00502643,0.00147673,-0.00387252,0.00292508,9.03552e-05,0.47624,0.270334,1.4369,0.264234,1.35309,-0.0108301,0.185516,0.463749,-31.8761,-0.137926,26.5543,1.60736,2.15142,0.0641939,
-0.0101835,-0.0614242,0.195886,-1.89879,0.208136,0.111067,0.0362983,-0.00545,-0.000288693,-0.0038432,0.000432876,0.0663076,0.010189,-0.00062084,0.323239,-0.138011,0.314447,0.190623,2.8869,0.268627,0.00605948,0.0666369,-0.385096,0.218904,0.392469,1.04932,0.155456,-0.00616043,-0.010023,-0.0612602,0.195886,-1.89881,0.205791,0.110692,0.0363291,0.00330306,0.00318609,0.00502643,0.00147673,-0.00387252,0.00292508,9.03552e-05,0,0,0,0,0,0,0,0.463749,-31.8761,-0.137926,26.5543,1.60736,2.15142,0.0641939,
-0.0100302,-0.0612515,0.195909,-1.89882,0.206558,0.110809,0.0363147,-0.00457183,-0.000201326,-0.0029273,0.000241643,0.0650115,0.00974893,-0.000660115,0.548855,0.0546044,0.572437,-0.119521,-0.81003,-0.275073,-0.0245468,0.0666369,-0.385096,0.218904,0.392469,1.04932,0.155456,-0.00616043,-0.010023,-0.0612602,0.195886,-1.89881,0.205791,0.110692,0.0363291,0.00330306,0.00318609,0.00502643,0.00147673,-0.00387252,0.00292508,9.03552e-05,0,0,0,0,0,0,0,0.463749,-31.8761,-0.137926,26.5543,1.60736,2.15142,0.0641939,
-0.0100419,-0.0612546,0.195911,-1.89882,0.207154,0.110882,0.036309,-0.00395039,-0.00023672,-0.00229873,0.000255992,0.0669225,0.00960579,-0.000669693,0.388402,-0.0221214,0.392857,0.00896809,1.19438,-0.0894632,-0.00598628,0.0666369,-0.385096,0.218904,0.392469,1.04932,0.155456,-0.00616043,-0.010023,-0.0612602,0.195886,-1.89881,0.205791,0.110692,0.0363291,0.00330306,0.00318609,0.00502643,0.00147673,-0.00387252,0.00292508,9.03552e-05,0,0,0,0,0,0,0,0.463749,-31.8761,-0.137926,26.5543,1.60736,2.15142,0.0641939,
-0.0100537,-0.0612614,0.195912,-1.89881,0.207825,0.110962,0.0363038,-0.00345423,-0.000360387,-0.00180993,0.000415793,0.0703139,0.00969908,-0.000666037,0.310103,-0.0772917,0.305495,0.0998756,2.11959,0.0583059,0.00228512,0.0666734,-0.382876,0.21834,0.392827,1.04923,0.155883,-0.00616279,-0.00996009,-0.0611815,0.195881,-1.89881,0.205808,0.110686,0.0363255,0.00312204,-0.00315802,0.0034297,0.000973906,-0.00917742,0.0027848,-0.000661898,-0.0226278,-0.793013,-0.199592,-0.0628528,-0.663112,-0.0175349,-0.0940317,-0.528073,-31.1778,-1.16149,26.4313,1.52771,2.19079,0.0980684,
-0.010064,-0.0612718,0.195914,-1.89879,0.208544,0.111051,0.0362988,-0.00302114,-0.000548449,-0.00139004,0.00066179,0.0742235,0.00996816,-0.000657319,0.27068,-0.117539,0.262432,0.153748,2.4435,0.168179,0.0054487,0.0666734,-0.382876,0.21834,0.392827,1.04923,0.155883,-0.00616279,-0.00996009,-0.0611815,0.195881,-1.89881,0.205808,0.110686,0.0363255,0.00312204,-0.00315802,0.0034297,0.000973906,-0.00917742,0.0027848,-0.000661898,0,0,0,0,0,0,0,-0.528073,-31.1778,-1.16149,26.4313,1.52771,2.19079,0.0980684,
-0.00996372,-0.0612057,0.195893,-1.89881,0.206065,0.110736,0.0363176,-0.00250766,-0.00104387,-0.000818181,0.000542787,0.0658006,0.00920637,-0.000723283,0.320923,-0.309638,0.357413,-0.0743765,-5.26431,-0.476118,-0.0412277,0.0666734,-0.382876,0.21834,0.392827,1.04923,0.155883,-0.00616279,-0.00996009,-0.0611815,0.195881,-1.89881,0.205808,0.110686,0.0363255,0.00312204,-0.00315802,0.0034297,0.000973906,-0.00917742,0.0027848,-0.000661898,0,0,0,0,0,0,0,-0.528073,-31.1778,-1.16149,26.4313,1.52771,2.19079,0.0980684,
-0.00997599,-0.0612265,0.195895,-1.89881,0.206522,0.1108,0.0363111,-0.00231308,-0.00135487,-0.000610029,0.000558814,0.0640827,0.00897089,-0.00073974,0.121615,-0.194377,0.130095,0.0100165,-1.07365,-0.147179,-0.0102853,0.0666734,-0.382876,0.21834,0.392827,1.04923,0.155883,-0.00616279,-0.00996009,-0.0611815,0.195881,-1.89881,0.205808,0.110686,0.0363255,0.00312204,-0.00315802,0.0034297,0.000973906,-0.00917742,0.0027848,-0.000661898,0,0,0,0,0,0,0,-0.528073,-31.1778,-1.16149,26.4313,1.52771,2.19079,0.0980684,
-0.00999068,-0.0612454,0.195893,-1.8988,0.207105,0.110876,0.0363055,-0.00221764,-0.0015572,-0.000524917,0.000705965,0.0658376,0.00908495,-0.000732075,0.0596453,-0.126457,0.0531952,0.0919693,1.0968,0.0712917,0.00479026,0.0666734,-0.382876,0.21834,0.392827,1.04923,0.155883,-0.00616279,-0.00996009,-0.0611815,0.195881,-1.89881,0.205808,0.110686,0.0363255,0.00312204,-0.00315802,0.0034297,0.000973906,-0.00917742,0.0027848,-0.000661898,0,0,0,0,0,0,0,-0.528073,-31.1778,-1.16149,26.4313,1.52771,2.19079,0.0980684,
-0.00993473,-0.0611062,0.19598,-1.89882,0.206159,0.110728,0.0363245,-0.00242188,-0.00153727,-0.000703008,0.000537044,0.0591464,0.00849484,-0.000752688,-0.127645,0.0124576,-0.111307,-0.105576,-4.18204,-0.368818,-0.0128826,0.0666703,-0.381377,0.217891,0.393253,1.04889,0.156437,-0.00616525,-0.00990882,-0.0610945,0.195992,-1.89882,0.2059,0.110679,0.0363312,-0.000262022,-0.000813643,-0.000953512,0.00138163,-0.00639872,0.00162319,0.0011753,-0.423008,0.293047,-0.547902,0.0509651,0.347337,-0.145201,0.22965,-0.198788,-31.4,-0.713182,26.5027,1.49749,2.23748,0.0577852,
-0.00996353,-0.0611176,0.195965,-1.89882,0.206608,0.110794,0.0363186,-0.00265738,-0.00151676,-0.000942789,0.000493634,0.0585526,0.00845848,-0.00075043,-0.14719,0.012818,-0.149863,-0.0271311,-0.37111,-0.0227268,0.00141112,0.0666703,-0.381377,0.217891,0.393253,1.04889,0.156437,-0.00616525,-0.00990882,-0.0610945,0.195992,-1.89882,0.2059,0.110679,0.0363312,-0.000262022,-0.000813643,-0.000953512,0.00138163,-0.00639872,0.00162319,0.0011753,0,0,0,0,0,0,0,-0.198788,-31.4,-0.713182,26.5027,1.49749,2.23748,0.0577852,
-0.00999063,-0.0611294,0.195951,-1.89881,0.207178,0.110873,0.0363133,-0.0028034,-0.00150695,-0.00110977,0.000596378,0.0610965,0.00874421,-0.000732135,-0.091262,0.00613239,-0.104363,0.0642151,1.58995,0.178579,0.0114344,0.0666703,-0.381377,0.217891,0.393253,1.04889,0.156437,-0.00616525,-0.00990882,-0.0610945,0.195992,-1.89882,0.2059,0.110679,0.0363312,-0.000262022,-0.000813643,-0.000953512,0.00138163,-0.00639872,0.00162319,0.0011753,0,0,0,0,0,0,0,-0.198788,-31.4,-0.713182,26.5027,1.49749,2.23748,0.0577852,
-0.0100142,-0.0611423,0.19594,-1.8988,0.207827,0.110963,0.0363084,-0.00283102,-0.00152866,-0.00116364,0.000797456,0.0650882,0.00922608,-0.000709239,-0.0172641,-0.0135685,-0.033667,0.125674,2.49484,0.301172,0.01431,0.0666703,-0.381377,0.217891,0.393253,1.04889,0.156437,-0.00616525,-0.00990882,-0.0610945,0.195992,-1.89882,0.2059,0.110679,0.0363312,-0.000262022,-0.000813643,-0.000953512,0.00138163,-0.00639872,0.00162319,0.0011753,0,0,0,0,0,0,0,-0.198788,-31.4,-0.713182,26.5027,1.49749,2.23748,0.0577852,
-0.00980459,-0.0611043,0.196187,-1.89882,0.206161,0.110729,0.0363237,-0.00213151,-0.0014295,-0.000390173,0.000367011,0.0575606,0.00841682,-0.000770347,0.437195,0.0619785,0.483415,-0.269029,-4.70477,-0.505789,-0.0381925,0.0666962,-0.382536,0.218246,0.393063,1.04877,0.156317,-0.00616485,-0.00980992,-0.061096,0.196165,-1.89881,0.205941,0.110687,0.0363318,0.00404283,-0.000518829,0.00620012,-0.000774226,-0.0171484,0.00259093,0.000275251,0.538106,0.0368517,0.894203,-0.269482,-1.34371,0.120967,-0.112506,-0.147213,-31.3008,-0.661608,26.3559,1.56433,2.15142,0.050461,
-0.00981103,-0.0611129,0.196195,-1.89883,0.206596,0.110782,0.0363169,-0.00186633,-0.00135788,-0.000110022,0.000194384,0.0569449,0.00807689,-0.000785242,0.165738,0.0447578,0.175094,-0.107892,-0.384833,-0.212457,-0.00930926,0.0666962,-0.382536,0.218246,0.393063,1.04877,0.156317,-0.00616485,-0.00980992,-0.061096,0.196165,-1.89881,0.205941,0.110687,0.0363318,0.00404283,-0.000518829,0.00620012,-0.000774226,-0.0171484,0.00259093,0.000275251,0,0,0,0,0,0,0,-0.147213,-31.3008,-0.661608,26.3559,1.56433,2.15142,0.050461,
-0.0098219,-0.0611223,0.196198,-1.89882,0.207166,0.110848,0.0363111,-0.00176459,-0.00132335,-2.1797e-05,0.000239083,0.0598045,0.00809632,-0.000773363,0.0635863,0.0215858,0.0551403,0.027937,1.78725,0.0121462,0.00742383,0.0666962,-0.382536,0.218246,0.393063,1.04877,0.156317,-0.00616485,-0.00980992,-0.061096,0.196165,-1.89881,0.205941,0.110687,0.0363318,0.00404283,-0.000518829,0.00620012,-0.000774226,-0.0171484,0.00259093,0.000275251,0,0,0,0,0,0,0,-0.147213,-31.3008,-0.661608,26.3559,1.56433,2.15142,0.050461,
-0.00980459,-0.0611043,0.196187,-1.89882,0.206161,0.110729,0.0363237,-0.00127837,-0.00126524,0.0005233,-7.96881e-05,0.0533336,0.00751301,-0.000821646,0.303891,0.0363141,0.340685,-0.199232,-4.0443,-0.364569,-0.0301769,0.0666962,-0.382536,0.218246,0.393063,1.04877,0.156317,-0.00616485,-0.00980992,-0.061096,0.196165,-1.89881,0.205941,0.110687,0.0363318,0.00404283,-0.000518829,0.00620012,-0.000774226,-0.0171484,0.00259093,0.000275251,0,0,0,0,0,0,0,-0.147213,-31.3008,-0.661608,26.3559,1.56433,2.15142,0.050461,
-0.00981103,-0.0611129,0.196195,-1.89883,0.206596,0.110782,0.0363169,-0.00118382,-0.00122648,0.000620756,-0.000162975,0.0535633,0.00735384,-0.000826281,0.0590946,0.0242262,0.0609104,-0.0520544,0.143544,-0.0994808,-0.0028968,0.0666416,-0.382511,0.218126,0.393283,1.04887,0.156504,-0.00616561,-0.00974748,-0.061065,0.196268,-1.89882,0.205919,0.110691,0.0363253,0.00278114,0.00522366,0.00447991,0.00361349,-0.0135733,0.00257755,-0.000887319,-0.157711,0.717811,-0.215026,0.548465,0.446886,-0.00167205,-0.145321,-0.67883,-31.3524,-1.26067,26.4035,1.55243,2.15142,0.0980684,
-0.0098219,-0.0611223,0.196198,-1.89882,0.207166,0.110848,0.0363111,-0.00121858,-0.00121822,0.000562825,-4.68041e-05,0.0570992,0.00751789,-0.000806195,-0.0217281,0.00516056,-0.0362069,0.0726069,2.20995,0.102527,0.0125538,0.0666416,-0.382511,0.218126,0.393283,1.04887,0.156504,-0.00616561,-0.00974748,-0.061065,0.196268,-1.89882,0.205919,0.110691,0.0363253,0.00278114,0.00522366,0.00447991,0.00361349,-0.0135733,0.00257755,-0.000887319,0,0,0,0,0,0,0,-0.67883,-31.3524,-1.26067,26.4035,1.55243,2.15142,0.0980684,
-0.00983342,-0.0611336,0.196199,-1.89881,0.207821,0.110924,0.0363058,-0.00126291,-0.00125511,0.000485542,0.000195199,0.0620408,0.00792388,-0.000777323,-0.0277032,-0.0230559,-0.048302,0.151252,3.0885,0.253747,0.0180454,0.0666416,-0.382511,0.218126,0.393283,1.04887,0.156504,-0.00616561,-0.00974748,-0.061065,0.196268,-1.89882,0.205919,0.110691,0.0363253,0.00278114,0.00522366,0.00447991,0.00361349,-0.0135733,0.00257755,-0.000887319,0,0,0,0,0,0,0,-0.67883,-31.3524,-1.26067,26.4035,1.55243,2.15142,0.0980684,
-0.00975157,-0.0610503,0.196279,-1.89883,0.206158,0.110753,0.0363168,-0.00111234,-0.000637799,0.000687553,1.1421e-05,0.055615,0.00788999,-0.000835461,0.094103,0.385822,0.126257,-0.114862,-4.0161,-0.0211848,-0.0363365,0.0666416,-0.382511,0.218126,0.393283,1.04887,0.156504,-0.00616561,-0.00974748,-0.061065,0.196268,-1.89882,0.205919,0.110691,0.0363253,0.00278114,0.00522366,0.00447991,0.00361349,-0.0135733,0.00257755,-0.000887319,0,0,0,0,0,0,0,-0.67883,-31.3524,-1.26067,26.4035,1.55243,2.15142,0.0980684,
-0.00976511,-0.0610447,0.19628,-1.89883,0.206603,0.110825,0.0363101,-0.00122861,-0.000368253,0.000570689,-0.000117264,0.0556291,0.00810769,-0.00083456,-0.0726671,0.168466,-0.0730406,-0.0804284,0.00876597,0.136066,0.000563026,0.0666751,-0.38233,0.218069,0.393499,1.04887,0.156735,-0.00616669,-0.00977702,-0.0610473,0.196292,-1.89884,0.205922,0.110686,0.0363268,-0.00171006,0.00204193,-0.0015135,-0.000905658,-0.0127843,0.00141469,-0.000297061,-0.561399,-0.397716,-0.749177,-0.564894,0.0986279,-0.145358,0.0737823,0.336795,-31.2532,-0.213304,26.3281,1.52771,2.19079,0.0843355,
-0.00978132,-0.0610443,0.196278,-1.89883,0.207176,0.110903,0.0363044,-0.00138797,-0.000286049,0.000386447,-6.13722e-05,0.0588282,0.00844102,-0.000809655,-0.0995981,0.0513774,-0.115151,0.0349326,1.99946,0.208326,0.0155659,0.0666751,-0.38233,0.218069,0.393499,1.04887,0.156735,-0.00616669,-0.00977702,-0.0610473,0.196292,-1.89884,0.205922,0.110686,0.0363268,-0.00171006,0.00204193,-0.0015135,-0.000905658,-0.0127843,0.00141469,-0.000297061,0,0,0,0,0,0,0,0.336795,-31.2532,-0.213304,26.3281,1.52771,2.19079,0.0843355,
-0.0097969,-0.0610485,0.196275,-1.89882,0.20783,0.110988,0.0362992,-0.00149996,-0.000332491,0.000240774,0.000135341,0.0634092,0.00887446,-0.000777684,-0.0699971,-0.0290258,-0.091046,0.122946,2.86311,0.270905,0.019982,0.0666751,-0.38233,0.218069,0.393499,1.04887,0.156735,-0.00616669,-0.00977702,-0.0610473,0.196292,-1.89884,0.205922,0.110686,0.0363268,-0.00171006,0.00204193,-0.0015135,-0.000905658,-0.0127843,0.00141469,-0.000297061,0,0,0,0,0,0,0,0.336795,-31.2532,-0.213304,26.3281,1.52771,2.19079,0.0843355,
-0.00981009,-0.0610402,0.196274,-1.89885,0.206142,0.110728,0.0363198,-0.00202682,-8.94355e-05,-0.000261478,-0.000230854,0.0562258,0.00813704,-0.000798961,-0.329285,0.151909,-0.313907,-0.228872,-4.48958,-0.460888,-0.0132983,0.0666751,-0.38233,0.218069,0.393499,1.04887,0.156735,-0.00616669,-0.00977702,-0.0610473,0.196292,-1.89884,0.205922,0.110686,0.0363268,-0.00171006,0.00204193,-0.0015135,-0.000905658,-0.0127843,0.00141469,-0.000297061,0,0,0,0,0,0,0,0.336795,-31.2532,-0.213304,26.3281,1.52771,2.19079,0.0843355,
-0.009845,-0.0610369,0.196253,-1.89886,0.206562,0.110785,0.0363139,-0.00249419,1.15032e-05,-0.000738637,-0.000357017,0.0554699,0.0079477,-0.000786677,-0.292111,0.0630867,-0.298225,-0.0788518,-0.47245,-0.118339,0.00767713,0.0666476,-0.381574,0.217855,0.393601,1.04885,0.156844,-0.00616718,-0.00978046,-0.0610223,0.196294,-1.89884,0.205929,0.110693,0.0363291,0.0021477,0.00493521,0.00596732,-0.0011389,-0.005696,0.00143539,-0.000209129,0.482219,0.36166,0.935104,-0.0291555,0.88604,0.00258775,0.0109915,0.562931,-31.277,-0.0387439,26.2567,1.55243,2.13769,0.0641939,
-0.00987726,-0.061037,0.196234,-1.89886,0.207109,0.110856,0.0363086,-0.00280182,6.48567e-06,-0.00107314,-0.000269777,0.0580553,0.00811644,-0.000759873,-0.192265,-0.00313594,-0.209067,0.0545249,1.61587,0.105462,0.0167529,0.0666476,-0.381574,0.217855,0.393601,1.04885,0.156844,-0.00616718,-0.00978046,-0.0610223,0.196294,-1.89884,0.205929,0.110693,0.0363291,0.0021477,0.00493521,0.00596732,-0.0011389,-0.005696,0.00143539,-0.000209129,0,0,0,0,0,0,0,0.562931,-31.277,-0.0387439,26.2567,1.55243,2.13769,0.0641939,
