xiao-wang007/linearmpc_panda/paper_data/panda_torque_PD_controller_opt_time_to_start_torque_rate_limiter/4/trajectory.csv
Commanded Joint 0 Position,Commanded Joint 1 Position,Commanded Joint 2 Position,Commanded Joint 3 Position,Commanded Joint 4 Position,Commanded Joint 5 Position,Commanded Joint 6 Position,Commanded Joint 0 Velocity,Commanded Joint 1 Velocity,Commanded Joint 2 Velocity,Commanded Joint 3 Velocity,Commanded Joint 4 Velocity,Commanded Joint 5 Velocity,Commanded Joint 6 Velocity,Commanded Joint 0 Acceleration,Commanded Joint 1 Acceleration,Commanded Joint 2 Acceleration,Commanded Joint 3 Acceleration,Commanded Joint 4 Acceleration,Commanded Joint 5 Acceleration,Commanded Joint 6 Acceleration,Commanded Joint 0 Torque,Commanded Joint 1 Torque,Commanded Joint 2 Torque,Commanded Joint 3 Torque,Commanded Joint 4 Torque,Commanded Joint 5 Torque,Commanded Joint 6 Torque,Actual Joint 0 Position,Actual Joint 1 Position,Actual Joint 2 Position,Actual Joint 3 Position,Actual Joint 4 Position,Actual Joint 5 Position,Actual Joint 6 Position,Actual Joint 0 Velocity,Actual Joint 1 Velocity,Actual Joint 2 Velocity,Actual Joint 3 Velocity,Actual Joint 4 Velocity,Actual Joint 5 Velocity,Actual Joint 6 Velocity,Actual Joint 0 Acceleration,Actual Joint 1 Acceleration,Actual Joint 2 Acceleration,Actual Joint 3 Acceleration,Actual Joint 4 Acceleration,Actual Joint 5 Acceleration,Actual Joint 6 Acceleration,Actual Joint 0 Torque,Actual Joint 1 Torque,Actual Joint 2 Torque,Actual Joint 3 Torque,Actual Joint 4 Torque,Actual Joint 5 Torque,Actual Joint 6 Torque,
0.0954167,0.0272313,-0.0885912,-1.74185,0.0427824,0.238933,-0.0569712,0.000225782,0.0228133,0.000248541,-0.0324504,-0.00506878,0.0532272,-0.00038915,0.141114,14.2583,0.155338,-20.2815,-3.16799,33.267,-0.243219,0.0568339,25.4269,0.0957838,-24.3869,-0.792957,1.89475,-0.0242636,0.0954064,0.0265577,-0.0886123,-1.73911,0.0430968,0.233265,-0.0569173,0.00240547,0.00101014,-0.000241017,-0.00428926,-0.0023758,0.0016197,-0.000526838,0,0,0,0,0,0,0,0.0551182,-37.3668,0.0366345,27.7246,0.764157,3.23907,-0.0703886,
0.0954207,0.0265962,-0.0885983,-1.73914,0.0430815,0.23324,-0.0569181,0.000265092,0.0185369,0.000284759,-0.0261068,-0.00408051,0.0423747,-0.000315281,0.0245683,-2.67274,0.0226361,3.96475,0.617668,-6.78284,0.0461678,0.0511092,25.8673,0.0854802,-24.3033,-0.79283,1.6441,-0.0227455,0.0954064,0.0265577,-0.0886123,-1.73911,0.0430968,0.233265,-0.0569173,0.00240547,0.00101014,-0.000241017,-0.00428926,-0.0023758,0.0016197,-0.000526838,0,0,0,0,0,0,0,0.0551182,-37.3668,0.0366345,27.7246,0.764157,3.23907,-0.0703886,
0.0954233,0.0266061,-0.0885956,-1.73914,0.043082,0.233233,-0.0569182,0.000276359,0.0150755,0.00029422,-0.0210012,-0.00324983,0.0337437,-0.000255148,0.00704178,-2.1634,0.00591313,3.19101,0.519177,-5.39432,0.037583,0.0439017,26.4451,0.0741088,-24.1943,-0.791693,1.29835,-0.0207846,0.095402,0.0267843,-0.0886096,-1.73923,0.0430915,0.233258,-0.0569203,0.00160325,0.00561152,0.000642028,-0.00223697,-0.00243825,0.00174082,-0.00044837,-0.100276,0.575172,0.110381,0.256537,-0.00780615,0.0151399,0.00980847,0.106693,-36.1687,0.0128308,27.3001,0.782467,3.31139,-0.0429228,
0.0954253,0.0266146,-0.0885935,-1.73915,0.0430834,0.233229,-0.0569183,0.000270859,0.0122726,0.000287688,-0.0168936,-0.00256704,0.0268876,-0.000206382,-0.00343712,-1.7518,-0.00408248,2.56724,0.426744,-4.28508,0.0304789,0.0379696,26.969,0.0646989,-24.0265,-0.789223,0.913423,-0.0187814,0.095402,0.0267843,-0.0886096,-1.73923,0.0430915,0.233258,-0.0569203,0.00160325,0.00561152,0.000642028,-0.00223697,-0.00243825,0.00174082,-0.00044837,0,0,0,0,0,0,0,0.106693,-36.1687,0.0128308,27.3001,0.782467,3.31139,-0.0429228,
0.0951856,0.0268927,-0.0888301,-1.73905,0.0503128,0.227687,-0.056952,-0.000608396,0.00988946,-0.000571242,-0.0131722,0.0435334,-0.0147879,-0.000210864,-0.549535,-1.48947,-0.536831,2.32586,28.8128,-26.0472,-0.00280086,0.469858,0.245196,0.47331,-0.299993,2.6992,-2.23687,-0.00209932,0.095402,0.0267843,-0.0886096,-1.73923,0.0430915,0.233258,-0.0569203,0.00160325,0.00561152,0.000642028,-0.00223697,-0.00243825,0.00174082,-0.00044837,0,0,0,0,0,0,0,0.106693,-36.1687,0.0128308,27.3001,0.782467,3.31139,-0.0429228,
0.0951635,0.026894,-0.0888511,-1.73904,0.0521886,0.22617,-0.0569533,-0.00103802,0.00794202,-0.000983481,-0.0103975,0.0817205,-0.0497473,-0.000201128,-0.268517,-1.21715,-0.257649,1.73422,23.8669,-21.8496,0.00608454,0.464703,0.242004,0.468148,-0.297188,2.67526,-2.21803,-0.00205911,0.095402,0.0267843,-0.0886096,-1.73923,0.0430915,0.233258,-0.0569203,0.00160325,0.00561152,0.000642028,-0.00223697,-0.00243825,0.00174082,-0.00044837,0,0,0,0,0,0,0,0.106693,-36.1687,0.0128308,27.3001,0.782467,3.31139,-0.0429228,
0.0951517,0.0268953,-0.0888621,-1.73904,0.0540916,0.224613,-0.0569543,-0.00112752,0.00638767,-0.00106036,-0.00833519,0.112952,-0.0787107,-0.000187006,-0.0559346,-0.971472,-0.0480517,1.28894,19.52,-18.1022,0.00882648,0.459481,0.259811,0.463657,-0.295634,2.65195,-2.19916,-0.00201645,0.0954024,0.0272485,-0.0886139,-1.73972,0.0430831,0.234533,-0.0569183,0.0027985,0.032469,0.000992052,-0.0514892,-0.00101789,0.121632,0.000103829,0.149406,3.35718,0.043753,-6.15653,0.177545,14.9864,0.0690249,0.158268,-29.9281,0.139784,20.9247,0.422665,2.92687,-0.0703886,
0.0951487,0.0268978,-0.0888641,-1.73905,0.0560062,0.223034,-0.0569553,-0.000975318,0.00517201,-0.000900395,-0.00680732,0.138227,-0.102443,-0.000173132,0.0951256,-0.759782,0.0999804,0.954919,15.7966,-14.8327,0.00867124,0.454414,0.25677,0.458571,-0.292851,2.62784,-2.18013,-0.00197742,0.0954024,0.0272485,-0.0886139,-1.73972,0.0430831,0.234533,-0.0569183,0.0027985,0.032469,0.000992052,-0.0514892,-0.00101789,0.121632,0.000103829,0,0,0,0,0,0,0,0.158268,-29.9281,0.139784,20.9247,0.422665,2.92687,-0.0703886,
0.095091,0.028098,-0.0889385,-1.73922,0.0659407,0.211911,-0.0569951,-0.00049946,0.00565109,-0.000472753,-0.00528681,0.252784,-0.232034,-0.000164311,0.297411,0.299426,0.267277,0.95032,71.5983,-80.9946,0.00551307,3.80814,1.42044,3.78565,-1.74378,9.01746,-9.64214,-0.00261647,0.0954024,0.0272485,-0.0886139,-1.73972,0.0430831,0.234533,-0.0569183,0.0027985,0.032469,0.000992052,-0.0514892,-0.00101789,0.121632,0.000103829,0,0,0,0,0,0,0,0.158268,-29.9281,0.139784,20.9247,0.422665,2.92687,-0.0703886,
0.0951468,0.0281473,-0.088883,-1.73925,0.0717378,0.205674,-0.0569954,0.000994115,0.00575306,0.00101021,-0.0050255,0.347154,-0.341554,-0.000138664,0.933484,0.0637266,0.926851,0.163317,58.9813,-68.45,0.0160293,3.70718,1.38698,3.68837,-1.70833,8.80968,-9.44934,-0.00339934,0.0954024,0.0272485,-0.0886139,-1.73972,0.0430831,0.234533,-0.0569183,0.0027985,0.032469,0.000992052,-0.0514892,-0.00101789,0.121632,0.000103829,0,0,0,0,0,0,0,0.158268,-29.9281,0.139784,20.9247,0.422665,2.92687,-0.0703886,
0.0952425,0.0281953,-0.0887873,-1.73932,0.0775569,0.19932,-0.0569953,0.00318877,0.00580304,0.00319983,-0.00554085,0.423201,-0.432081,-0.000107196,1.37166,0.0312419,1.36852,-0.322093,47.529,-56.5793,0.0196678,3.61435,1.35454,3.60513,-1.66987,8.58933,-9.26675,-0.00415831,0.0954024,0.0272485,-0.0886139,-1.73972,0.0430831,0.234533,-0.0569183,0.0027985,0.032469,0.000992052,-0.0514892,-0.00101789,0.121632,0.000103829,0,0,0,0,0,0,0,0.158268,-29.9281,0.139784,20.9247,0.422665,2.92687,-0.0703886,
0.0953726,0.0282472,-0.0886575,-1.7394,0.0833421,0.192932,-0.0569951,0.00580434,0.00593965,0.00580673,-0.00650341,0.483192,-0.505383,-8.09263e-05,1.63474,0.0853819,1.62931,-0.601601,37.4946,-45.8134,0.0164183,3.51324,1.42218,3.54145,-1.63349,8.33717,-9.08202,-0.00103981,0.0953701,0.0283812,-0.0886348,-1.7452,0.0452295,0.237368,-0.0569181,-0.00357278,0.00498026,-0.00376825,-0.206772,0.249495,-0.0813757,-0.00057097,-0.796411,-3.43609,-0.595038,-19.4103,31.3142,-25.376,-0.0843499,0.614505,-30.428,0.488905,24.2374,1.75384,1.68084,-0.0630644,
0.0976449,0.0282868,-0.0864335,-1.74828,0.0738207,0.19826,-0.0565414,0.0212325,0.00109958,0.0206791,-0.0211788,0.565292,-0.649918,0.000511548,9.64257,-3.02505,9.29525,-9.17213,51.3122,-90.3345,0.370296,19.9345,-1.95964,19.8162,-10.505,10.8319,-14.2817,0.290781,0.0953701,0.0283812,-0.0886348,-1.7452,0.0452295,0.237368,-0.0569181,-0.00357278,0.00498026,-0.00376825,-0.206772,0.249495,-0.0813757,-0.00057097,0,0,0,0,0,0,0,0.614505,-30.428,0.488905,24.2374,1.75384,1.68084,-0.0630644,
0.0983733,0.0281268,-0.085727,-1.74895,0.0813073,0.18803,-0.0565186,0.0351948,-0.00311921,0.0342046,-0.0335573,0.639399,-0.775692,0.000977793,8.72646,-2.63674,8.45339,-7.73653,46.3168,-78.6091,0.291403,16.7165,-2.95043,16.4075,-11.2768,10.8319,-14.2817,0.0906071,0.0953701,0.0283812,-0.0886348,-1.7452,0.0452295,0.237368,-0.0569181,-0.00357278,0.00498026,-0.00376825,-0.206772,0.249495,-0.0813757,-0.00057097,0,0,0,0,0,0,0,0.614505,-30.428,0.488905,24.2374,1.75384,1.68084,-0.0630644,
0.099151,0.0279623,-0.0849709,-1.74963,0.0890382,0.177526,-0.0564954,0.0476,-0.00660699,0.0462663,-0.0439446,0.704791,-0.883158,0.00136286,7.75324,-2.17986,7.53857,-6.49207,40.8702,-67.166,0.240666,15.4131,-2.04905,15.0347,-10.5518,10.8319,-14.2817,0.0403823,0.0953701,0.0283812,-0.0886348,-1.7452,0.0452295,0.237368,-0.0569181,-0.00357278,0.00498026,-0.00376825,-0.206772,0.249495,-0.0813757,-0.00057097,0,0,0,0,0,0,0,0.614505,-30.428,0.488905,24.2374,1.75384,1.68084,-0.0630644,
0.0999657,0.0277969,-0.0841776,-1.75034,0.0969494,0.166965,-0.0564711,0.0584459,-0.00942093,0.0568447,-0.0530465,0.761614,-0.970542,0.00169854,6.77871,-1.75871,6.61153,-5.6887,35.5144,-54.6149,0.209803,14.4669,-1.43175,14.0993,-10.3586,10.6933,-14.2342,0.0300732,0.0952251,0.0299503,-0.0885893,-1.74927,0.0576534,0.223595,-0.0569206,0.00631655,0.0966926,-0.00735072,0.0165043,0.766068,-0.911104,-0.000285751,1.23617,11.464,-0.447809,27.9095,64.5716,-103.716,0.0356524,4.03827,-43.0083,3.78572,29.1965,3.24981,-0.627207,-0.0429228,
0.0991591,0.031239,-0.0846059,-1.75405,0.0919725,0.177678,-0.0566394,0.073777,-0.00136898,0.0724488,-0.0698288,0.795776,-1.03089,0.00241978,9.58191,5.03247,9.75253,-10.489,21.3511,-37.7157,0.450774,23.0159,5.57703,22.9608,-17.2047,10.6933,-14.2342,0.0716056,0.0952251,0.0299503,-0.0885893,-1.74927,0.0576534,0.223595,-0.0569206,0.00631655,0.0966926,-0.00735072,0.0165043,0.766068,-0.911104,-0.000285751,0,0,0,0,0,0,0,4.03827,-43.0083,3.78572,29.1965,3.24981,-0.627207,-0.0429228,
0.100305,0.0314976,-0.0834646,-1.75517,0.0996651,0.167261,-0.0565993,0.0876687,0.00537175,0.086491,-0.0839281,0.828935,-1.08513,0.00293864,8.68233,4.21295,8.77638,-8.81205,20.7246,-33.9016,0.324286,21.763,5.43823,21.6818,-16.7818,10.6933,-14.2342,0.0581572,0.0952251,0.0299503,-0.0885893,-1.74927,0.0576534,0.223595,-0.0569206,0.00631655,0.0966926,-0.00735072,0.0165043,0.766068,-0.911104,-0.000285751,0,0,0,0,0,0,0,4.03827,-43.0083,3.78572,29.1965,3.24981,-0.627207,-0.0429228,
0.101492,0.0317647,-0.0822838,-1.75631,0.107546,0.156679,-0.0565599,0.0998184,0.0109746,0.0987146,-0.0956945,0.860175,-1.13266,0.0033375,7.59354,3.5018,7.63977,-7.35397,19.5248,-29.7076,0.249285,20.6779,5.18712,20.5826,-16.43,10.6933,-14.2342,0.0503289,0.0952251,0.0299503,-0.0885893,-1.74927,0.0576534,0.223595,-0.0569206,0.00631655,0.0966926,-0.00735072,0.0165043,0.766068,-0.911104,-0.000285751,0,0,0,0,0,0,0,4.03827,-43.0083,3.78572,29.1965,3.24981,-0.627207,-0.0429228,
0.100446,0.0298783,-0.0832493,-1.75746,0.130291,0.127533,-0.0567036,0.112963,0.00380843,0.111245,-0.120439,0.885072,-1.1656,0.00325564,8.21531,-4.47888,7.83122,-15.4654,15.5604,-20.5873,-0.0511581,24,1.28941,23.4197,-24.0323,10.4651,-14.0476,0.041366,0.0950654,0.0313459,-0.0885087,-1.74936,0.090958,0.181352,-0.0569004,0.0230864,-0.01529,0.0457745,-0.0600163,1.12727,-1.53286,-0.0011382,2.09623,-13.9978,6.64066,-9.56507,45.1507,-77.7193,-0.106556,11.469,-40.1598,11.0617,19.0085,2.92022,-4.18037,0.0376436,
0.101817,0.0297052,-0.0819121,-1.7593,0.138277,0.117918,-0.0566796,0.124658,-0.0012817,0.122424,-0.142334,0.907708,-1.17286,0.00320465,7.30963,-3.18133,6.98705,-13.6841,14.1479,-4.53718,-0.0318717,22.6112,0.816215,22.0723,-23.6421,10.4651,-14.0476,0.0299722,0.0950654,0.0313459,-0.0885087,-1.74936,0.090958,0.181352,-0.0569004,0.0230864,-0.01529,0.0457745,-0.0600163,1.12727,-1.53286,-0.0011382,0,0,0,0,0,0,0,11.469,-40.1598,11.0617,19.0085,2.92022,-4.18037,0.0376436,
0.103218,0.0295584,-0.0805467,-1.76119,0.146356,0.109248,-0.0566523,0.134736,-0.00469402,0.132075,-0.161313,0.928147,-1.15505,0.00324592,6.29841,-2.1327,6.03206,-11.8621,12.7741,11.1299,0.025798,21.4289,0.364443,20.9207,-23.2756,10.4651,-14.0476,0.0250882,0.0950654,0.0313459,-0.0885087,-1.74936,0.090958,0.181352,-0.0569004,0.0230864,-0.01529,0.0457745,-0.0600163,1.12727,-1.53286,-0.0011382,0,0,0,0,0,0,0,11.469,-40.1598,11.0617,19.0085,2.92022,-4.18037,0.0376436,
0.104633,0.0294362,-0.0791668,-1.76312,0.154508,0.101597,-0.0566212,0.143164,-0.00681029,0.140157,-0.177274,0.946327,-1.1153,0.00337543,5.26752,-1.32267,5.05101,-9.97536,11.3626,24.8478,0.0809396,20.4079,-0.0241193,19.9171,-22.8918,10.4651,-14.0476,0.0222158,0.0950654,0.0313459,-0.0885087,-1.74936,0.090958,0.181352,-0.0569004,0.0230864,-0.01529,0.0457745,-0.0600163,1.12727,-1.53286,-0.0011382,0,0,0,0,0,0,0,11.469,-40.1598,11.0617,19.0085,2.92022,-4.18037,0.0376436,
0.10015,0.0301856,-0.0834481,-1.7589,0.130783,0.136672,-0.0566864,0.146153,-0.00720197,0.143393,-0.195414,0.955665,-1.06252,0.0036092,1.86849,-0.244799,2.02296,-11.3377,5.83614,32.9829,0.146109,22.2528,3.61335,21.9529,-26.4211,10.4047,-13.5028,0.0313893,0.098392,0.0311511,-0.0854142,-1.75521,0.130061,0.122882,-0.0568881,0.118295,-0.0122219,0.165925,-0.245539,1.22763,-1.79634,0.00090621,11.9011,0.383506,15.0188,-23.1903,12.5442,-32.9353,0.255551,19.1021,-26.6591,18.5361,17.9095,3.94653,-2.78877,-0.0301054,
0.101462,0.0301771,-0.0821518,-1.76106,0.13881,0.130921,-0.0566504,0.149721,-0.00597584,0.147123,-0.2105,0.965217,-0.993782,0.00378899,2.22991,0.766333,2.33104,-9.42857,5.97,42.9634,0.112366,21.1252,2.96818,20.8419,-26.0951,10.4047,-11.1542,0.0278715,0.098392,0.0311511,-0.0854142,-1.75521,0.130061,0.122882,-0.0568881,0.118295,-0.0122219,0.165925,-0.245539,1.22763,-1.79634,0.00090621,0,0,0,0,0,0,0,19.1021,-26.6591,18.5361,17.9095,3.94653,-2.78877,-0.0301054,
0.102801,0.0302166,-0.0808289,-1.76323,0.146913,0.126175,-0.0566114,0.153259,-0.00379341,0.150769,-0.222577,0.974748,-0.913692,0.0040067,2.21121,1.36402,2.27875,-7.54852,5.95677,50.0564,0.13607,20.173,2.41089,19.9035,-25.8037,10.4047,-9.0886,0.0302523,0.098392,0.0311511,-0.0854142,-1.75521,0.130061,0.122882,-0.0568881,0.118295,-0.0122219,0.165925,-0.245539,1.22763,-1.79634,0.00090621,0,0,0,0,0,0,0,19.1021,-26.6591,18.5361,17.9095,3.94653,-2.78877,-0.0301054,
0.104153,0.0302927,-0.0794938,-1.76538,0.155079,0.122361,-0.0565673,0.156408,-0.00113,0.153993,-0.231846,0.983932,-0.826293,0.00430566,1.96824,1.66463,2.01516,-5.79278,5.74011,54.6245,0.186847,19.3461,1.96544,19.0891,-25.5259,10.4047,-7.27344,0.0343791,0.098392,0.0311511,-0.0854142,-1.75521,0.130061,0.122882,-0.0568881,0.118295,-0.0122219,0.165925,-0.245539,1.22763,-1.79634,0.00090621,0,0,0,0,0,0,0,19.1021,-26.6591,18.5361,17.9095,3.94653,-2.78877,-0.0301054,
0.10594,0.0310445,-0.0779813,-1.7686,0.173076,0.0777225,-0.0566451,0.164821,0.00107549,0.162179,-0.253433,0.996129,-0.819112,0.0045475,5.25802,1.37843,5.11593,-13.492,7.62334,4.48789,0.151155,22.8759,3.44854,22.4294,-31.4851,10.4277,-10.2626,0.0515767,0.105614,0.0277307,-0.0788437,-1.76889,0.172842,0.0590395,-0.0568819,0.319885,-0.0707675,0.221377,-0.492828,1.37429,-1.86559,0.00238501,25.1988,-7.31819,6.93158,-30.9111,18.3331,-8.65621,0.18485,15.829,-30.1265,15.763,23.4915,4.31915,-1.1042,-0.0429228,
0.10752,0.0311443,-0.0764303,-1.77128,0.181418,0.072477,-0.0565995,0.171354,0.00335648,0.168519,-0.269856,1.00546,-0.786427,0.00477858,4.08323,1.42562,3.96265,-10.2641,5.83371,20.4281,0.144422,21.7205,2.50443,21.3022,-31.2743,10.4277,-8.40742,0.0428459,0.105614,0.0277307,-0.0788437,-1.76889,0.172842,0.0590395,-0.0568819,0.319885,-0.0707675,0.221377,-0.492828,1.37429,-1.86559,0.00238501,0,0,0,0,0,0,0,15.829,-30.1265,15.763,23.4915,4.31915,-1.1042,-0.0429228,
0.109081,0.0312564,-0.0748979,-1.77392,0.189752,0.0681898,-0.0565507,0.176118,0.00548641,0.173125,-0.28185,1.01271,-0.73632,0.00504387,2.97727,1.3312,2.87895,-7.49638,4.53073,31.3169,0.165807,20.7854,1.83288,20.3876,-31.0115,10.4277,-6.79257,0.0430575,0.105614,0.0277307,-0.0788437,-1.76889,0.172842,0.0590395,-0.0568819,0.319885,-0.0707675,0.221377,-0.492828,1.37429,-1.86559,0.00238501,0,0,0,0,0,0,0,15.829,-30.1265,15.763,23.4915,4.31915,-1.1042,-0.0429228,
0.110617,0.0313746,-0.073391,-1.77651,0.198078,0.064755,-0.0564965,0.179288,0.00734492,0.176173,-0.290141,1.01833,-0.674928,0.00538917,1.98119,1.16157,1.90479,-5.18209,3.51048,38.37,0.21581,19.992,1.3701,19.611,-30.7085,10.4277,-5.38102,0.047484,0.105614,0.0277307,-0.0788437,-1.76889,0.172842,0.0590395,-0.0568819,0.319885,-0.0707675,0.221377,-0.492828,1.37429,-1.86559,0.00238501,0,0,0,0,0,0,0,15.829,-30.1265,15.763,23.4915,4.31915,-1.1042,-0.0429228,
0.115766,0.0275584,-0.0688372,-1.78658,0.220194,0.0302942,-0.0566851,0.190321,0.00816279,0.187165,-0.313619,1.03756,-0.58579,0.00551367,6.89579,0.511168,6.86973,-14.6734,12.0219,55.7114,0.0778121,20.7216,-0.880238,20.3854,-35.6788,10.3881,-0.764302,0.0282051,0.115593,0.0271179,-0.0656323,-1.78756,0.215745,0.00696505,-0.0568483,0.317502,-0.0297645,0.433055,-0.595948,1.39107,-1.18421,0.0023873,-0.297867,5.12537,26.4597,-12.89,2.09782,85.1732,0.000285734,7.6128,-29.4045,7.13807,25.4593,3.3844,3.66295,-0.0630644,
0.11756,0.027653,-0.067069,-1.78972,0.228961,0.0296519,-0.0566338,0.197093,0.00889583,0.193936,-0.329498,1.04921,-0.484691,0.00569216,4.23227,0.458152,4.23188,-9.92489,7.27644,63.187,0.111559,19.9375,-1.21044,19.6241,-35.3149,10.3881,0.439047,0.0315022,0.115593,0.0271179,-0.0656323,-1.78756,0.215745,0.00696505,-0.0568483,0.317502,-0.0297645,0.433055,-0.595948,1.39107,-1.18421,0.0023873,0,0,0,0,0,0,0,7.6128,-29.4045,7.13807,25.4593,3.3844,3.66295,-0.0630644,
0.119273,0.0277439,-0.0653788,-1.79276,0.237608,0.0299639,-0.0565789,0.200495,0.00938681,0.197404,-0.339501,1.05555,-0.379951,0.00592748,2.12662,0.306861,2.1675,-6.25133,3.96786,65.4621,0.147077,19.2695,-1.34558,18.9748,-34.9007,10.3881,1.44345,0.0388439,0.115593,0.0271179,-0.0656323,-1.78756,0.215745,0.00696505,-0.0568483,0.317502,-0.0297645,0.433055,-0.595948,1.39107,-1.18421,0.0023873,0,0,0,0,0,0,0,7.6128,-29.4045,7.13807,25.4593,3.3844,3.66295,-0.0630644,
0.127319,0.0277736,-0.0540604,-1.80743,0.265087,0.0063312,-0.0566724,0.209996,0.012122,0.206847,-0.359866,1.07444,-0.219578,0.00603721,5.93765,1.70952,5.90204,-12.7282,11.8033,100.233,0.068576,17.6038,-2.08336,17.3569,-39.7771,10.3881,8.14282,0.0295449,0.115593,0.0271179,-0.0656323,-1.78756,0.215745,0.00696505,-0.0568483,0.317502,-0.0297645,0.433055,-0.595948,1.39107,-1.18421,0.0023873,0,0,0,0,0,0,0,7.6128,-29.4045,7.13807,25.4593,3.3844,3.66295,-0.0630644,
0.129165,0.0279455,-0.0522383,-1.81079,0.274024,0.0105416,-0.0566168,0.214149,0.0139944,0.211032,-0.372094,1.08297,-0.070402,0.00621999,2.59577,1.17025,2.61548,-7.64281,5.33252,93.2352,0.114241,17.3824,-2.08898,17.1337,-38.8075,10.2757,8.89484,0.0393226,0.13072,0.0277314,-0.052927,-1.81084,0.261212,-0.0302337,-0.0568279,0.376372,-0.00169239,0.486996,-0.807721,1.42607,-0.807915,-0.00385059,7.35872,3.50902,6.74263,-26.4717,4.37466,47.0362,-0.779736,3.02265,-36.0695,2.88911,25.3085,2.6886,4.23333,0.0101778,
0.130915,0.0280966,-0.0505105,-1.814,0.282298,0.0153247,-0.0565587,0.215079,0.0149732,0.212019,-0.377872,1.07322,0.0632552,0.00642764,0.581057,0.611714,0.616823,-3.61134,-6.09812,83.5358,0.129779,17.04,-1.77817,16.8005,-38.294,10.2757,9.08636,0.0547257,0.13072,0.0277314,-0.052927,-1.81084,0.261212,-0.0302337,-0.0568279,0.376372,-0.00169239,0.486996,-0.807721,1.42607,-0.807915,-0.00385059,0,0,0,0,0,0,0,3.02265,-36.0695,2.88911,25.3085,2.6886,4.23333,0.0101778,
0.132595,0.0282228,-0.0488532,-1.81706,0.289663,0.0204835,-0.0565,0.214052,0.0151334,0.211049,-0.378834,1.04269,0.179574,0.00660948,-0.641736,0.100113,-0.605848,-0.600949,-19.0755,72.6995,0.113654,16.6422,-1.40634,16.4143,-37.7654,10.2757,9.17953,0.0656111,0.13072,0.0277314,-0.052927,-1.81084,0.261212,-0.0302337,-0.0568279,0.376372,-0.00169239,0.486996,-0.807721,1.42607,-0.807915,-0.00385059,0,0,0,0,0,0,0,3.02265,-36.0695,2.88911,25.3085,2.6886,4.23333,0.0101778,
0.143223,0.0296406,-0.0405932,-1.83312,0.306112,-0.0204493,-0.056657,0.222978,0.0193197,0.21986,-0.397739,1.00023,0.279379,0.00635283,5.57923,2.61646,5.50653,-11.8156,-26.5409,62.3777,-0.160411,14.1874,-3.63715,14.0114,-42.8375,10.2757,11.8821,0.0399968,0.13072,0.0277314,-0.052927,-1.81084,0.261212,-0.0302337,-0.0568279,0.376372,-0.00169239,0.486996,-0.807721,1.42607,-0.807915,-0.00385059,0,0,0,0,0,0,0,3.02265,-36.0695,2.88911,25.3085,2.6886,4.23333,0.0101778,
0.145152,0.029866,-0.0386903,-1.8367,0.311493,-0.0141251,-0.0566111,0.22662,0.0210909,0.223459,-0.40764,0.934707,0.381608,0.00623067,2.27623,1.10702,2.24981,-6.188,-40.9513,63.8934,-0.0763497,14.1304,-2.98557,13.9589,-42.2414,10.0875,11.8821,0.0577257,0.13072,0.0277314,-0.052927,-1.81084,0.261212,-0.0302337,-0.0568279,0.376372,-0.00169239,0.486996,-0.807721,1.42607,-0.807915,-0.00385059,0,0,0,0,0,0,0,3.02265,-36.0695,2.88911,25.3085,2.6886,4.23333,0.0101778,
0.146963,0.030038,-0.0369042,-1.84011,0.315715,-0.00713788,-0.0565623,0.226574,0.0211713,0.223422,-0.411339,0.853338,0.479968,0.00620268,-0.0288887,0.0502287,-0.0236415,-2.31233,-50.8553,61.4747,-0.0174918,14.0322,-2.91364,13.8077,-40.974,7.75859,12.1384,0.0564483,0.146115,0.0278597,-0.0372916,-1.84131,0.311024,-0.040932,-0.056806,0.440344,-0.0627088,0.448335,-0.960128,1.63919,0.139918,0.000264941,7.99658,-7.62705,-4.83258,-19.0509,26.6397,118.479,0.514441,-3.31707,-32.8243,-3.08562,25.3085,0.60577,5.87761,-0.0365141,
0.148674,0.0301666,-0.0352166,-1.84338,0.318895,0.00034195,-0.0565086,0.224038,0.0201527,0.220928,-0.410863,0.76215,0.57097,0.00630683,-1.58505,-0.63665,-1.55846,0.297494,-56.9929,56.8764,0.0650936,13.8896,-2.18676,13.6501,-40.2783,5.83704,12.1384,0.05859,0.146115,0.0278597,-0.0372916,-1.84131,0.311024,-0.040932,-0.056806,0.440344,-0.0627088,0.448335,-0.960128,1.63919,0.139918,0.000264941,0,0,0,0,0,0,0,-3.31707,-32.8243,-3.08562,25.3085,0.60577,5.87761,-0.0365141,
0.158908,0.0289149,-0.0246686,-1.86292,0.339869,-0.0190638,-0.056693,0.230696,0.0183461,0.227519,-0.420976,0.667464,0.619645,0.00616289,4.16142,-1.12912,4.11935,-6.32055,-59.1789,30.4221,-0.0899594,10.6903,-5.33387,10.4916,-44.4143,3.33488,12.1384,0.0156005,0.146115,0.0278597,-0.0372916,-1.84131,0.311024,-0.040932,-0.056806,0.440344,-0.0627088,0.448335,-0.960128,1.63919,0.139918,0.000264941,0,0,0,0,0,0,0,-3.31707,-32.8243,-3.08562,25.3085,0.60577,5.87761,-0.0365141,
0.1608,0.0289538,-0.0228028,-1.86645,0.341016,-0.0119317,-0.0566375,0.231837,0.0156503,0.228662,-0.425235,0.562632,0.674019,0.00631915,0.712775,-1.68485,0.714151,-2.66166,-65.5195,33.9835,0.0976609,11.27,-4.15659,11.0704,-43.5525,1.64953,12.1384,0.0312517,0.146115,0.0278597,-0.0372916,-1.84131,0.311024,-0.040932,-0.056806,0.440344,-0.0627088,0.448335,-0.960128,1.63919,0.139918,0.000264941,0,0,0,0,0,0,0,-3.31707,-32.8243,-3.08562,25.3085,0.60577,5.87761,-0.0365141,
0.162553,0.0289573,-0.0210729,-1.86987,0.341224,-0.00433175,-0.0565737,0.229302,0.0126079,0.226175,-0.425592,0.455313,0.729213,0.00664853,-1.58447,-1.9015,-1.55386,-0.223139,-67.0749,34.4964,0.205862,11.6554,-3.54303,11.4389,-42.3748,0.140525,12.1909,0.0405684,0.161929,0.0284929,-0.0210133,-1.87258,0.36029,-0.0174838,-0.0567871,0.477321,-0.0141278,0.460455,-0.91586,1.36852,1.04835,-0.000402604,4.62206,6.07262,1.51498,5.53355,-33.8341,113.554,-0.0834431,-8.0064,-35.3713,-7.40996,27.3993,0.404354,4.97582,0.0239107,
0.158908,0.0289149,-0.0246686,-1.86292,0.339869,-0.0190638,-0.056693,0.234907,0.0123103,0.231717,-0.432759,0.421994,0.74624,0.00643626,3.50348,-0.186024,3.46342,-4.47948,-20.8242,10.6417,-0.132672,12.5959,-2.17314,12.3863,-40.8305,-1.66792,12.1909,0.0614644,0.161929,0.0284929,-0.0210133,-1.87258,0.36029,-0.0174838,-0.0567871,0.477321,-0.0141278,0.460455,-0.91586,1.36852,1.04835,-0.000402604,0,0,0,0,0,0,0,-8.0064,-35.3713,-7.40996,27.3993,0.404354,4.97582,0.0239107,
0.177072,0.0307013,-0.00608346,-1.89497,0.375051,0.0254842,-0.056447,0.235549,0.0126269,0.232324,-0.42771,0.321965,0.795306,0.00709893,0.40136,0.19788,0.379606,3.15595,-62.5179,30.6663,0.414171,13.0026,-1.73137,12.7967,-40.1164,-2.27455,12.1909,0.0711746,0.161929,0.0284929,-0.0210133,-1.87258,0.36029,-0.0174838,-0.0567871,0.477321,-0.0141278,0.460455,-0.91586,1.36852,1.04835,-0.000402604,0,0,0,0,0,0,0,-8.0064,-35.3713,-7.40996,27.3993,0.404354,4.97582,0.0239107,
0.178827,0.0307641,-0.00435282,-1.89815,0.373848,0.0336425,-0.0563631,0.232323,0.0116711,0.229125,-0.421604,0.227501,0.840203,0.00777749,-2.01661,-0.597356,-1.99931,3.81583,-59.0399,28.0606,0.424098,13.3595,-1.41469,13.1581,-39.4369,-2.69817,12.1909,0.0780106,0.161929,0.0284929,-0.0210133,-1.87258,0.36029,-0.0174838,-0.0567871,0.477321,-0.0141278,0.460455,-0.91586,1.36852,1.04835,-0.000402604,0,0,0,0,0,0,0,-8.0064,-35.3713,-7.40996,27.3993,0.404354,4.97582,0.0239107,
0.180461,0.0307957,-0.00274247,-1.90126,0.372231,0.0419821,-0.056274,0.22669,0.0101254,0.223559,-0.414915,0.141566,0.880652,0.0084498,-3.52073,-0.966045,-3.47895,4.1808,-53.7093,25.2809,0.420195,13.418,-1.22583,13.2083,-38.7799,-3.11928,12.0653,0.0923174,0.178515,0.0285125,-0.00495788,-1.90505,0.390077,0.027012,-0.0567643,0.494606,0.0446669,0.397108,-0.989417,0.596554,1.39426,-0.000260243,2.16064,7.34934,-7.91837,-9.1947,-96.4952,43.2392,0.0177951,-9.75598,-38.0135,-9.28649,26.4789,-1.60523,3.35808,-0.0227812,
0.190766,0.0325819,0.0070907,-1.92426,0.389934,0.0652281,-0.056367,0.229385,0.0192834,0.22613,-0.414803,0.0772638,0.899424,0.00893823,1.68461,5.72376,1.60667,0.0697607,-40.1892,11.7324,0.30527,13.6801,-1.08414,13.4803,-38.1672,-3.32263,12.0653,0.0983715,0.178515,0.0285125,-0.00495788,-1.90505,0.390077,0.027012,-0.0567643,0.494606,0.0446669,0.397108,-0.989417,0.596554,1.39426,-0.000260243,0,0,0,0,0,0,0,-9.75598,-38.0135,-9.28649,26.4789,-1.60523,3.35808,-0.0227812,
0.192524,0.0329143,0.00882064,-1.92746,0.388195,0.0732177,-0.0562759,0.227442,0.0237369,0.224152,-0.411827,0.0183257,0.919279,0.00942904,-1.21418,2.7834,-1.23604,1.8602,-36.8363,12.4093,0.306756,13.8892,-0.971184,13.6969,-37.5652,-3.44412,12.0653,0.10449,0.178515,0.0285125,-0.00495788,-1.90505,0.390077,0.027012,-0.0567643,0.494606,0.0446669,0.397108,-0.989417,0.596554,1.39426,-0.000260243,0,0,0,0,0,0,0,-9.75598,-38.0135,-9.28649,26.4789,-1.60523,3.35808,-0.0227812,
0.194149,0.033163,0.0104206,-1.93056,0.38627,0.0813807,-0.0561823,0.222586,0.0252071,0.21932,-0.40697,-0.0334576,0.939498,0.0098822,-3.03555,0.918866,-3.0203,3.03561,-32.3646,12.637,0.283224,14.0434,-0.871435,13.8568,-36.965,-3.46551,12.0653,0.108521,0.178515,0.0285125,-0.00495788,-1.90505,0.390077,0.027012,-0.0567643,0.494606,0.0446669,0.397108,-0.989417,0.596554,1.39426,-0.000260243,0,0,0,0,0,0,0,-9.75598,-38.0135,-9.28649,26.4789,-1.60523,3.35808,-0.0227812,
0.195667,0.0333508,0.0119152,-1.93357,0.384245,0.0896927,-0.056087,0.216025,0.0248592,0.212821,-0.400907,-0.0773906,0.959401,0.0102885,-4.10009,-0.217392,-4.06134,3.78918,-27.4581,12.439,0.253943,14.0157,-0.700895,13.818,-36.6297,-3.50523,11.8738,0.117618,0.193793,0.0289613,0.0106242,-1.93662,0.396669,0.0803939,-0.0567209,0.497661,0.0349684,0.3729,-0.912122,0.12127,1.671,2.33318e-05,0.381875,-1.21232,-3.02606,9.66189,-59.4105,34.5923,0.0354468,-5.34436,-36.0695,-5.00975,25.3601,-0.829777,2.11846,-0.0301054,
0.205282,0.0327262,0.0218952,-1.95442,0.390477,0.122694,-0.0562893,0.217301,0.030528,0.213989,-0.398189,-0.103688,0.970174,0.0104748,0.797177,3.54296,0.729833,1.69887,-16.436,6.73321,0.116449,14.0767,-0.630092,13.8829,-36.033,-3.41409,11.8738,0.119782,0.193793,0.0289613,0.0106242,-1.93662,0.396669,0.0803939,-0.0567209,0.497661,0.0349684,0.3729,-0.912122,0.12127,1.671,2.33318e-05,0,0,0,0,0,0,0,-5.34436,-36.0695,-5.00975,25.3601,-0.829777,2.11846,-0.0301054,
0.206911,0.0330469,0.0234973,-1.95742,0.38875,0.13088,-0.0561977,0.21457,0.0324382,0.211244,-0.393449,-0.126125,0.980787,0.0106692,-1.70651,1.1939,-1.71606,2.96268,-14.0231,6.63316,0.121498,14.099,-0.574218,13.9085,-35.4389,-3.29708,11.8738,0.121682,0.193793,0.0289613,0.0106242,-1.93662,0.396669,0.0803939,-0.0567209,0.497661,0.0349684,0.3729,-0.912122,0.12127,1.671,2.33318e-05,0,0,0,0,0,0,0,-5.34436,-36.0695,-5.00975,25.3601,-0.829777,2.11846,-0.0301054,
0.208421,0.0332902,0.0249827,-1.96032,0.387013,0.139158,-0.0561055,0.209414,0.0320349,0.206129,-0.387397,-0.144313,0.991587,0.0108392,-3.22286,-0.252097,-3.19662,3.78264,-11.3672,6.74994,0.106232,14.085,-0.530949,13.8978,-34.8482,-3.14639,11.8738,0.122297,0.193793,0.0289613,0.0106242,-1.93662,0.396669,0.0803939,-0.0567209,0.497661,0.0349684,0.3729,-0.912122,0.12127,1.671,2.33318e-05,0,0,0,0,0,0,0,-5.34436,-36.0695,-5.00975,25.3601,-0.829777,2.11846,-0.0301054,
0.209836,0.0334766,0.0263744,-1.96315,0.385303,0.147527,-0.0560135,0.202906,0.0302867,0.199697,-0.380522,-0.158217,1.00249,0.0109718,-4.06723,-1.0926,-4.01993,4.29637,-8.69002,6.81546,0.0829064,13.9877,-0.372357,13.7883,-34.578,-2.99692,11.6365,0.126429,0.208939,0.0295389,0.0251632,-1.96702,0.394481,0.142394,-0.0565069,0.470615,-0.0019347,0.362818,-0.860567,-0.177953,1.80695,0.00716775,-3.38075,-4.61289,-1.26018,6.44442,-37.4028,16.994,0.893052,-4.1026,-35.3197,-3.81163,24.6619,-0.493778,0.606009,-0.0163725,
0.219613,0.0326478,0.0356144,-1.98354,0.386038,0.186378,-0.0560893,0.203341,0.033367,0.200044,-0.376443,-0.163218,1.00708,0.0108913,0.271484,1.92519,0.216877,2.54995,-3.12604,2.86833,-0.0503134,13.9159,-0.348574,13.7196,-33.9928,-2.82089,11.6365,0.12581,0.208939,0.0295389,0.0251632,-1.96702,0.394481,0.142394,-0.0565069,0.470615,-0.0019347,0.362818,-0.860567,-0.177953,1.80695,0.00716775,0,0,0,0,0,0,0,-4.1026,-35.3197,-3.81163,24.6619,-0.493778,0.606009,-0.0163725,
0.221118,0.0329252,0.0370936,-1.98633,0.384647,0.194606,-0.0560041,0.200307,0.0336283,0.197014,-0.370854,-0.165362,1.01138,0.0108446,-1.89602,0.163288,-1.89369,3.49253,-1.33959,2.68411,-0.0292029,13.8216,-0.331675,13.6281,-33.4101,-2.64488,11.6365,0.124899,0.208939,0.0295389,0.0251632,-1.96702,0.394481,0.142394,-0.0565069,0.470615,-0.0019347,0.362818,-0.860567,-0.177953,1.80695,0.00716775,0,0,0,0,0,0,0,-4.1026,-35.3197,-3.81163,24.6619,-0.493778,0.606009,-0.0163725,
0.222517,0.0331376,0.0384682,-1.98903,0.383328,0.202855,-0.0559193,0.195214,0.0322138,0.191976,-0.364195,-0.165269,1.01533,0.0107956,-3.18315,-0.884046,-3.14887,4.16246,0.0576448,2.47167,-0.0306241,13.7075,-0.319211,13.5167,-32.8294,-2.46481,11.6365,0.123278,0.208939,0.0295389,0.0251632,-1.96702,0.394481,0.142394,-0.0565069,0.470615,-0.0019347,0.362818,-0.860567,-0.177953,1.80695,0.00716775,0,0,0,0,0,0,0,-4.1026,-35.3197,-3.81163,24.6619,-0.493778,0.606009,-0.0163725,
0.233073,0.0338093,0.0485252,-2.01052,0.379299,0.250564,-0.0560022,0.193635,0.0349043,0.190316,-0.357261,-0.158945,1.00594,0.010521,-0.986772,1.68156,-1.03738,4.33323,3.95293,-5.86694,-0.171631,13.3644,-0.235464,13.1651,-31.8687,-2.06111,11.4294,0.120687,0.223251,0.0305618,0.0389254,-1.99522,0.386798,0.206089,-0.0563738,0.4465,0.033656,0.332971,-0.782057,-0.25004,1.8833,-0.000275587,-3.01441,4.44884,-3.7309,9.81373,-9.0109,9.54377,-0.930417,-4.02722,-36.7162,-3.78783,25.9076,0.612179,0.48699,0.0843355,
0.234444,0.0340788,0.0498699,-2.01304,0.378329,0.257974,-0.0559263,0.189181,0.03466,0.185871,-0.349026,-0.15142,0.990005,0.0103133,-2.78394,-0.152678,-2.77851,5.14715,4.70289,-9.96126,-0.129829,13.2104,-0.229817,13.0136,-31.2931,-1.89794,11.4294,0.118059,0.223251,0.0305618,0.0389254,-1.99522,0.386798,0.206089,-0.0563738,0.4465,0.033656,0.332971,-0.782057,-0.25004,1.8833,-0.000275587,0,0,0,0,0,0,0,-4.02722,-36.7162,-3.78783,25.9076,0.612179,0.48699,0.0843355,
0.235715,0.0342747,0.0511169,-2.01548,0.377435,0.26507,-0.0558509,0.183119,0.0326271,0.179871,-0.340085,-0.143478,0.969394,0.0101357,-3.7884,-1.27056,-3.74997,5.58832,4.96357,-12.8818,-0.110964,13.0477,-0.224437,12.8535,-30.7187,-1.7414,11.32,0.115083,0.223251,0.0305618,0.0389254,-1.99522,0.386798,0.206089,-0.0563738,0.4465,0.033656,0.332971,-0.782057,-0.25004,1.8833,-0.000275587,0,0,0,0,0,0,0,-4.02722,-36.7162,-3.78783,25.9076,0.612179,0.48699,0.0843355,
0.236906,0.0344143,0.0522859,-2.01783,0.376606,0.271864,-0.0557767,0.176281,0.0295904,0.173122,-0.330839,-0.135494,0.945368,0.00996546,-4.27416,-1.89792,-4.21758,5.77834,4.99005,-15.0166,-0.106423,12.8785,-0.219535,12.6869,-30.1454,-1.597,10.7063,0.112019,0.223251,0.0305618,0.0389254,-1.99522,0.386798,0.206089,-0.0563738,0.4465,0.033656,0.332971,-0.782057,-0.25004,1.8833,-0.000275587,0,0,0,0,0,0,0,-4.02722,-36.7162,-3.78783,25.9076,0.612179,0.48699,0.0843355,
0.232787,0.0339274,0.0482361,-2.00951,0.380589,0.245487,-0.0560571,0.176721,0.0327916,0.173488,-0.325355,-0.127435,0.91621,0.00959964,0.275099,2.00074,0.228378,3.4279,5.03726,-18.2239,-0.22864,12.6741,-0.181636,12.4674,-29.6151,-1.34928,9.96388,0.110092,0.236173,0.03291,0.0521294,-2.02238,0.377455,0.269792,-0.0562991,0.433635,0.0841251,0.287144,-0.765316,-0.280328,1.83994,0.000929669,-1.60811,6.30863,-5.72841,2.09257,-3.78595,-5.4199,0.150657,-2.04754,-38.7157,-1.81212,26.705,2.67578,1.82641,0.0980684,
0.234088,0.0341911,0.0495127,-2.01183,0.379913,0.25154,-0.0559915,0.173918,0.0328263,0.170704,-0.318513,-0.118861,0.884305,0.00931791,-1.75171,0.021656,-1.74004,4.27608,5.3588,-19.9404,-0.176083,12.4896,-0.177822,12.2857,-29.0386,-1.24228,9.43703,0.107274,0.236173,0.03291,0.0521294,-2.02238,0.377455,0.269792,-0.0562991,0.433635,0.0841251,0.287144,-0.765316,-0.280328,1.83994,0.000929669,0,0,0,0,0,0,0,-2.04754,-38.7157,-1.81212,26.705,2.67578,1.82641,0.0980684,
0.235292,0.0343794,0.0506936,-2.01408,0.379293,0.257305,-0.0559266,0.169231,0.0309694,0.166088,-0.310868,-0.110581,0.851561,0.00907767,-2.92952,-1.16051,-2.88487,4.77792,5.17456,-20.4652,-0.150146,12.2953,-0.173849,12.0943,-28.4606,-1.14612,8.94778,0.10431,0.236173,0.03291,0.0521294,-2.02238,0.377455,0.269792,-0.0562991,0.433635,0.0841251,0.287144,-0.765316,-0.280328,1.83994,0.000929669,0,0,0,0,0,0,0,-2.04754,-38.7157,-1.81212,26.705,2.67578,1.82641,0.0980684,
0.236419,0.0345114,0.0517989,-2.01624,0.378715,0.262813,-0.0558629,0.163545,0.0280743,0.160501,-0.302796,-0.102916,0.818947,0.00885382,-3.55342,-1.80946,-3.4916,5.04514,4.79084,-20.3833,-0.139911,12.0929,-0.169995,11.8948,-27.8819,-1.05957,8.49052,0.101202,0.236173,0.03291,0.0521294,-2.02238,0.377455,0.269792,-0.0562991,0.433635,0.0841251,0.287144,-0.765316,-0.280328,1.83994,0.000929669,0,0,0,0,0,0,0,-2.04754,-38.7157,-1.81212,26.705,2.67578,1.82641,0.0980684,
0.24484,0.0369504,0.0605634,-2.03594,0.371508,0.303298,-0.0560307,0.163199,0.032986,0.160051,-0.299055,-0.0974817,0.782426,0.00847095,-0.216725,3.06979,-0.281558,2.33835,3.3964,-22.826,-0.239291,11.9547,-0.413471,11.7416,-27.2381,-0.825952,7.88884,0.0974002,0.24749,0.0353924,0.0640493,-2.04768,0.36931,0.327508,-0.0562497,0.347331,0.0862943,0.297866,-0.663615,-0.190703,1.47549,2.02251e-05,-10.788,0.271152,1.34026,12.7127,11.2031,-45.5562,-0.11368,-1.05969,-38.6403,-1.08611,26.705,2.63366,1.85937,0.0907442,
0.246023,0.0372557,0.0617217,-2.03811,0.371,0.308076,-0.0559747,0.16015,0.0340196,0.156998,-0.293542,-0.0906808,0.745391,0.00817689,-1.90522,0.645999,-1.90833,3.44552,4.25058,-23.1466,-0.183791,11.7407,-0.409389,11.5305,-26.6576,-0.756485,7.49085,0.0940565,0.24749,0.0353924,0.0640493,-2.04768,0.36931,0.327508,-0.0562497,0.347331,0.0862943,0.297866,-0.663615,-0.190703,1.47549,2.02251e-05,0,0,0,0,0,0,0,-1.05969,-38.6403,-1.08611,26.705,2.63366,1.85937,0.0907442,
0.247122,0.0374757,0.0627969,-2.04019,0.370553,0.312611,-0.0559193,0.155581,0.0327171,0.152479,-0.286898,-0.0837208,0.70969,0.00792807,-2.85592,-0.814053,-2.82416,4.15209,4.35001,-22.3135,-0.15551,11.523,-0.405047,11.3157,-26.0761,-0.695039,7.12017,0.0906574,0.24749,0.0353924,0.0640493,-2.04768,0.36931,0.327508,-0.0562497,0.347331,0.0862943,0.297866,-0.663615,-0.190703,1.47549,2.02251e-05,0,0,0,0,0,0,0,-1.05969,-38.6403,-1.08611,26.705,2.63366,1.85937,0.0907442,
0.2554,0.0388886,0.0717482,-2.05997,0.365486,0.353368,-0.0560226,0.154419,0.0351229,0.151245,-0.281286,-0.0755527,0.665657,0.00752197,-0.726394,1.50361,-0.771335,3.50791,5.10505,-27.5202,-0.25381,11.0814,-0.396441,10.8799,-24.9113,-0.595321,6.44977,0.0838411,0.24749,0.0353924,0.0640493,-2.04768,0.36931,0.327508,-0.0562497,0.347331,0.0862943,0.297866,-0.663615,-0.190703,1.47549,2.02251e-05,0,0,0,0,0,0,0,-1.05969,-38.6403,-1.08611,26.705,2.63366,1.85937,0.0907442,
0.256498,0.0391476,0.0728218,-2.06195,0.365197,0.357065,-0.055975,0.150998,0.0345714,0.147835,-0.274417,-0.0676622,0.624961,0.00720842,-2.13789,-0.344642,-2.1311,4.29311,4.93154,-25.4352,-0.195973,10.8591,-0.392258,10.6605,-24.328,-0.556639,6.1469,0.0804867,0.24749,0.0353924,0.0640493,-2.04768,0.36931,0.327508,-0.0562497,0.347331,0.0862943,0.297866,-0.663615,-0.190703,1.47549,2.02251e-05,0,0,0,0,0,0,0,-1.05969,-38.6403,-1.08611,26.705,2.63366,1.85937,0.0907442,
0.257519,0.0393339,0.0738197,-2.06384,0.364933,0.360598,-0.0559277,0.146321,0.0323145,0.143215,-0.266793,-0.0607222,0.588287,0.00694752,-2.923,-1.4106,-2.88744,4.76481,4.33754,-22.9215,-0.163062,10.6924,-0.54189,10.478,-23.6795,-0.410676,5.74871,0.077037,0.25797,0.03786,0.074162,-2.06978,0.364068,0.372041,-0.0562404,0.199451,0.0861606,0.388118,-0.606913,-0.13986,1.21292,-0.000385893,-18.485,-0.0167119,11.2815,7.08778,6.35545,-32.8218,-0.0507648,0.463749,-39.6639,0.564283,26.4035,2.43774,1.6671,0.050461,
0.258478,0.0394664,0.0747569,-2.06565,0.364678,0.363996,-0.0558814,0.141028,0.0291661,0.138003,-0.258756,-0.0549612,0.555577,0.00671747,-3.30813,-1.96774,-3.25773,5.02321,3.6006,-20.4438,-0.143781,10.4696,-0.537961,10.2581,-23.0947,-0.386101,5.48427,0.0738736,0.25797,0.03786,0.074162,-2.06978,0.364068,0.372041,-0.0562404,0.199451,0.0861606,0.388118,-0.606913,-0.13986,1.21292,-0.000385893,0,0,0,0,0,0,0,0.463749,-39.6639,0.564283,26.4035,2.43774,1.6671,0.050461,
0.26522,0.0411055,0.0812309,-2.08108,0.361292,0.391916,-0.0560485,0.140522,0.0316676,0.137415,-0.254194,-0.0499386,0.519374,0.00638218,-0.316204,1.56343,-0.367089,2.85136,3.13914,-22.6264,-0.209558,10.247,-0.534115,10.0383,-22.5088,-0.367979,5.23772,0.0708142,0.25797,0.03786,0.074162,-2.06978,0.364068,0.372041,-0.0562404,0.199451,0.0861606,0.388118,-0.606913,-0.13986,1.21292,-0.000385893,0,0,0,0,0,0,0,0.463749,-39.6639,0.564283,26.4035,2.43774,1.6671,0.050461,
0.266237,0.0413479,0.0822228,-2.08288,0.361077,0.394773,-0.0560075,0.137838,0.0313947,0.134728,-0.248175,-0.0453111,0.48692,0.00613146,-1.67753,-0.170556,-1.67942,3.76167,2.89217,-20.2842,-0.156699,10.0247,-0.530691,9.81884,-21.922,-0.35709,5.00726,0.0679178,0.25797,0.03786,0.074162,-2.06978,0.364068,0.372041,-0.0562404,0.199451,0.0861606,0.388118,-0.606913,-0.13986,1.21292,-0.000385893,0,0,0,0,0,0,0,0.463749,-39.6639,0.564283,26.4035,2.43774,1.6671,0.050461,
0.267182,0.0415234,0.0831447,-2.08458,0.360862,0.397532,-0.0559665,0.133898,0.0295028,0.13083,-0.241232,-0.041628,0.458508,0.00593019,-2.46271,-1.18247,-2.43677,4.33935,2.30198,-17.7574,-0.12579,9.87189,-0.685393,9.65482,-21.2547,-0.244949,4.70122,0.0649301,0.269612,0.0400796,0.0808798,-2.09003,0.361076,0.40984,-0.0562443,0.314178,0.0547822,0.196561,-0.586317,-0.0565266,0.981595,-0.000208172,14.3408,-3.9223,-23.9446,2.57445,10.4167,-28.9157,0.0222151,-0.0440639,-38.8902,0.663466,26.106,1.39953,1.40893,0.0440523,
0.268069,0.0416491,0.0840099,-2.08621,0.360631,0.400214,-0.0559259,0.129298,0.0267449,0.126295,-0.233733,-0.0390677,0.433864,0.00575985,-2.87496,-1.72367,-2.83406,4.68709,1.60018,-15.4025,-0.106463,9.65032,-0.682732,9.43602,-20.6651,-0.247739,4.50132,0.0623593,0.269612,0.0400796,0.0808798,-2.09003,0.361076,0.40984,-0.0562443,0.314178,0.0547822,0.196561,-0.586317,-0.0565266,0.981595,-0.000208172,0,0,0,0,0,0,0,-0.0440639,-38.8902,0.663466,26.106,1.39953,1.40893,0.0440523,
0.276149,0.0428803,0.0872206,-2.10039,0.358896,0.424594,-0.0560611,0.128705,0.0288789,0.12564,-0.229441,-0.0373482,0.403945,0.00551228,-0.370397,1.33375,-0.409103,2.68258,1.07467,-18.699,-0.154733,9.42905,-0.680428,9.21752,-20.0739,-0.256733,4.31586,0.0599366,0.269612,0.0400796,0.0808798,-2.09003,0.361076,0.40984,-0.0562443,0.314178,0.0547822,0.196561,-0.586317,-0.0565266,0.981595,-0.000208172,0,0,0,0,0,0,0,-0.0440639,-38.8902,0.663466,26.106,1.39953,1.40893,0.0440523,
0.277079,0.0430999,0.0881258,-2.10199,0.358648,0.426806,-0.056024,0.126205,0.0285949,0.123144,-0.223645,-0.0360663,0.378463,0.00533635,-1.56291,-0.177515,-1.56055,3.62256,0.801165,-15.9266,-0.109958,9.20846,-0.6788,8.99964,-19.4809,-0.273367,4.14377,0.0577562,0.269612,0.0400796,0.0808798,-2.09003,0.361076,0.40984,-0.0562443,0.314178,0.0547822,0.196561,-0.586317,-0.0565266,0.981595,-0.000208172,0,0,0,0,0,0,0,-0.0440639,-38.8902,0.663466,26.106,1.39953,1.40893,0.0440523,
0.277944,0.0432602,0.0889679,-2.10351,0.358377,0.428982,-0.0559867,0.122588,0.0268827,0.119568,-0.216879,-0.0356349,0.357157,0.00520386,-2.26057,-1.0701,-2.23485,4.22829,0.269663,-13.3163,-0.0828082,8.99067,-0.852454,8.76679,-18.8142,-0.237363,3.92143,0.0556969,0.276326,0.0416844,0.0916088,-2.108,0.359872,0.439475,-0.056243,0.331405,0.0536219,0.164757,-0.469557,-0.00265375,0.769605,0.000902117,2.15346,-0.145037,-3.97552,14.595,6.73411,-26.4987,0.138786,-0.805783,-36.6924,-0.661608,26.3043,1.01501,1.6076,0.0303194,
0.278756,0.0433757,0.0897583,-2.10495,0.358071,0.43113,-0.0559492,0.118373,0.0243938,0.115414,-0.209515,-0.0361621,0.339434,0.00509958,-2.63439,-1.55559,-2.59612,4.60274,-0.329498,-11.0765,-0.065172,8.7718,-0.852103,8.5506,-18.2172,-0.267628,3.77448,0.053907,0.276326,0.0416844,0.0916088,-2.108,0.359872,0.439475,-0.056243,0.331405,0.0536219,0.164757,-0.469557,-0.00265375,0.769605,0.000902117,0,0,0,0,0,0,0,-0.805783,-36.6924,-0.661608,26.3043,1.01501,1.6076,0.0303194,
0.282654,0.0438502,0.0977397,-2.11684,0.358635,0.451203,-0.0560836,0.118867,0.0249724,0.115835,-0.204122,-0.0345368,0.31758,0.00491432,0.308942,0.361633,0.262856,3.37066,1.01576,-13.6587,-0.115789,8.55426,-0.852339,8.33573,-17.6179,-0.30348,3.63899,0.0522829,0.276326,0.0416844,0.0916088,-2.108,0.359872,0.439475,-0.056243,0.331405,0.0536219,0.164757,-0.469557,-0.00265375,0.769605,0.000902117,0,0,0,0,0,0,0,-0.805783,-36.6924,-0.661608,26.3043,1.01501,1.6076,0.0303194,
0.283537,0.044006,0.0985981,-2.11822,0.358363,0.453013,-0.0560489,0.117169,0.0238748,0.114128,-0.197676,-0.0344395,0.299306,0.00479925,-1.06118,-0.685991,-1.06653,4.02868,0.0608407,-11.4217,-0.071919,8.33888,-0.853446,8.123,-17.0166,-0.34594,3.51362,0.0509066,0.276326,0.0416844,0.0916088,-2.108,0.359872,0.439475,-0.056243,0.331405,0.0536219,0.164757,-0.469557,-0.00265375,0.769605,0.000902117,0,0,0,0,0,0,0,-0.805783,-36.6924,-0.661608,26.3043,1.01501,1.6076,0.0303194,
0.284352,0.0441157,0.0993909,-2.11952,0.358036,0.454806,-0.0560133,0.114133,0.0218407,0.111122,-0.190564,-0.0357228,0.284289,0.00472843,-1.89743,-1.2713,-1.87893,4.44511,-0.802032,-9.38545,-0.0442586,8.12588,-0.973359,7.89537,-16.3337,-0.348831,3.36682,0.0497403,0.285535,0.0435738,0.099221,-2.12375,0.359883,0.46163,-0.0562451,0.109373,0.0677246,0.372756,-0.375539,0.00554575,0.541199,0.000219274,-27.754,1.76284,25.9999,11.7522,1.02494,-28.5507,-0.0853554,-0.754208,-36.7162,-0.610033,24.5111,0.58746,1.70739,0.017502,
0.285113,0.0441905,0.10013,-2.12074,0.357656,0.456586,-0.0559772,0.110331,0.0193441,0.107371,-0.183052,-0.0380827,0.271924,0.00468609,-2.37633,-1.56036,-2.34448,4.69487,-1.47494,-7.72813,-0.0264633,7.91708,-0.975943,7.68921,-15.7286,-0.399741,3.25759,0.0487583,0.285535,0.0435738,0.099221,-2.12375,0.359883,0.46163,-0.0562451,0.109373,0.0677246,0.372756,-0.375539,0.00554575,0.541199,0.000219274,0,0,0,0,0,0,0,-0.754208,-36.7162,-0.610033,24.5111,0.58746,1.70739,0.017502,
0.291587,0.0455267,0.10512,-2.13142,0.358798,0.470034,-0.0560989,0.111258,0.0202562,0.108214,-0.177957,-0.037808,0.252298,0.00457606,0.579294,0.570037,0.52685,3.1847,0.171653,-12.2662,-0.0687695,7.71312,-0.979058,7.4879,-15.1219,-0.451894,3.15368,0.0479628,0.285535,0.0435738,0.099221,-2.12375,0.359883,0.46163,-0.0562451,0.109373,0.0677246,0.372756,-0.375539,0.00554575,0.541199,0.000219274,0,0,0,0,0,0,0,-0.754208,-36.7162,-0.610033,24.5111,0.58746,1.70739,0.017502,
0.292422,0.0456619,0.105929,-2.1326,0.358451,0.471421,-0.0560642,0.109874,0.0195861,0.10681,-0.171756,-0.0389088,0.236521,0.00452904,-0.864771,-0.418797,-0.87723,3.87507,-0.687983,-9.86079,-0.0293851,7.51535,-0.982881,7.29281,-14.5144,-0.504103,3.05237,0.0473816,0.285535,0.0435738,0.099221,-2.12375,0.359883,0.46163,-0.0562451,0.109373,0.0677246,0.372756,-0.375539,0.00554575,0.541199,0.000219274,0,0,0,0,0,0,0,-0.754208,-36.7162,-0.610033,24.5111,0.58746,1.70739,0.017502,
0.293188,0.0457553,0.106672,-2.13369,0.358063,0.472804,-0.0560285,0.107053,0.018002,0.104008,-0.164837,-0.0408462,0.223782,0.00451569,-1.7631,-0.990088,-1.75147,4.32459,-1.21088,-7.96153,-0.00834898,7.34901,-1.08789,7.11629,-13.8099,-0.501353,2.93285,0.0470509,0.295244,0.0449029,0.105844,-2.13784,0.359799,0.479789,-0.0562455,0.361883,0.0519637,0.105309,-0.379393,0.0021416,0.420229,0.00013202,31.5637,-1.97012,-33.4309,-0.481734,-0.425519,-15.1213,-0.0109067,-2.1745,-37.8389,-1.61376,28.4705,0.660702,2.64855,0.0101778,
0.301139,0.046822,0.111534,-2.14481,0.358142,0.484804,-0.0560898,0.107598,0.0193777,0.104466,-0.159128,-0.0408282,0.199788,0.00449041,0.340069,0.85981,0.286175,3.56814,0.0112209,-14.9967,-0.0157979,6.99538,-1.09664,6.76824,-12.5961,-0.577148,2.71808,0.0469996,0.295244,0.0449029,0.105844,-2.13784,0.359799,0.479789,-0.0562455,0.361883,0.0519637,0.105309,-0.379393,0.0021416,0.420229,0.00013202,0,0,0,0,0,0,0,-2.1745,-37.8389,-1.61376,28.4705,0.660702,2.64855,0.0101778,
0.30193,0.0469642,0.112299,-2.14581,0.357816,0.485644,-0.0560521,0.105842,0.0190573,0.10269,-0.15229,-0.0408146,0.18082,0.00453639,-1.09699,-0.200251,-1.11001,4.27364,0.00853515,-11.8547,0.0287372,6.83293,-1.10068,6.60875,-11.9921,-0.595779,2.59811,0.0473322,0.295244,0.0449029,0.105844,-2.13784,0.359799,0.479789,-0.0562455,0.361883,0.0519637,0.105309,-0.379393,0.0021416,0.420229,0.00013202,0,0,0,0,0,0,0,-2.1745,-37.8389,-1.61376,28.4705,0.660702,2.64855,0.0101778,
0.302649,0.0470626,0.112993,-2.14673,0.357507,0.486479,-0.0560159,0.102648,0.0177073,0.0995134,-0.144771,-0.0403666,0.165532,0.00453317,-1.99652,-0.843719,-1.98508,4.69939,0.279998,-9.55498,-0.0020113,6.67921,-1.104,6.45807,-11.3913,-0.596682,2.46574,0.0475293,0.295244,0.0449029,0.105844,-2.13784,0.359799,0.479789,-0.0562455,0.361883,0.0519637,0.105309,-0.379393,0.0021416,0.420229,0.00013202,0,0,0,0,0,0,0,-2.1745,-37.8389,-1.61376,28.4705,0.660702,2.64855,0.0101778,
0.303311,0.0471277,0.113632,-2.14757,0.357187,0.487307,-0.0559789,0.0986675,0.0157929,0.0955778,-0.136856,-0.0402964,0.153126,0.00455139,-2.48777,-1.1965,-2.45979,4.94716,0.0438917,-7.75393,0.0113875,6.54444,-1.27534,6.30827,-10.7371,-0.56773,2.30603,0.0484295,0.300583,0.0458934,0.115783,-2.15037,0.358725,0.492162,-0.0562455,0.169053,0.00276484,0.245859,-0.332423,-0.0486842,0.294816,0.000239423,-24.1038,-6.14986,17.5687,5.87118,-6.35323,-15.6765,0.0134253,-0.908932,-35.8672,-1.08611,25.3085,1.27777,2.44256,0.0101778,
0.305804,0.0469716,0.120838,-2.15602,0.357024,0.494772,-0.0560804,0.0985231,0.0155212,0.0953813,-0.130906,-0.0383817,0.133894,0.00463966,-0.0902413,-0.169824,-0.122773,3.71837,1.19666,-12.0201,0.0551665,6.41169,-1.27658,6.17859,-10.1454,-0.541454,2.14942,0.0506461,0.300583,0.0458934,0.115783,-2.15037,0.358725,0.492162,-0.0562455,0.169053,0.00276484,0.245859,-0.332423,-0.0486842,0.294816,0.000239423,0,0,0,0,0,0,0,-0.908932,-35.8672,-1.08611,25.3085,1.27777,2.44256,0.0101778,
0.306509,0.0470495,0.121518,-2.1568,0.356791,0.495287,-0.0560303,0.096442,0.0143634,0.0933051,-0.124297,-0.0365465,0.12,0.00496228,-1.30068,-0.723648,-1.29764,4.13101,1.14704,-8.68348,0.201642,6.26247,-1.27317,6.03333,-9.55867,-0.482543,1.97876,0.0525347,0.300583,0.0458934,0.115783,-2.15037,0.358725,0.492162,-0.0562455,0.169053,0.00276484,0.245859,-0.332423,-0.0486842,0.294816,0.000239423,0,0,0,0,0,0,0,-0.908932,-35.8672,-1.08611,25.3085,1.27777,2.44256,0.0101778,
0.307141,0.0470966,0.122127,-2.15752,0.356659,0.495849,-0.0560063,0.0929578,0.0126676,0.0898505,-0.117447,-0.0325219,0.110036,0.00457131,-2.17765,-1.05983,-2.15914,4.28137,2.51535,-6.2275,-0.244357,6.08632,-1.27026,5.8611,-8.98595,-0.401544,1.80178,0.0496565,0.300583,0.0458934,0.115783,-2.15037,0.358725,0.492162,-0.0562455,0.169053,0.00276484,0.245859,-0.332423,-0.0486842,0.294816,0.000239423,0,0,0,0,0,0,0,-0.908932,-35.8672,-1.08611,25.3085,1.27777,2.44256,0.0101778,
0.307727,0.0471235,0.122691,-2.15818,0.356343,0.496557,-0.0559833,0.0890166,0.0108069,0.0859756,-0.110364,-0.0339335,0.105726,0.0042323,-2.46325,-1.16294,-2.42181,4.42655,-0.882238,-2.69367,-0.211882,5.93524,-1.24649,5.70937,-8.40777,-0.43705,1.67893,0.0490678,0.300583,0.0458934,0.115783,-2.15037,0.358725,0.492162,-0.0562455,0.169053,0.00276484,0.245859,-0.332423,-0.0486842,0.294816,0.000239423,0,0,0,0,0,0,0,-0.908932,-35.8672,-1.08611,25.3085,1.27777,2.44256,0.0101778,
0.314244,0.0476126,0.123956,-2.16451,0.355887,0.5018,-0.0561012,0.0886925,0.0108983,0.0856204,-0.105238,-0.0360443,0.0953231,0.00413271,-0.202536,0.0571147,-0.221996,3.20356,-1.31927,-6.5019,-0.0622465,5.77218,-1.34315,5.53997,-7.79032,-0.441992,1.607,0.0564047,0.30956,0.0467317,0.119427,-2.15994,0.357413,0.500289,-0.0562477,0.138953,0.00348076,0.236171,-0.274591,-0.0484804,0.21,0.00360014,-3.76243,0.0894893,-1.21104,7.22911,0.0254715,-10.6021,0.420089,-1.3136,-35.4427,-0.538622,26.1813,1.57074,2.58263,0.0303194,
0.314865,0.0476675,0.124553,-2.16512,0.355569,0.502275,-0.0560701,0.0864807,0.0100903,0.0834178,-0.0993898,-0.0367789,0.0881143,0.00408426,-1.38239,-0.505027,-1.3766,3.65536,-0.459147,-4.50554,-0.0302764,5.50556,-1.33036,5.28066,-7.25346,-0.382974,1.57257,0.0681167,0.30956,0.0467317,0.119427,-2.15994,0.357413,0.500289,-0.0562477,0.138953,0.00348076,0.236171,-0.274591,-0.0484804,0.21,0.00360014,0,0,0,0,0,0,0,-1.3136,-35.4427,-0.538622,26.1813,1.57074,2.58263,0.0303194,
0.31542,0.0476947,0.125085,-2.16566,0.355285,0.50276,-0.0560504,0.0830719,0.00875106,0.0800459,-0.0930508,-0.0365419,0.0826369,0.00376063,-2.1305,-0.83701,-2.10744,3.96189,0.14815,-3.42335,-0.20227,5.01742,-1.37843,4.80639,-6.73474,-0.10323,1.50004,0.0358631,0.30956,0.0467317,0.119427,-2.15994,0.357413,0.500289,-0.0562477,0.138953,0.00348076,0.236171,-0.274591,-0.0484804,0.21,0.00360014,0,0,0,0,0,0,0,-1.3136,-35.4427,-0.538622,26.1813,1.57074,2.58263,0.0303194,
0.315932,0.0477019,0.125575,-2.16613,0.354785,0.503288,-0.0560299,0.079256,0.00718185,0.0762937,-0.0862242,-0.0417123,0.0793058,0.00352165,-2.38497,-0.980759,-2.34513,4.26658,-3.23149,-2.08193,-0.149366,4.8664,-1.31959,4.63125,-6.12147,-0.753469,1.85416,0.0263569,0.30956,0.0467317,0.119427,-2.15994,0.357413,0.500289,-0.0562477,0.138953,0.00348076,0.236171,-0.274591,-0.0484804,0.21,0.00360014,0,0,0,0,0,0,0,-1.3136,-35.4427,-0.538622,26.1813,1.57074,2.58263,0.0303194,
0.317975,0.0489704,0.13105,-2.17153,0.35257,0.509677,-0.056478,0.0772308,0.00309106,0.0742632,-0.0763492,-0.0504993,0.0826049,0.00336643,-1.26572,-2.55674,-1.26906,6.1719,-5.49186,2.06191,-0.0970133,4.78188,-1.48179,4.53742,-5.62242,-0.941612,1.81975,0.0385037,0.31412,0.0484046,0.127373,-2.1686,0.355787,0.506174,-0.0562463,0.291742,0.0486569,0.0139545,-0.199331,-0.0310404,0.11955,0.0012749,19.0986,5.64701,-27.777,9.4075,2.18001,-11.3063,-0.290655,-1.46435,-37.4422,-1.41142,27.7762,1.3446,2.95342,0.017502,
0.318455,0.0487985,0.131506,-2.17175,0.351913,0.510361,-0.0564288,0.0737718,-0.00182563,0.0708244,-0.0666378,-0.0568283,0.0831928,0.00392345,-2.16187,-3.07293,-2.14929,6.06965,-3.95565,0.367425,0.348139,4.51951,-1.49589,4.2925,-5.20682,-0.676839,1.58287,0.0420978,0.31412,0.0484046,0.127373,-2.1686,0.355787,0.506174,-0.0562463,0.291742,0.0486569,0.0139545,-0.199331,-0.0310404,0.11955,0.0012749,0,0,0,0,0,0,0,-1.46435,-37.4422,-1.41142,27.7762,1.3446,2.95342,0.017502,
0.318869,0.0485708,0.131898,-2.17192,0.351286,0.510807,-0.056425,0.0693675,-0.0071512,0.0664567,-0.0574331,-0.0611219,0.0777037,0.00323326,-2.75269,-3.32848,-2.72981,5.75289,-2.68353,-3.43064,-0.431367,4.26826,-1.4767,4.04429,-4.75499,-0.615608,1.41961,0.0261981,0.31412,0.0484046,0.127373,-2.1686,0.355787,0.506174,-0.0562463,0.291742,0.0486569,0.0139545,-0.199331,-0.0310404,0.11955,0.0012749,0,0,0,0,0,0,0,-1.46435,-37.4422,-1.41142,27.7762,1.3446,2.95342,0.017502,
0.319244,0.048309,0.132253,-2.17205,0.350677,0.511215,-0.0563996,0.0648685,-0.0122668,0.062041,-0.0491327,-0.0641252,0.0723428,0.0032222,-2.81187,-3.19722,-2.75981,5.18777,-1.87701,-3.35056,-0.00691231,4.15136,-1.39982,3.90622,-4.2255,-1.24136,1.47564,0.0197518,0.31412,0.0484046,0.127373,-2.1686,0.355787,0.506174,-0.0562463,0.291742,0.0486569,0.0139545,-0.199331,-0.0310404,0.11955,0.0012749,0,0,0,0,0,0,0,-1.46435,-37.4422,-1.41142,27.7762,1.3446,2.95342,0.017502,
0.317951,0.049137,0.131028,-2.17094,0.352216,0.510056,-0.0552927,0.0654627,-0.0111797,0.0625749,-0.0442951,-0.068253,0.0874337,0.0146366,0.371381,0.679397,0.333715,3.02352,-2.57987,9.43181,7.13398,4.22757,-1.43199,3.97821,-3.81422,-1.50028,1.50685,0.257048,0.319149,0.0494773,0.132603,-2.17475,0.353784,0.510236,-0.056246,-0.00127706,0.029261,0.286243,-0.152394,-0.0962972,0.122867,0.000819932,-36.6273,-2.42449,34.0361,5.86706,-8.1571,0.414636,-0.0568709,-0.781979,-37.6643,-0.510851,26.3797,1.27777,2.77489,0.0101778,
0.318415,0.049031,0.131468,-2.17107,0.351645,0.511288,-0.0546377,0.0639849,-0.011594,0.0610595,-0.0387153,-0.0688749,0.100752,0.0280855,-0.923657,-0.258915,-0.947162,3.48736,-0.388743,8.32377,8.4056,4.03129,-1.42325,3.79797,-3.41978,-1.14239,1.30716,0.333172,0.319149,0.0494773,0.132603,-2.17475,0.353784,0.510236,-0.056246,-0.00127706,0.029261,0.286243,-0.152394,-0.0962972,0.122867,0.000819932,0,0,0,0,0,0,0,-0.781979,-37.6643,-0.510851,26.3797,1.27777,2.77489,0.0101778,
0.318809,0.0488846,0.131838,-2.17114,0.351178,0.512378,-0.0538894,0.0610196,-0.0129346,0.0580953,-0.0328013,-0.0667847,0.107861,0.0411763,-1.85331,-0.837905,-1.85259,3.69628,1.30642,4.44357,8.18171,3.86078,-1.41991,3.62995,-3.01938,-0.9626,1.24135,0.259694,0.319149,0.0494773,0.132603,-2.17475,0.353784,0.510236,-0.056246,-0.00127706,0.029261,0.286243,-0.152394,-0.0962972,0.122867,0.000819932,0,0,0,0,0,0,0,-0.781979,-37.6643,-0.510851,26.3797,1.27777,2.77489,0.0101778,
0.319159,0.0487102,0.132167,-2.17115,0.350732,0.513545,-0.0529109,0.0575848,-0.0147088,0.0547173,-0.0264675,-0.0645599,0.115461,0.0574032,-2.14671,-1.10885,-2.11127,3.95857,1.39049,4.74994,10.1418,3.76665,-1.38742,3.51892,-2.58779,-1.21553,1.45899,0.430434,0.319149,0.0494773,0.132603,-2.17475,0.353784,0.510236,-0.056246,-0.00127706,0.029261,0.286243,-0.152394,-0.0962972,0.122867,0.000819932,0,0,0,0,0,0,0,-0.781979,-37.6643,-0.510851,26.3797,1.27777,2.77489,0.0101778,
0.323318,0.0482136,0.136714,-2.17481,0.347556,0.515605,-0.0504591,0.0598989,-0.0212722,0.0574206,-0.0155225,-0.0820275,0.125762,0.0827412,1.44628,-4.10209,1.68952,6.84068,-10.9172,6.43769,15.8362,4.14941,-1.31543,3.94122,-2.05367,-2.37762,2.32943,2.97584,0.325129,0.0497294,0.135458,-2.17924,0.350838,0.51331,-0.0561386,0.205617,-0.00679971,0.021837,-0.117897,-0.0719511,0.0919687,0.0197982,25.8617,-4.50758,-33.0507,4.31217,3.04327,-3.86228,2.37229,-1.5675,-35.645,-0.836168,25.9552,0.911556,2.95342,0.151169,
0.32384,0.0478187,0.137223,-2.17451,0.346317,0.517511,-0.048334,0.0609702,-0.0268904,0.0586672,-0.00483895,-0.0966042,0.148246,0.119322,0.669581,-3.51138,0.779126,6.67719,-9.11043,14.0529,22.8628,4.06854,-1.23259,3.88651,-1.86491,-2.31718,2.49405,0.69799,0.325129,0.0497294,0.135458,-2.17924,0.350838,0.51331,-0.0561386,0.205617,-0.00679971,0.021837,-0.117897,-0.0719511,0.0919687,0.0197982,0,0,0,0,0,0,0,-1.5675,-35.645,-0.836168,25.9552,0.911556,2.95342,0.151169,
0.324297,0.047401,0.137666,-2.17413,0.345153,0.519852,-0.0454599,0.0601955,-0.0319557,0.0580154,0.00571057,-0.106389,0.177133,0.167309,-0.484229,-3.16584,-0.407319,6.59345,-6.11563,18.0541,29.9919,4.01755,-1.09284,3.81987,-1.49556,-2.77044,2.36586,0.511641,0.325129,0.0497294,0.135458,-2.17924,0.350838,0.51331,-0.0561386,0.205617,-0.00679971,0.021837,-0.117897,-0.0719511,0.0919687,0.0197982,0,0,0,0,0,0,0,-1.5675,-35.645,-0.836168,25.9552,0.911556,2.95342,0.151169,
0.32871,0.0455361,0.13909,-2.17258,0.338217,0.529246,-0.0230518,0.0608108,-0.0615794,0.0597668,0.0418223,-0.167355,-0.0058216,0.226503,0.384582,-18.5148,1.09458,22.5698,-38.1035,-114.347,36.9967,3.25454,0.714471,3.10346,1.70787,-5.38181,1.32718,9.61113,0.325129,0.0497294,0.135458,-2.17924,0.350838,0.51331,-0.0561386,0.205617,-0.00679971,0.021837,-0.117897,-0.0719511,0.0919687,0.0197982,0,0,0,0,0,0,0,-1.5675,-35.645,-0.836168,25.9552,0.911556,2.95342,0.151169,
0.329251,0.0439767,0.139668,-2.17144,0.334596,0.52104,-0.0212222,0.062182,-0.088248,0.0622546,0.0620435,-0.224414,-0.209818,0.226941,0.85703,-16.6679,1.55492,12.6383,-35.662,-127.498,0.273792,3.41642,1.43046,3.1833,2.66581,-7.43401,1.35002,11.997,0.326715,0.0502688,0.14164,-2.18184,0.346738,0.517934,-0.0508715,0.119442,0.0309109,0.0970377,-0.0522978,-0.213135,0.201828,0.336915,-10.7718,4.71382,9.4001,8.19985,-17.648,13.7325,39.6396,-2.6585,-37.7675,-2.7365,28.6728,0.911556,3.76275,0.319626,
0.330023,0.0427097,0.140467,-2.17059,0.329569,0.518585,-0.0154932,0.06904,-0.102273,0.0697693,0.0709368,-0.305199,-0.22922,0.324779,4.28624,-8.76583,4.69667,5.55834,-50.4905,-12.1264,61.1485,4.16118,1.64875,3.99755,3.202,-9.40382,2.30717,10.7126,0.326715,0.0502688,0.14164,-2.18184,0.346738,0.517934,-0.0508715,0.119442,0.0309109,0.0970377,-0.0522978,-0.213135,0.201828,0.336915,0,0,0,0,0,0,0,-2.6585,-37.7675,-2.7365,28.6728,0.911556,3.76275,0.319626,
0.330804,0.0418631,0.141247,-2.16994,0.323612,0.517742,-0.00818279,0.0747627,-0.102984,0.0753211,0.0730873,-0.393093,-0.204447,0.442584,3.57666,-0.444171,3.4699,1.34403,-54.9341,15.4828,73.6279,5.0779,1.8505,5.02242,3.46653,-9.67316,2.76704,8.01706,0.326715,0.0502688,0.14164,-2.18184,0.346738,0.517934,-0.0508715,0.119442,0.0309109,0.0970377,-0.0522978,-0.213135,0.201828,0.336915,0,0,0,0,0,0,0,-2.6585,-37.7675,-2.7365,28.6728,0.911556,3.76275,0.319626,
0.332094,0.0493945,0.147072,-2.17437,0.327721,0.54326,-0.00710526,0.0838705,-0.0958147,0.0847164,0.0918726,-0.423231,-0.127661,0.569338,5.69241,4.48082,5.87202,11.7408,-18.8362,47.9915,79.2214,8.01887,10.1216,7.47872,8.65895,-13.3915,4.33533,11.997,0.326715,0.0502688,0.14164,-2.18184,0.346738,0.517934,-0.0508715,0.119442,0.0309109,0.0970377,-0.0522978,-0.213135,0.201828,0.336915,0,0,0,0,0,0,0,-2.6585,-37.7675,-2.7365,28.6728,0.911556,3.76275,0.319626,
0.333047,0.0487006,0.148045,-2.17324,0.323321,0.542939,0.000763753,0.0909114,-0.0939989,0.0920963,0.10181,-0.448572,-0.110151,0.652196,4.40052,1.13487,4.61248,6.21068,-15.8377,10.9438,51.7861,7.49032,9.69311,7.01229,7.69958,-13.51,4.35336,10.8027,0.331206,0.050188,0.144409,-2.18122,0.330081,0.519826,-0.0326961,0.00169044,-0.0291575,0.217789,0.0728309,-0.898148,-0.0497266,1.37212,-14.7189,-7.50854,15.0939,15.6411,-85.6267,-31.4444,129.401,-0.198788,-38.315,0.211195,27.5739,0.208431,2.54235,0.527451,
0.334054,0.0479644,0.149081,-2.17233,0.318765,0.543165,0.0087805,0.0979155,-0.0936051,0.0995728,0.104173,-0.47277,-0.082487,0.722175,4.37756,0.246112,4.67277,1.47724,-15.1238,17.29,43.7372,6.25575,7.31379,5.70636,5.98575,-13.51,4.37464,11.996,0.331206,0.050188,0.144409,-2.18122,0.330081,0.519826,-0.0326961,0.00169044,-0.0291575,0.217789,0.0728309,-0.898148,-0.0497266,1.37212,0,0,0,0,0,0,0,-0.198788,-38.315,0.211195,27.5739,0.208431,2.54235,0.527451,
0.335083,0.0471843,0.150141,-2.17151,0.31409,0.542853,0.0164501,0.104037,-0.0943846,0.106176,0.103844,-0.495089,-0.0737736,0.769479,3.82593,-0.487195,4.12677,-0.205564,-13.9498,5.44587,29.565,4.43154,6.22344,4.22388,5.73609,-13.51,5.92777,11.996,0.331206,0.050188,0.144409,-2.18122,0.330081,0.519826,-0.0326961,0.00169044,-0.0291575,0.217789,0.0728309,-0.898148,-0.0497266,1.37212,0,0,0,0,0,0,0,-0.198788,-38.315,0.211195,27.5739,0.208431,2.54235,0.527451,
0.335435,0.0488466,0.148586,-2.17651,0.305308,0.516058,0.0186932,0.105521,-0.084441,0.10701,0.105912,-0.501457,-0.0680997,0.869724,0.927456,6.21477,0.521218,1.29242,-3.97958,3.54617,62.6532,2.29233,6.10681,1.77165,8.54874,-13.1358,4.61147,11.996,0.331206,0.050188,0.144409,-2.18122,0.330081,0.519826,-0.0326961,0.00169044,-0.0291575,0.217789,0.0728309,-0.898148,-0.0497266,1.37212,0,0,0,0,0,0,0,-0.198788,-38.315,0.211195,27.5739,0.208431,2.54235,0.527451,
0.336342,0.0484835,0.149485,-2.17563,0.301286,0.515902,0.0288391,0.107095,-0.0766317,0.10807,0.106671,-0.501719,-0.0583963,0.949427,0.983944,4.88082,0.662875,0.474462,-0.163651,6.06463,49.8142,3.13901,5.37217,2.5307,8.78192,-12.7335,3.86302,11.9963,0.335459,0.0512909,0.149112,-2.1765,0.295199,0.523757,0.0309148,0.157211,0.014624,0.135772,0.146236,-1.06047,0.244625,1.4665,19.44,5.47269,-10.2521,9.1756,-20.2906,36.794,11.7968,3.78437,-35.0459,4.01185,25.3323,0.397946,3.35808,0.14476,
0.337263,0.0481134,0.150406,-2.17478,0.297354,0.515948,0.0389774,0.108691,-0.0705569,0.109499,0.106724,-0.499674,-0.0455636,1.013,0.997474,3.79675,0.892945,0.0328621,1.27785,8.02045,39.7324,3.78999,3.78114,3.16299,8.04588,-12.4922,3.8918,11.9963,0.335459,0.0512909,0.149112,-2.1765,0.295199,0.523757,0.0309148,0.157211,0.014624,0.135772,0.146236,-1.06047,0.244625,1.4665,0,0,0,0,0,0,0,3.78437,-35.0459,4.01185,25.3323,0.397946,3.35808,0.14476,
0.338226,0.0476868,0.151384,-2.17398,0.293282,0.516449,0.0492361,0.111021,-0.0671096,0.11204,0.105339,-0.501528,-0.0239072,1.06687,1.45602,2.15454,1.58821,-0.865828,-1.15843,13.5353,33.6668,4.05259,3.44603,3.47713,7.57068,-12.2302,3.91891,11.9963,0.335459,0.0512909,0.149112,-2.1765,0.295199,0.523757,0.0309148,0.157211,0.014624,0.135772,0.146236,-1.06047,0.244625,1.4665,0,0,0,0,0,0,0,3.78437,-35.0459,4.01185,25.3323,0.397946,3.35808,0.14476,
0.339052,0.0489406,0.152565,-2.17165,0.268666,0.521341,0.0839559,0.105893,-0.0676584,0.106346,0.102116,-0.502515,-0.0348085,1.11014,-3.20503,-0.343004,-3.55876,-2.01423,-0.617163,-6.81336,27.047,1.24578,2.28663,0.71887,8.90939,-12.2717,3.63703,11.9963,0.335459,0.0512909,0.149112,-2.1765,0.295199,0.523757,0.0309148,0.157211,0.014624,0.135772,0.146236,-1.06047,0.244625,1.4665,0,0,0,0,0,0,0,3.78437,-35.0459,4.01185,25.3323,0.397946,3.35808,0.14476,
0.339851,0.0484527,0.153355,-2.17092,0.264723,0.520899,0.0940964,0.104682,-0.0663245,0.104841,0.0998604,-0.50059,-0.0388979,1.14163,-0.756744,0.833705,-0.940898,-1.40962,1.20288,-2.55587,19.6777,1.42965,2.85971,0.946532,8.3263,-10.962,3.87786,11.9963,0.335459,0.0512909,0.149112,-2.1765,0.295199,0.523757,0.0309148,0.157211,0.014624,0.135772,0.146236,-1.06047,0.244625,1.4665,0,0,0,0,0,0,0,3.78437,-35.0459,4.01185,25.3323,0.397946,3.35808,0.14476,
0.340787,0.0480015,0.154306,-2.17014,0.260661,0.520625,0.10412,0.10715,-0.0643383,0.107653,0.0994546,-0.50202,-0.0379737,1.16389,1.54236,1.2414,1.75765,-0.253665,-0.893782,0.577681,13.9172,1.77785,3.31186,1.25314,7.95608,-9.82455,4.05783,11.9959,0.340413,0.0514718,0.15396,-2.17082,0.260502,0.530316,0.0926314,0.194698,0.000517056,0.0913587,0.205034,-0.959745,0.138862,2.08496,4.68585,-1.76337,-5.55162,7.34982,12.5911,-13.2204,77.3083,-0.984311,-36.5694,-0.288683,26.2805,1.03973,2.66137,0.312302,
0.341832,0.047502,0.155362,-2.1694,0.256482,0.520471,0.114045,0.111838,-0.063958,0.112515,0.0980608,-0.506091,-0.0342327,1.17923,2.93004,0.237687,3.03919,-0.871102,-2.54419,2.3381,9.58285,2.41017,3.39044,1.80603,6.56499,-10.2625,5.50482,11.9959,0.340413,0.0514718,0.15396,-2.17082,0.260502,0.530316,0.0926314,0.194698,0.000517056,0.0913587,0.205034,-0.959745,0.138862,2.08496,0,0,0,0,0,0,0,-0.984311,-36.5694,-0.288683,26.2805,1.03973,2.66137,0.312302,
0.34291,0.0445929,0.156248,-2.16295,0.232424,0.511456,0.155533,0.104765,-0.0787473,0.104545,0.101994,-0.53677,-0.105445,1.2087,-4.4206,-9.24333,-4.98174,2.45856,-19.1741,-44.508,18.4242,1.34514,5.43556,0.781722,8.82423,-8.64081,5.96993,11.9959,0.340413,0.0514718,0.15396,-2.17082,0.260502,0.530316,0.0926314,0.194698,0.000517056,0.0913587,0.205034,-0.959745,0.138862,2.08496,0,0,0,0,0,0,0,-0.984311,-36.5694,-0.288683,26.2805,1.03973,2.66137,0.312302,
0.343571,0.0439784,0.156865,-2.16257,0.226853,0.512553,0.165178,0.100327,-0.0783604,0.0990636,0.091164,-0.568695,-0.0569248,1.20808,-2.77383,0.241822,-3.42567,-6.76905,-19.9533,30.3254,-0.388586,2.29052,5.31476,1.47132,9.44981,-11.2375,5.32631,11.9959,0.340413,0.0514718,0.15396,-2.17082,0.260502,0.530316,0.0926314,0.194698,0.000517056,0.0913587,0.205034,-0.959745,0.138862,2.08496,0,0,0,0,0,0,0,-0.984311,-36.5694,-0.288683,26.2805,1.03973,2.66137,0.312302,
0.344229,0.0437584,0.157506,-2.16217,0.220277,0.515694,0.174801,0.0967192,-0.0681883,0.0952568,0.0829802,-0.619352,0.0329836,1.20703,-2.25469,6.35755,-2.3793,-5.1149,-31.6606,56.1927,-0.656666,4.27184,5.08613,3.35181,10.3798,-12.8027,4.66643,11.9966,0.345489,0.051397,0.158896,-2.16487,0.228087,0.537034,0.161259,0.19572,-0.00823726,0.0724993,0.145283,-0.860444,0.257667,2.07411,0.127827,-1.09429,-2.35743,-7.4689,12.4126,14.8506,-1.35718,-2.91241,-34.5461,-2.36357,24.3365,1.08184,3.02025,0.440476,
0.344851,0.0437755,0.15811,-2.1618,0.213498,0.520285,0.184403,0.0929181,-0.054123,0.0913211,0.0756935,-0.664952,0.141157,1.20569,-2.37568,8.7908,-2.45976,-4.55416,-28.5,67.6082,-0.838016,4.98301,4.01651,4.12951,8.65092,-12.4035,4.60325,11.9966,0.345489,0.051397,0.158896,-2.16487,0.228087,0.537034,0.161259,0.19572,-0.00823726,0.0724993,0.145283,-0.860444,0.257667,2.07411,0,0,0,0,0,0,0,-2.91241,-34.5461,-2.36357,24.3365,1.08184,3.02025,0.440476,
0.348197,0.0457417,0.161561,-2.15983,0.196817,0.533184,0.22049,0.0874004,-0.0589396,0.086196,0.0673067,-0.700874,0.200244,1.17108,-3.44856,-3.01038,-3.20322,-5.24175,-22.4511,36.9296,-21.6322,5.24264,6.31746,4.68844,8.62853,-12.8507,7.59819,11.9966,0.345489,0.051397,0.158896,-2.16487,0.228087,0.537034,0.161259,0.19572,-0.00823726,0.0724993,0.145283,-0.860444,0.257667,2.07411,0,0,0,0,0,0,0,-2.91241,-34.5461,-2.36357,24.3365,1.08184,3.02025,0.440476,
0.34879,0.0453215,0.162154,-2.15964,0.188645,0.538389,0.227,0.0847367,-0.057655,0.0837883,0.0583811,-0.764989,0.290322,1.09962,-1.66482,0.80289,-1.50479,-5.57851,-40.072,56.2986,-44.6601,3.26906,5.60504,2.97988,7.52826,-9.06562,10.3614,11.9966,0.345489,0.051397,0.158896,-2.16487,0.228087,0.537034,0.161259,0.19572,-0.00823726,0.0724993,0.145283,-0.860444,0.257667,2.07411,0,0,0,0,0,0,0,-2.91241,-34.5461,-2.36357,24.3365,1.08184,3.02025,0.440476,
0.349411,0.0450252,0.162772,-2.15948,0.179469,0.544612,0.228508,0.0833075,-0.0535313,0.0824821,0.0507985,-0.841399,0.387814,0.917383,-0.893239,2.57734,-0.816407,-4.73914,-47.7566,60.9325,-113.9,2.87444,3.16281,2.67393,7.71929,-10.7232,10.1874,11.9919,0.348976,0.0515452,0.163135,-2.15937,0.191337,0.5456,0.230885,0.181048,0.00482242,0.0693588,0.173599,-1.21496,0.331453,2.05871,-1.83402,1.63246,-0.392562,3.53948,-44.3147,9.2233,-1.92472,-0.119442,-33.5741,0.163588,23.9636,0.221249,3.43773,0.29216,
0.35081,0.0459941,0.164875,-2.15623,0.140242,0.560947,0.252125,0.0752353,-0.056046,0.0745184,0.0457751,-0.885657,0.46162,0.675227,-5.04511,-1.5717,-4.9773,-3.1396,-27.6609,46.1286,-151.347,4.83936,2.27828,4.72296,5.01124,-9.05791,10.1874,10.2242,0.348976,0.0515452,0.163135,-2.15937,0.191337,0.5456,0.230885,0.181048,0.00482242,0.0693588,0.173599,-1.21496,0.331453,2.05871,0,0,0,0,0,0,0,-0.119442,-33.5741,0.163588,23.9636,0.221249,3.43773,0.29216,
0.351145,0.0456227,0.16521,-2.15595,0.132986,0.566683,0.24946,0.068581,-0.0541222,0.0679854,0.0435521,-0.889928,0.512693,0.47357,-4.15894,1.20236,-4.08311,-1.38938,-2.66925,31.9209,-126.036,5.65593,-1.67834,5.44925,4.02552,-12.5471,10.1874,8.0058,0.348976,0.0515452,0.163135,-2.15937,0.191337,0.5456,0.230885,0.181048,0.00482242,0.0693588,0.173599,-1.21496,0.331453,2.05871,0,0,0,0,0,0,0,-0.119442,-33.5741,0.163588,23.9636,0.221249,3.43773,0.29216,
0.351476,0.0453439,0.16554,-2.15561,0.126828,0.571813,0.247611,0.0631369,-0.0502673,0.0626453,0.0432994,-0.865879,0.538389,0.332618,-3.40257,2.4093,-3.33757,-0.157961,15.0302,16.0601,-88.0951,6.10322,-2.02068,5.93402,3.76587,-13.1944,10.1874,1.60533,0.348976,0.0515452,0.163135,-2.15937,0.191337,0.5456,0.230885,0.181048,0.00482242,0.0693588,0.173599,-1.21496,0.331453,2.05871,0,0,0,0,0,0,0,-0.119442,-33.5741,0.163588,23.9636,0.221249,3.43773,0.29216,
0.351828,0.0451196,0.165891,-2.15525,0.12124,0.576401,0.245744,0.0593,-0.0458224,0.0588824,0.0436713,-0.832414,0.545424,0.219434,-2.39806,2.7781,-2.35182,0.232459,20.9156,4.39688,-70.7397,5.84007,-1.01606,5.77178,2.04369,-11.0365,9.91358,-1.23162,0.353745,0.0519063,0.167394,-2.15689,0.143356,0.577461,0.294482,0.150097,0.00447914,0.0966901,0.0334798,-1.54781,1.04186,0.985339,-3.86882,-0.0429107,3.41641,-17.5149,-41.6058,88.8011,-134.171,1.27307,-37.0415,1.68703,28.3713,-0.0534094,4.50524,0.251877,
0.356624,0.0514472,0.170186,-2.15542,0.109504,0.606226,0.283304,0.0594962,-0.0395696,0.0589681,0.04392,-0.794845,0.540644,0.107861,0.122638,3.90796,0.0535573,0.155414,23.4806,-2.98744,-69.7336,6.07402,-0.537627,6.0966,1.65343,-8.33533,7.58999,-2.95913,0.353745,0.0519063,0.167394,-2.15689,0.143356,0.577461,0.294482,0.150097,0.00447914,0.0966901,0.0334798,-1.54781,1.04186,0.985339,0,0,0,0,0,0,0,1.27307,-37.0415,1.68703,28.3713,-0.0534094,4.50524,0.251877,
0.357089,0.051332,0.170645,-2.15506,0.104904,0.609778,0.280499,0.0592285,-0.0345379,0.0586318,0.0441325,-0.750884,0.521315,0.0161577,-0.167323,3.14482,-0.210174,0.132869,27.4757,-12.0809,-57.3143,6.02846,-0.157627,6.03695,1.40984,-7.31542,5.93867,-3.31009,0.353745,0.0519063,0.167394,-2.15689,0.143356,0.577461,0.294482,0.150097,0.00447914,0.0966901,0.0334798,-1.54781,1.04186,0.985339,0,0,0,0,0,0,0,1.27307,-37.0415,1.68703,28.3713,-0.0534094,4.50524,0.251877,
0.35754,0.0512215,0.171089,-2.1547,0.100866,0.612753,0.277971,0.05865,-0.030393,0.0580132,0.0441814,-0.701661,0.491421,-0.0502683,-0.361569,2.59056,-0.38666,0.0305625,30.7647,-18.6834,-41.5162,5.96862,0.276216,5.96422,1.30201,-6.1773,4.47498,-2.23824,0.353745,0.0519063,0.167394,-2.15689,0.143356,0.577461,0.294482,0.150097,0.00447914,0.0966901,0.0334798,-1.54781,1.04186,0.985339,0,0,0,0,0,0,0,1.27307,-37.0415,1.68703,28.3713,-0.0534094,4.50524,0.251877,
0.35798,0.051117,0.171523,-2.15436,0.0973467,0.615196,0.275881,0.0579144,-0.0269269,0.0572546,0.0439802,-0.649306,0.454215,-0.0924669,-0.45975,2.16634,-0.474117,-0.125801,32.7214,-23.2543,-26.3742,6.22692,0.487953,6.1583,1.2535,-6.28601,3.8838,-2.31601,0.353745,0.0519063,0.167394,-2.15689,0.143356,0.577461,0.294482,0.150097,0.00447914,0.0966901,0.0334798,-1.54781,1.04186,0.985339,0,0,0,0,0,0,0,1.27307,-37.0415,1.68703,28.3713,-0.0534094,4.50524,0.251877,
0.3564,0.0514188,0.169932,-2.15494,0.115934,0.598168,0.282904,0.0568985,-0.024626,0.0561657,0.0448277,-0.603115,0.423953,-0.115425,-0.634955,1.43807,-0.680536,0.529705,28.8697,-18.9133,-14.3487,6.33294,0.65945,6.24052,1.20231,-6.25201,3.31476,-3.40942,0.353745,0.0519063,0.167394,-2.15689,0.143356,0.577461,0.294482,0.150097,0.00447914,0.0966901,0.0334798,-1.54781,1.04186,0.985339,0,0,0,0,0,0,0,1.27307,-37.0415,1.68703,28.3713,-0.0534094,4.50524,0.251877,
0.356813,0.0512981,0.170338,-2.15458,0.113082,0.600064,0.281667,0.055835,-0.0227176,0.0550797,0.0448296,-0.553774,0.386571,-0.123259,-0.664677,1.19273,-0.678752,0.00117045,30.8382,-23.3642,-4.89652,6.0799,0.90035,6.01183,1.20765,-5.3411,2.57618,-3.48953,0.353745,0.0519063,0.167394,-2.15689,0.143356,0.577461,0.294482,0.150097,0.00447914,0.0966901,0.0334798,-1.54781,1.04186,0.985339,0,0,0,0,0,0,0,1.27307,-37.0415,1.68703,28.3713,-0.0534094,4.50524,0.251877,
0.35722,0.0511826,0.17074,-2.15425,0.110612,0.601515,0.280644,0.0548529,-0.0210626,0.0540997,0.0441478,-0.504775,0.345521,-0.124184,-0.613825,1.03437,-0.612517,-0.426124,30.6244,-25.6562,-0.578193,5.91128,1.05014,5.84633,1.1745,-4.64635,1.94706,-3.12412,0.353745,0.0519063,0.167394,-2.15689,0.143356,0.577461,0.294482,0.150097,0.00447914,0.0966901,0.0334798,-1.54781,1.04186,0.985339,0,0,0,0,0,0,0,1.27307,-37.0415,1.68703,28.3713,-0.0534094,4.50524,0.251877,
0.361068,0.0508646,0.174402,-2.15407,0.0834895,0.628197,0.286518,0.054852,-0.0210826,0.0540645,0.0444433,-0.44598,0.308844,-0.083153,-0.000573457,-0.0125314,-0.0220145,0.184715,36.747,-22.9232,25.6446,5.80984,0.948579,5.74687,1.3034,-3.33818,0.835407,-2.02437,0.358323,0.0516059,0.171745,-2.15629,0.0994944,0.614538,0.290695,0.116308,-0.00405405,0.118539,0.0365779,-1.03429,0.877143,-0.432936,-4.22369,-1.06665,2.73108,0.387257,64.1899,-20.5899,-177.284,0.614505,-36.5416,1.41328,24.7849,1.44897,3.16582,-0.110672,
0.361498,0.0507021,0.174826,-2.15378,0.0820951,0.629304,0.287202,0.0546398,-0.0209299,0.0538465,0.0428557,-0.391645,0.274769,-0.0494207,-0.132615,0.0954903,-0.136194,-0.992271,33.959,-21.297,21.0826,5.66567,0.915206,5.59464,1.23274,-3.003,0.515952,-1.50564,0.358323,0.0516059,0.171745,-2.15629,0.0994944,0.614538,0.290695,0.116308,-0.00405405,0.118539,0.0365779,-1.03429,0.877143,-0.432936,0,0,0,0,0,0,0,0.614505,-36.5416,1.41328,24.7849,1.44897,3.16582,-0.110672,
0.361927,0.0505497,0.175249,-2.15355,0.0808785,0.630336,0.285775,0.0544334,-0.0205535,0.0536496,0.0400486,-0.34373,0.245615,-0.0751979,-0.129012,0.235229,-0.12309,-1.75442,29.9469,-18.2211,-16.1108,5.49643,0.853903,5.42334,1.15518,-2.70266,0.187551,-1.25253,0.358323,0.0516059,0.171745,-2.15629,0.0994944,0.614538,0.290695,0.116308,-0.00405405,0.118539,0.0365779,-1.03429,0.877143,-0.432936,0,0,0,0,0,0,0,0.614505,-36.5416,1.41328,24.7849,1.44897,3.16582,-0.110672,
0.362344,0.0504132,0.17566,-2.15335,0.0798741,0.631264,0.283523,0.0539614,-0.0198555,0.0531934,0.0369312,-0.300094,0.219683,-0.116461,-0.294982,0.436255,-0.28513,-1.94839,27.2727,-16.2073,-25.7894,5.18954,0.78666,5.12367,1.11752,-2.23802,0.0914892,-0.877999,0.358323,0.0516059,0.171745,-2.15629,0.0994944,0.614538,0.290695,0.116308,-0.00405405,0.118539,0.0365779,-1.03429,0.877143,-0.432936,0,0,0,0,0,0,0,0.614505,-36.5416,1.41328,24.7849,1.44897,3.16582,-0.110672,
0.360881,0.0506913,0.174205,-2.15427,0.0874207,0.628235,0.285771,0.0533489,-0.0210411,0.0525651,0.0370405,-0.265726,0.215114,-0.15071,-0.382805,-0.740983,-0.392702,0.0683516,21.4799,-2.85555,-21.4054,4.93664,0.689946,4.87304,1.10771,-1.68145,-0.0813946,0.900512,0.358323,0.0516059,0.171745,-2.15629,0.0994944,0.614538,0.290695,0.116308,-0.00405405,0.118539,0.0365779,-1.03429,0.877143,-0.432936,0,0,0,0,0,0,0,0.614505,-36.5416,1.41328,24.7849,1.44897,3.16582,-0.110672,
0.361269,0.0505007,0.174588,-2.15401,0.0865992,0.629523,0.283692,0.0523975,-0.0215993,0.0516308,0.0361407,-0.233119,0.204282,-0.172554,-0.594644,-0.348872,-0.583937,-0.562383,20.3791,-6.76997,-13.6526,5.51622,0.129249,5.43206,1.19414,-1.4666,0.342697,0.868769,0.361871,0.0516091,0.175789,-2.15481,0.0703961,0.637398,0.280967,0.0800969,0.00849014,0.152072,0.0638215,-0.688638,0.530109,-0.547693,-4.52638,1.56802,4.19169,3.40546,43.2063,-43.3792,-14.3446,1.30085,-33.9708,1.56404,23.7375,1.28967,1.68084,-0.117081,
0.361646,0.0503275,0.17496,-2.15379,0.085915,0.630581,0.28204,0.0513284,-0.0216093,0.0505877,0.0345858,-0.203599,0.189867,-0.179329,-0.668197,-0.00630509,-0.651922,-0.971814,18.4505,-9.00942,-4.23425,5.59593,-0.18087,5.50871,1.12907,-1.43904,0.634559,-1.87968,0.361871,0.0516091,0.175789,-2.15481,0.0703961,0.637398,0.280967,0.0800969,0.00849014,0.152072,0.0638215,-0.688638,0.530109,-0.547693,0,0,0,0,0,0,0,1.30085,-33.9708,1.56404,23.7375,1.28967,1.68084,-0.117081,
0.362015,0.0501711,0.175324,-2.15358,0.0853086,0.631408,0.280548,0.0502969,-0.0211951,0.0495836,0.0328342,-0.178039,0.172569,-0.180774,-0.644643,0.258887,-0.627552,-1.09476,15.9746,-10.8114,-0.90315,4.97621,-0.135348,4.90738,0.986375,-1.11634,0.553225,-2.8467,0.361871,0.0516091,0.175789,-2.15481,0.0703961,0.637398,0.280967,0.0800969,0.00849014,0.152072,0.0638215,-0.688638,0.530109,-0.547693,0,0,0,0,0,0,0,1.30085,-33.9708,1.56404,23.7375,1.28967,1.68084,-0.117081,
0.364533,0.0508412,0.178378,-2.15328,0.0635045,0.646537,0.270955,0.0507954,-0.0211889,0.0500471,0.0324778,-0.156484,0.159611,-0.201495,0.311524,0.00387151,0.289694,-0.222762,13.472,-8.09853,-12.9508,4.61494,-0.125851,4.54743,0.83437,-0.976787,0.536676,-2.86343,0.361871,0.0516091,0.175789,-2.15481,0.0703961,0.637398,0.280967,0.0800969,0.00849014,0.152072,0.0638215,-0.688638,0.530109,-0.547693,0,0,0,0,0,0,0,1.30085,-33.9708,1.56404,23.7375,1.28967,1.68084,-0.117081,
0.364931,0.0506865,0.178769,-2.15307,0.0629921,0.647213,0.269033,0.0505797,-0.0208171,0.0498224,0.0312186,-0.137996,0.144588,-0.20927,-0.134817,0.232399,-0.140443,-0.787011,11.5548,-9.38967,-4.85966,4.54883,-0.17984,4.48058,0.751716,-0.797273,0.392347,-2.57833,0.36523,0.0514219,0.179236,-2.15288,0.0534023,0.651538,0.275401,0.0769268,-0.0167139,0.111268,0.0598525,-0.410541,0.340023,-0.141047,-0.396256,-3.15051,-5.10054,-0.496132,34.7621,-23.7607,50.8307,1.98322,-33.2488,2.33766,23.0154,2.03491,0.387198,-0.204056,
0.365316,0.0505492,0.179148,-2.15291,0.0624148,0.647839,0.268942,0.0500939,-0.0200854,0.0493404,0.0290611,-0.124829,0.131339,-0.169669,-0.303611,0.457338,-0.30126,-1.3484,8.22981,-8.28068,24.7507,4.46323,-0.180758,4.39275,0.66863,-0.69237,0.298013,-2.03589,0.36523,0.0514219,0.179236,-2.15288,0.0534023,0.651538,0.275401,0.0769268,-0.0167139,0.111268,0.0598525,-0.410541,0.340023,-0.141047,0,0,0,0,0,0,0,1.98322,-33.2488,2.33766,23.0154,2.03491,0.387198,-0.204056,
0.365686,0.0504286,0.179513,-2.15276,0.0618733,0.648339,0.26892,0.0493314,-0.0190835,0.0485858,0.0268524,-0.1134,0.117571,-0.136306,-0.47658,0.626187,-0.471627,-1.38048,7.14273,-8.60509,20.8521,4.48252,-0.190402,4.40834,0.634171,-0.660673,0.0804216,-1.8528,0.36523,0.0514219,0.179236,-2.15288,0.0534023,0.651538,0.275401,0.0769268,-0.0167139,0.111268,0.0598525,-0.410541,0.340023,-0.141047,0,0,0,0,0,0,0,1.98322,-33.2488,2.33766,23.0154,2.03491,0.387198,-0.204056,
0.367629,0.0504594,0.181578,-2.15153,0.0488734,0.657468,0.271001,0.0493586,-0.0193242,0.0485976,0.0263912,-0.102635,0.109436,-0.109614,0.0170364,-0.150488,0.00737216,-0.288239,6.72859,-5.0838,16.6821,4.3513,-0.14836,4.2784,0.657331,-0.659614,-0.180794,-2.87264,0.36523,0.0514219,0.179236,-2.15288,0.0534023,0.651538,0.275401,0.0769268,-0.0167139,0.111268,0.0598525,-0.410541,0.340023,-0.141047,0,0,0,0,0,0,0,1.98322,-33.2488,2.33766,23.0154,2.03491,0.387198,-0.204056,
0.368004,0.0503164,0.181947,-2.15135,0.0484912,0.657869,0.27098,0.0488626,-0.0190345,0.048103,0.0255494,-0.0916624,0.0975809,-0.0882149,-0.309998,0.181087,-0.309099,-0.526137,6.85766,-7.40971,13.3748,4.0469,-0.0597707,3.97022,0.583891,-0.665513,-0.0191638,-2.38102,0.368259,0.0511265,0.182119,-2.15044,0.0458164,0.661061,0.270956,0.102812,0.00346118,0.0699446,0.0627725,-0.14378,0.268635,-0.345755,3.23567,2.52189,-5.16542,0.365002,33.345,-8.9236,-25.5885,2.0586,-34.2207,2.23848,22.6425,1.1615,1.36864,-0.270889,
0.368363,0.0501914,0.1823,-2.15119,0.0481913,0.658087,0.27096,0.0480605,-0.0183518,0.047309,0.0244618,-0.0808259,0.0835017,-0.0710667,-0.501306,0.426708,-0.496258,-0.67975,6.77282,-8.79951,10.7176,4.06274,-0.101938,3.97527,0.454861,-0.820722,0.263925,-0.0218062,0.368259,0.0511265,0.182119,-2.15044,0.0458164,0.661061,0.270956,0.102812,0.00346118,0.0699446,0.0627725,-0.14378,0.268635,-0.345755,0,0,0,0,0,0,0,2.0586,-34.2207,2.23848,22.6425,1.1615,1.36864,-0.270889,
0.370658,0.0504752,0.184468,-2.14919,0.0442647,0.664886,0.270712,0.0483439,-0.0179135,0.0475697,0.0241581,-0.0668306,0.0706018,-0.057355,0.17708,0.273909,0.162934,-0.189794,8.74704,-8.06243,8.5698,4.0264,-0.0927714,3.95522,0.425563,-0.565646,-0.147172,-0.0208904,0.368259,0.0511265,0.182119,-2.15044,0.0458164,0.661061,0.270956,0.102812,0.00346118,0.0699446,0.0627725,-0.14378,0.268635,-0.345755,0,0,0,0,0,0,0,2.0586,-34.2207,2.23848,22.6425,1.1615,1.36864,-0.270889,
0.37103,0.0503602,0.184833,-2.14903,0.0442367,0.66486,0.270693,0.0479757,-0.0172064,0.0471925,0.0233773,-0.0541657,0.0558443,-0.0463605,-0.230088,0.441952,-0.23577,-0.487986,7.9156,-9.22342,6.87153,3.99016,-0.0521497,3.91957,0.432627,-0.455305,-0.296183,-0.0202395,0.368259,0.0511265,0.182119,-2.15044,0.0458164,0.661061,0.270956,0.102812,0.00346118,0.0699446,0.0627725,-0.14378,0.268635,-0.345755,0,0,0,0,0,0,0,2.0586,-34.2207,2.23848,22.6425,1.1615,1.36864,-0.270889,
0.371383,0.0502595,0.18518,-2.14889,0.0442613,0.664694,0.270675,0.0471955,-0.0162815,0.0464104,0.0222886,-0.0427174,0.0405131,-0.0375481,-0.487667,0.578024,-0.48877,-0.68043,7.15515,-9.58202,5.50774,3.98171,-0.0249362,3.9119,0.41156,-0.333099,-0.456685,-0.0196077,0.370835,0.0504848,0.18477,-2.149,0.0427924,0.667564,0.258879,0.11685,-0.0267411,0.0340396,0.0253369,-0.04845,0.0923445,-0.178516,1.75477,-3.77529,-4.48811,-4.67945,11.9163,-22.0363,20.9049,0.868412,-33.2726,1.13954,23.7653,0.54443,2.52221,-0.123489,
0.371719,0.0501723,0.18551,-2.14876,0.0443343,0.664415,0.270657,0.0461642,-0.0152064,0.0453814,0.0210161,-0.0323497,0.0254388,-0.0304861,-0.644502,0.671981,-0.643174,-0.795329,6.47983,-9.42145,4.41376,3.92085,0.00780886,3.85076,0.427751,-0.236404,-0.559135,-0.019272,0.370835,0.0504848,0.18477,-2.149,0.0427924,0.667564,0.258879,0.11685,-0.0267411,0.0340396,0.0253369,-0.04845,0.0923445,-0.178516,0,0,0,0,0,0,0,0.868412,-33.2726,1.13954,23.7653,0.54443,2.52221,-0.123489,
0.373055,0.0497948,0.18694,-2.14815,0.0429538,0.667487,0.258714,0.0461875,-0.0146716,0.0453901,0.0201273,-0.0217316,0.0125684,-0.0248508,0.0145597,0.334226,0.00542733,-0.555483,6.63627,-8.04402,3.52205,3.85078,0.0293838,3.78046,0.444442,-0.146839,-0.645023,-0.0190544,0.370835,0.0504848,0.18477,-2.149,0.0427924,0.667564,0.258879,0.11685,-0.0267411,0.0340396,0.0253369,-0.04845,0.0923445,-0.178516,0,0,0,0,0,0,0,0.868412,-33.2726,1.13954,23.7653,0.54443,2.52221,-0.123489,
0.373403,0.0497092,0.187281,-2.14803,0.0431543,0.66709,0.258696,0.0456347,-0.0138788,0.0448329,0.0190327,-0.0123733,0.000125673,-0.0203248,-0.345551,0.495494,-0.348246,-0.684147,5.84899,-7.77668,2.82873,3.7737,0.0402493,3.70326,0.460635,-0.0642225,-0.713604,-0.0189263,0.370835,0.0504848,0.18477,-2.149,0.0427924,0.667564,0.258879,0.11685,-0.0267411,0.0340396,0.0253369,-0.04845,0.0923445,-0.178516,0,0,0,0,0,0,0,0.868412,-33.2726,1.13954,23.7653,0.54443,2.52221,-0.123489,
0.373731,0.049636,0.187603,-2.14792,0.0433843,0.666626,0.258679,0.0447148,-0.0129319,0.0439146,0.0178297,-0.00414662,-0.011496,-0.0166901,-0.574923,0.591815,-0.57389,-0.751864,5.14164,-7.26354,2.27172,3.70248,0.0209787,3.63076,0.473953,0.0187942,-0.772518,-0.0188156,0.373721,0.0500968,0.187721,-2.14847,0.0410256,0.668139,0.253427,0.138175,-0.00110539,0.0466489,0.00415769,-0.017403,0.00051562,0.0648185,2.66555,3.20447,1.57615,-2.6474,3.88088,-11.4786,30.4168,-0.627255,-33.8716,-0.288683,26.1813,0.093075,3.8955,0.050461,
0.374043,0.0495735,0.187909,-2.14783,0.0436401,0.666111,0.258662,0.0435724,-0.0119095,0.0427773,0.0165886,0.00307685,-0.0220562,-0.0137705,-0.714006,0.638994,-0.710855,-0.775678,4.51467,-6.60014,1.82477,3.6163,0.0156889,3.54469,0.488871,0.0870176,-0.813811,-0.0187593,0.373721,0.0500968,0.187721,-2.14847,0.0410256,0.668139,0.253427,0.138175,-0.00110539,0.0466489,0.00415769,-0.017403,0.00051562,0.0648185,0,0,0,0,0,0,0,-0.627255,-33.8716,-0.288683,26.1813,0.093075,3.8955,0.050461,
0.376208,0.0499474,0.190143,-2.14813,0.0424875,0.665748,0.253335,0.0445946,-0.0103585,0.0437466,0.0148728,0.0115882,-0.0329003,-0.0114632,0.638876,0.969403,0.605859,-1.07241,5.31958,-6.77756,1.44204,3.52759,0.00549687,3.45615,0.502896,0.145488,-0.8484,-0.0186944,0.373721,0.0500968,0.187721,-2.14847,0.0410256,0.668139,0.253427,0.138175,-0.00110539,0.0466489,0.00415769,-0.017403,0.00051562,0.0648185,0,0,0,0,0,0,0,-0.627255,-33.8716,-0.288683,26.1813,0.093075,3.8955,0.050461,
0.376565,0.0499162,0.190492,-2.14807,0.0428559,0.665117,0.253318,0.0445945,-0.00906746,0.0437181,0.0134053,0.0184816,-0.0420776,-0.00959348,-3.64399e-05,0.806886,-0.0178398,-0.917146,4.30842,-5.73583,1.16858,3.43711,-0.00828975,3.36594,0.517039,0.19936,-0.867411,-0.0186216,0.373721,0.0500968,0.187721,-2.14847,0.0410256,0.668139,0.253427,0.138175,-0.00110539,0.0466489,0.00415769,-0.017403,0.00051562,0.0648185,0,0,0,0,0,0,0,-0.627255,-33.8716,-0.288683,26.1813,0.093075,3.8955,0.050461,
0.376895,0.0498873,0.190815,-2.14801,0.0432241,0.664478,0.253302,0.0439254,-0.00797515,0.0430363,0.0121482,0.0239902,-0.0496432,-0.00807815,-0.418217,0.682694,-0.426144,-0.785679,3.44287,-4.72849,0.94708,3.35055,-0.0472871,3.27535,0.531586,0.247643,-0.875911,-0.0185115,0.376732,0.0500869,0.190799,-2.14836,0.0408139,0.667539,0.253553,0.14351,-0.00251231,0.0343884,-0.0011354,-0.000319239,-0.0420716,-0.00275393,0.666863,-0.175865,-1.53256,-0.661636,2.13547,-5.3234,-8.44655,-0.881161,-34.6452,-0.538622,25.8798,0.269772,3.39104,0.0440523,
0.379093,0.0499705,0.193093,-2.14813,0.042669,0.66443,0.253446,0.0442476,-0.0070049,0.0433177,0.0109393,0.0292933,-0.0563033,-0.00686859,0.201389,0.606408,0.175891,-0.755607,3.31444,-4.16257,0.755976,3.16713,-0.0792925,3.09252,0.554914,0.286523,-0.905117,-0.0181995,0.376732,0.0500869,0.190799,-2.14836,0.0408139,0.667539,0.253553,0.14351,-0.00251231,0.0343884,-0.0011354,-0.000319239,-0.0420716,-0.00275393,0,0,0,0,0,0,0,-0.881161,-34.6452,-0.538622,25.8798,0.269772,3.39104,0.0440523,
0.379425,0.0499468,0.193416,-2.14809,0.0430535,0.663777,0.253431,0.0436895,-0.00619816,0.0427412,0.00994509,0.0330459,-0.06137,-0.00587294,-0.348819,0.504215,-0.36031,-0.621366,2.34535,-3.16668,0.622281,3.07567,-0.095484,3.00144,0.56906,0.311431,-0.891551,-0.0179674,0.376732,0.0500869,0.190799,-2.14836,0.0408139,0.667539,0.253553,0.14351,-0.00251231,0.0343884,-0.0011354,-0.000319239,-0.0420716,-0.00275393,0,0,0,0,0,0,0,-0.881161,-34.6452,-0.538622,25.8798,0.269772,3.39104,0.0440523,
0.37973,0.0499245,0.193714,-2.14804,0.0434142,0.663141,0.253417,0.0425766,-0.00551535,0.0416242,0.00912605,0.0354534,-0.0649921,-0.00505268,-0.695524,0.426752,-0.698138,-0.511901,1.50469,-2.26384,0.512663,2.98458,-0.11071,2.91073,0.583404,0.329008,-0.873016,-0.0176683,0.376732,0.0500869,0.190799,-2.14836,0.0408139,0.667539,0.253553,0.14351,-0.00251231,0.0343884,-0.0011354,-0.000319239,-0.0420716,-0.00275393,0,0,0,0,0,0,0,-0.881161,-34.6452,-0.538622,25.8798,0.269772,3.39104,0.0440523,
0.380013,0.0499038,0.193989,-2.14799,0.0437481,0.662527,0.253404,0.0411347,-0.00493013,0.0401869,0.00845133,0.036711,-0.0673248,-0.00437577,-0.901237,0.365766,-0.898306,-0.421699,0.785978,-1.45791,0.423066,2.88873,-0.147206,2.80879,0.61024,0.338144,-0.837864,-0.0173933,0.379801,0.0504139,0.193851,-2.14841,0.0411743,0.665669,0.253523,0.133661,0.023547,0.042855,0.0107259,0.0186697,-0.0473167,-0.000684521,-1.23105,3.25741,1.05833,1.48267,2.37361,-0.655639,0.258677,-1.21045,-36.0179,-0.859972,26.5027,0.502316,2.72179,-0.0163725,
0.382094,0.0505672,0.196074,-2.14822,0.0423966,0.662156,0.253431,0.0415881,-0.00407806,0.0405937,0.00772037,0.0336401,-0.0728142,-0.00384638,0.283427,0.532543,0.254247,-0.456849,-1.91929,-3.4309,0.330873,2.80828,-0.150503,2.72783,0.588566,0.081993,-1.06973,-0.0171938,0.379801,0.0504139,0.193851,-2.14841,0.0411743,0.665669,0.253523,0.133661,0.023547,0.042855,0.0107259,0.0186697,-0.0473167,-0.000684521,0,0,0,0,0,0,0,-1.21045,-36.0179,-0.859972,26.5027,0.502316,2.72179,-0.0163725,
0.382407,0.0505577,0.196379,-2.14818,0.042514,0.661419,0.253418,0.0411086,-0.00350041,0.0400916,0.00714642,0.029846,-0.0766746,-0.00339307,-0.299696,0.361028,-0.313821,-0.358721,-2.37131,-2.41274,0.283316,2.72104,-0.161535,2.64091,0.604216,0.0712327,-1.02896,-0.016716,0.379801,0.0504139,0.193851,-2.14841,0.0411743,0.665669,0.253523,0.133661,0.023547,0.042855,0.0107259,0.0186697,-0.0473167,-0.000684521,0,0,0,0,0,0,0,-1.21045,-36.0179,-0.859972,26.5027,0.502316,2.72179,-0.0163725,
0.382693,0.0505463,0.196657,-2.14814,0.0425766,0.660713,0.253406,0.0400398,-0.00308587,0.0390157,0.00670064,0.0254434,-0.0789885,-0.0030039,-0.668051,0.259088,-0.672398,-0.278616,-2.75162,-1.44616,0.243232,2.63414,-0.170858,2.55434,0.620048,0.0529643,-0.985345,-0.0161719,0.379801,0.0504139,0.193851,-2.14841,0.0411743,0.665669,0.253523,0.133661,0.023547,0.042855,0.0107259,0.0186697,-0.0473167,-0.000684521,0,0,0,0,0,0,0,-1.21045,-36.0179,-0.859972,26.5027,0.502316,2.72179,-0.0163725,
0.382957,0.0505343,0.196912,-2.1481,0.0425839,0.660045,0.253396,0.0386201,-0.00276976,0.0375991,0.00635923,0.0205367,-0.0799054,-0.00266919,-0.887262,0.197568,-0.885367,-0.21338,-3.0667,-0.573078,0.209197,2.55193,-0.200994,2.46615,0.641821,0.0253957,-0.931438,-0.0156599,0.382731,0.0506753,0.19675,-2.14841,0.0420782,0.664199,0.253468,0.135389,0.00207277,0.028552,0.000654572,0.0142862,-0.0463285,0.000156888,0.215903,-2.68428,-1.78789,-1.25892,-0.54794,0.123519,0.105176,-1.23822,-35.1689,-0.788561,25.6577,0.843807,2.37664,-0.0163725,
0.384884,0.050466,0.198838,-2.14793,0.043079,0.657364,0.253384,0.0391702,-0.00355288,0.0381473,0.00698174,0.018096,-0.102172,-0.00240537,0.343803,-0.489447,0.342604,0.389071,-1.52542,-13.9165,0.164886,2.69434,-0.19345,2.61449,0.488268,0.188295,-2.45161,-0.0167761,0.382731,0.0506753,0.19675,-2.14841,0.0420782,0.664199,0.253468,0.135389,0.00207277,0.028552,0.000654572,0.0142862,-0.0463285,0.000156888,0,0,0,0,0,0,0,-1.23822,-35.1689,-0.788561,25.6577,0.843807,2.37664,-0.0163725,
0.385186,0.0504177,0.199132,-2.14786,0.0430461,0.655855,0.253375,0.038883,-0.00405017,0.0378708,0.00722782,0.013654,-0.119474,-0.00215692,-0.179518,-0.310804,-0.172805,0.153799,-2.77629,-10.8137,0.155278,2.62535,-0.196374,2.54553,0.511716,0.102143,-2.3426,-0.0157183,0.382731,0.0506753,0.19675,-2.14841,0.0420782,0.664199,0.253468,0.135389,0.00207277,0.028552,0.000654572,0.0142862,-0.0463285,0.000156888,0,0,0,0,0,0,0,-1.23822,-35.1689,-0.788561,25.6577,0.843807,2.37664,-0.0163725,
0.385464,0.0503756,0.199403,-2.1478,0.0429128,0.654386,0.253367,0.0380642,-0.0042919,0.0370692,0.00722714,0.00758928,-0.132315,-0.00192714,-0.511775,-0.151083,-0.501033,-0.000423622,-3.79043,-8.02593,0.143618,2.55378,-0.199581,2.47408,0.534482,0.0108658,-2.23377,-0.0146814,0.382731,0.0506753,0.19675,-2.14841,0.0420782,0.664199,0.253468,0.135389,0.00207277,0.028552,0.000654572,0.0142862,-0.0463285,0.000156888,0,0,0,0,0,0,0,-1.23822,-35.1689,-0.788561,25.6577,0.843807,2.37664,-0.0163725,
0.385723,0.0503399,0.199654,-2.14775,0.042681,0.652969,0.25336,0.0369241,-0.00432764,0.0359491,0.00707622,0.000277333,-0.141275,-0.00171817,-0.71253,-0.0223406,-0.700016,-0.0943286,-4.56997,-5.60007,0.130602,2.48099,-0.202131,2.40151,0.556763,-0.0847667,-2.12409,-0.0137117,0.382731,0.0506753,0.19675,-2.14841,0.0420782,0.664199,0.253468,0.135389,0.00207277,0.028552,0.000654572,0.0142862,-0.0463285,0.000156888,0,0,0,0,0,0,0,-1.23822,-35.1689,-0.788561,25.6577,0.843807,2.37664,-0.0163725,
0.384806,0.0500827,0.198791,-2.14721,0.0497936,0.64687,0.253328,0.0379825,-0.00698698,0.0372277,0.00930065,0.0374446,-0.210855,-0.00163011,0.661469,-1.66209,0.799081,1.39027,23.2296,-43.4872,0.0550401,3.29431,-0.234009,3.28794,0.416915,2.64505,-7.07953,-0.0240263,0.385206,0.0507609,0.199273,-2.14836,0.0424807,0.66235,0.25346,0.115752,0.00232893,0.0236359,0.00451113,0.00811164,-0.0645684,-0.00198844,-2.45452,0.0320207,-0.61451,0.48207,-0.771815,-2.27998,-0.268166,-1.11126,-34.4469,-0.812364,25.3323,0.703732,2.25762,0.0303194,
0.385127,0.0499575,0.199114,-2.14711,0.0510916,0.643053,0.25332,0.0384092,-0.00871965,0.0378454,0.0100671,0.0624043,-0.264119,-0.00148888,0.266731,-1.08292,0.386077,0.479008,15.5998,-33.2901,0.0882665,3.22581,-0.303499,3.2218,0.478591,2.3589,-6.57353,-0.0213011,0.385206,0.0507609,0.199273,-2.14836,0.0424807,0.66235,0.25346,0.115752,0.00232893,0.0236359,0.00451113,0.00811164,-0.0645684,-0.00198844,0,0,0,0,0,0,0,-1.11126,-34.4469,-0.812364,25.3323,0.703732,2.25762,0.0303194,
0.385435,0.0498495,0.199423,-2.14703,0.0521903,0.639388,0.253315,0.0384209,-0.00967498,0.0380184,0.00989169,0.0773907,-0.302907,-0.0013264,0.00727781,-0.597077,0.108098,-0.109604,9.36655,-24.2424,0.101553,3.15292,-0.387034,3.15204,0.530344,2.0806,-6.0962,-0.018926,0.385206,0.0507609,0.199273,-2.14836,0.0424807,0.66235,0.25346,0.115752,0.00232893,0.0236359,0.00451113,0.00811164,-0.0645684,-0.00198844,0,0,0,0,0,0,0,-1.11126,-34.4469,-0.812364,25.3323,0.703732,2.25762,0.0303194,
0.387133,0.0502691,0.201146,-2.1472,0.0497232,0.645464,0.253354,0.039197,-0.0108126,0.0387484,0.0107794,0.0952322,-0.332576,-0.00114319,0.485083,-0.711042,0.456305,0.55482,11.1509,-18.5434,0.114507,3.72021,0.359129,3.6597,0.518784,2.73442,-7.23757,-0.0189303,0.385206,0.0507609,0.199273,-2.14836,0.0424807,0.66235,0.25346,0.115752,0.00232893,0.0236359,0.00451113,0.00811164,-0.0645684,-0.00198844,0,0,0,0,0,0,0,-1.11126,-34.4469,-0.812364,25.3323,0.703732,2.25762,0.0303194,
0.387463,0.0501584,0.201471,-2.14713,0.0508527,0.64205,0.253353,0.0396099,-0.0114178,0.0391232,0.0103489,0.104424,-0.351402,-0.000940529,0.258076,-0.378206,0.234213,-0.26904,5.74464,-11.7661,0.126661,3.64332,0.0542127,3.57337,0.586154,2.3344,-6.45531,-0.0151522,0.387535,0.0507573,0.201316,-2.14824,0.0425241,0.657093,0.253467,0.0999969,-0.00324841,0.0199047,-9.38481e-05,-0.000170231,-0.222758,-0.000215402,-1.96944,-0.697168,-0.466401,-0.575622,-1.03523,-19.7737,0.22163,-0.424923,-34.1216,-0.16173,24.8087,0.612179,2.3034,-0.0163725,
0.387786,0.0500615,0.201789,-2.14709,0.0517827,0.63888,0.253353,0.0397744,-0.011557,0.0392521,0.00916319,0.106788,-0.360371,-0.000739235,0.102805,-0.0869868,0.0805438,-0.741095,1.47743,-5.60524,0.125809,3.55575,-0.221148,3.4822,0.620333,1.97276,-5.7629,-0.0122805,0.387535,0.0507573,0.201316,-2.14824,0.0425241,0.657093,0.253467,0.0999969,-0.00324841,0.0199047,-9.38481e-05,-0.000170231,-0.222758,-0.000215402,0,0,0,0,0,0,0,-0.424923,-34.1216,-0.16173,24.8087,0.612179,2.3034,-0.0163725,
0.388104,0.0499778,0.202101,-2.14708,0.0525315,0.635977,0.253355,0.0397582,-0.0113382,0.0392014,0.00762454,0.104149,-0.360888,-0.000551824,-0.0101376,0.136717,-0.0316736,-0.961654,-1.64895,-0.323592,0.117132,3.47751,-0.467841,3.402,0.644692,1.64821,-5.13012,-0.0100964,0.387535,0.0507573,0.201316,-2.14824,0.0425241,0.657093,0.253467,0.0999969,-0.00324841,0.0199047,-9.38481e-05,-0.000170231,-0.222758,-0.000215402,0,0,0,0,0,0,0,-0.424923,-34.1216,-0.16173,24.8087,0.612179,2.3034,-0.0163725,
0.38933,0.050349,0.203072,-2.14749,0.0477693,0.639735,0.253404,0.0399849,-0.0114309,0.0394788,0.00772029,0.107018,-0.373681,-0.000436585,0.14169,-0.0579411,0.173388,0.0598408,1.79304,-7.99527,0.0720243,3.74098,-0.0177334,3.69333,0.734117,2.08002,-6.50684,-0.0103717,0.387535,0.0507573,0.201316,-2.14824,0.0425241,0.657093,0.253467,0.0999969,-0.00324841,0.0199047,-9.38481e-05,-0.000170231,-0.222758,-0.000215402,0,0,0,0,0,0,0,-0.424923,-34.1216,-0.16173,24.8087,0.612179,2.3034,-0.0163725,
0.389651,0.0502633,0.203391,-2.14745,0.0485665,0.636578,0.253405,0.0400301,-0.0112858,0.0395697,0.00703206,0.105544,-0.377879,-0.000308492,0.0282411,0.0906975,0.0567863,-0.430146,-0.921451,-2.62423,0.0800584,3.6243,-0.294123,3.575,0.770016,1.71413,-5.70081,-0.00801548,0.389593,0.0506442,0.203115,-2.1474,0.0462917,0.641271,0.25347,0.0976576,-0.00439186,0.0109629,0.0399988,0.158264,-0.674622,0.000653952,-0.292406,-0.142931,-1.11773,5.01158,19.8042,-56.483,0.108669,0.717655,-33.0226,0.913405,21.8967,1.10656,0.844961,-0.0429228,
0.389969,0.0501878,0.203707,-2.14744,0.0492074,0.633684,0.253409,0.0399673,-0.010917,0.0395442,0.00597937,0.100459,-0.374656,-0.000162817,-0.0392193,0.230513,-0.015926,-0.657932,-3.17777,2.01444,0.0910467,3.55545,-0.540465,3.50906,0.789205,1.40713,-5.03823,-0.00600829,0.389593,0.0506442,0.203115,-2.1474,0.0462917,0.641271,0.25347,0.0976576,-0.00439186,0.0109629,0.0399988,0.158264,-0.674622,0.000653952,0,0,0,0,0,0,0,0.717655,-33.0226,0.913405,21.8967,1.10656,0.844961,-0.0429228,
0.390283,0.0501214,0.204019,-2.14744,0.0497088,0.631054,0.253414,0.0398277,-0.0103939,0.0394338,0.00483368,0.0929005,-0.365463,1.37784e-05,-0.0872723,0.326942,-0.0690064,-0.716056,-4.72424,5.74582,0.110372,3.5023,-0.735175,3.45973,0.807096,1.14744,-4.44435,-0.00406104,0.389593,0.0506442,0.203115,-2.1474,0.0462917,0.641271,0.25347,0.0976576,-0.00439186,0.0109629,0.0399988,0.158264,-0.674622,0.000653952,0,0,0,0,0,0,0,0.717655,-33.0226,0.913405,21.8967,1.10656,0.844961,-0.0429228,
0.391453,0.0502739,0.20495,-2.14732,0.0528814,0.619665,0.253465,0.0406306,-0.00972666,0.0402568,0.00266958,0.0999889,-0.382025,0.000226073,0.501809,0.417004,0.514395,-1.35256,4.43025,-10.3514,0.132684,3.84249,-0.525122,3.81129,0.644518,2.00373,-6.07805,-0.00512535,0.389593,0.0506442,0.203115,-2.1474,0.0462917,0.641271,0.25347,0.0976576,-0.00439186,0.0109629,0.0399988,0.158264,-0.674622,0.000653952,0,0,0,0,0,0,0,0.717655,-33.0226,0.913405,21.8967,1.10656,0.844961,-0.0429228,
0.391796,0.0502264,0.20529,-2.14738,0.0537691,0.616434,0.253476,0.0410769,-0.00896861,0.04072,0.000834931,0.102182,-0.386396,0.000445384,0.278971,0.473784,0.289482,-1.14666,1.37058,-2.73205,0.137069,3.78369,-0.890818,3.75028,0.764753,1.71064,-5.22312,-0.00473969,0.391877,0.0505429,0.204898,-2.14688,0.0517961,0.617913,0.253467,0.0778391,0.00188009,0.0406774,-0.000926816,0.118908,-0.618815,-0.000230218,-2.47732,0.783993,3.71432,-5.1157,-4.91942,6.97582,-0.110521,0.435978,-34.4707,0.937208,25.7092,1.25946,1.76049,-0.0026396,
0.39213,0.05018,0.205622,-2.14743,0.0545285,0.613552,0.253481,0.0412183,-0.00833395,0.0408731,-0.000791322,0.100732,-0.38116,0.00048009,0.0883356,0.396658,0.0957337,-1.01641,-0.906442,3.27306,0.0216907,3.72381,-1.08593,3.6904,0.790245,1.43433,-4.55875,-0.00331147,0.391877,0.0505429,0.204898,-2.14688,0.0517961,0.617913,0.253467,0.0778391,0.00188009,0.0406774,-0.000926816,0.118908,-0.618815,-0.000230218,0,0,0,0,0,0,0,0.435978,-34.4707,0.937208,25.7092,1.25946,1.76049,-0.0026396,
0.393787,0.0503674,0.20678,-2.14766,0.0576702,0.602146,0.253472,0.0417325,-0.00767026,0.0413729,-0.00411999,0.10266,-0.360428,0.000606746,0.321404,0.41481,0.312378,-2.08042,1.20511,12.957,0.0791602,3.6965,-1.85126,3.66808,0.504581,1.84211,-3.54179,0.00124357,0.391877,0.0505429,0.204898,-2.14688,0.0517961,0.617913,0.253467,0.0778391,0.00188009,0.0406774,-0.000926816,0.118908,-0.618815,-0.000230218,0,0,0,0,0,0,0,0.435978,-34.4707,0.937208,25.7092,1.25946,1.76049,-0.0026396,
0.394127,0.0503256,0.207116,-2.14778,0.0584269,0.60029,0.253483,0.0418745,-0.00718096,0.0415105,-0.00626198,0.101045,-0.334756,0.000761197,0.0887426,0.305815,0.0859849,-1.33874,-1.00902,16.045,0.0965321,3.59931,-1.88482,3.57491,0.559659,1.64329,-2.96147,0.00526157,0.391877,0.0505429,0.204898,-2.14688,0.0517961,0.617913,0.253467,0.0778391,0.00188009,0.0406774,-0.000926816,0.118908,-0.618815,-0.000230218,0,0,0,0,0,0,0,0.435978,-34.4707,0.937208,25.7092,1.25946,1.76049,-0.0026396,
0.394455,0.0502773,0.207441,-2.14788,0.0591014,0.598762,0.253485,0.0417003,-0.00695139,0.0413361,-0.00760156,0.0976988,-0.306001,0.000655253,-0.108901,0.143479,-0.109021,-0.837236,-2.09157,17.972,-0.0662148,3.47852,-2.13286,3.45385,0.628314,1.44262,-2.32062,-0.00289291,0.393917,0.0504905,0.207241,-2.1468,0.0555279,0.596137,0.253467,0.046034,0.00412449,0.100257,-0.00716451,0.115214,-0.612014,-0.000575495,-3.97564,0.280551,7.44746,-0.779711,-0.461785,0.850119,-0.0431597,0.717655,-34.5223,1.16334,26.1813,1.38763,1.96557,0.0101778,
0.394778,0.0502258,0.207761,-2.14797,0.0595892,0.597543,0.253491,0.041437,-0.00684831,0.0410748,-0.00823148,0.0903533,-0.275267,0.000673116,-0.164529,0.0644214,-0.163331,-0.393704,-4.59094,19.2091,0.0111641,3.43899,-2.12476,3.40279,0.664405,0.964088,-1.78537,0.000146195,0.393917,0.0504905,0.207241,-2.1468,0.0555279,0.596137,0.253467,0.046034,0.00412449,0.100257,-0.00716451,0.115214,-0.612014,-0.000575495,0,0,0,0,0,0,0,0.717655,-34.5223,1.16334,26.1813,1.38763,1.96557,0.0101778,
0.396103,0.0504139,0.209403,-2.14809,0.0601317,0.586089,0.253474,0.0426712,-0.00580967,0.0422746,-0.0110845,0.0877274,-0.244136,0.000700429,0.77137,0.649153,0.749906,-1.78313,-1.64118,19.4565,0.0170706,3.43055,-2.64142,3.41269,0.39109,1.24747,-0.896911,0.00177624,0.393917,0.0504905,0.207241,-2.1468,0.0555279,0.596137,0.253467,0.046034,0.00412449,0.100257,-0.00716451,0.115214,-0.612014,-0.000575495,0,0,0,0,0,0,0,0.717655,-34.5223,1.16334,26.1813,1.38763,1.96557,0.0101778,
