xiao-wang007/linearmpc_panda/paper_data/panda_torque_PD_controller_Start_at_0_low_pass_filter/4/trajectory.csv
Commanded Joint 0 Position,Commanded Joint 1 Position,Commanded Joint 2 Position,Commanded Joint 3 Position,Commanded Joint 4 Position,Commanded Joint 5 Position,Commanded Joint 6 Position,Commanded Joint 0 Velocity,Commanded Joint 1 Velocity,Commanded Joint 2 Velocity,Commanded Joint 3 Velocity,Commanded Joint 4 Velocity,Commanded Joint 5 Velocity,Commanded Joint 6 Velocity,Commanded Joint 0 Acceleration,Commanded Joint 1 Acceleration,Commanded Joint 2 Acceleration,Commanded Joint 3 Acceleration,Commanded Joint 4 Acceleration,Commanded Joint 5 Acceleration,Commanded Joint 6 Acceleration,Commanded Joint 0 Torque,Commanded Joint 1 Torque,Commanded Joint 2 Torque,Commanded Joint 3 Torque,Commanded Joint 4 Torque,Commanded Joint 5 Torque,Commanded Joint 6 Torque,Actual Joint 0 Position,Actual Joint 1 Position,Actual Joint 2 Position,Actual Joint 3 Position,Actual Joint 4 Position,Actual Joint 5 Position,Actual Joint 6 Position,Actual Joint 0 Velocity,Actual Joint 1 Velocity,Actual Joint 2 Velocity,Actual Joint 3 Velocity,Actual Joint 4 Velocity,Actual Joint 5 Velocity,Actual Joint 6 Velocity,Actual Joint 0 Acceleration,Actual Joint 1 Acceleration,Actual Joint 2 Acceleration,Actual Joint 3 Acceleration,Actual Joint 4 Acceleration,Actual Joint 5 Acceleration,Actual Joint 6 Acceleration,Actual Joint 0 Torque,Actual Joint 1 Torque,Actual Joint 2 Torque,Actual Joint 3 Torque,Actual Joint 4 Torque,Actual Joint 5 Torque,Actual Joint 6 Torque,
0.0258588,-0.0954809,0.0136831,-1.87912,0.0242463,0.279557,-0.0537386,0.000627836,0.0192937,0.000766126,-0.0342825,-0.00591094,0.0523782,-0.000368436,0.392398,12.0586,0.478829,-21.4266,-3.69434,32.7364,-0.230273,0.052686,21.5336,0.196623,-24.5202,-0.725302,1.80411,-0.0236436,0.0258117,-0.0964077,0.0136275,-1.87589,0.0246243,0.273865,-0.0536965,0.0010302,0.000835077,0.000696124,-0.000508246,-0.00128214,0.00308024,-0.00144079,0,0,0,0,0,0,0,0.0551182,-32.1498,-0.237108,27.4271,0.612179,3.33794,0.050461,
0.0258223,-0.0963939,0.0136386,-1.87589,0.0246229,0.273897,-0.0536975,0.000564672,0.0155247,0.000677566,-0.0274407,-0.00468554,0.0420732,-0.000297923,-0.0394776,-2.35565,-0.0553503,4.27614,0.765874,-6.4406,0.044071,0.04698,21.9759,0.186198,-24.4362,-0.725095,1.55368,-0.0221321,0.0258166,-0.0963471,0.0136266,-1.87594,0.0246245,0.273857,-0.0536945,0.00399921,0.00272483,0.000115987,-0.00363232,-0.00747932,0.00193376,0.000434626,0.371126,0.236219,-0.0725171,-0.390509,-0.774647,-0.14331,0.234427,0.0313145,-31.9515,-0.213304,27.4271,0.581051,3.41759,0.00376909,
0.0258242,-0.096391,0.0136405,-1.87589,0.0246252,0.273902,-0.0536976,0.000498676,0.0124927,0.000590026,-0.0219629,-0.00369115,0.0337854,-0.00024052,-0.0412473,-1.89495,-0.0547122,3.42363,0.621498,-5.17991,0.0358767,0.039826,22.5476,0.174501,-24.3281,-0.724127,1.20604,-0.0201633,0.0258166,-0.0963471,0.0136266,-1.87594,0.0246245,0.273857,-0.0536945,0.00399921,0.00272483,0.000115987,-0.00363232,-0.00747932,0.00193376,0.000434626,0,0,0,0,0,0,0,0.0313145,-31.9515,-0.213304,27.4271,0.581051,3.41759,0.00376909,
0.0258256,-0.0963885,0.013642,-1.87589,0.0246276,0.273906,-0.0536977,0.000434771,0.0100554,0.000508103,-0.0175775,-0.00289392,0.0271288,-0.000193999,-0.039941,-1.52335,-0.051202,2.74087,0.498268,-4.16036,0.0290756,0.0339379,23.0717,0.165121,-24.1603,-0.721648,0.820795,-0.0181625,0.0258166,-0.0963471,0.0136266,-1.87594,0.0246245,0.273857,-0.0536945,0.00399921,0.00272483,0.000115987,-0.00363232,-0.00747932,0.00193376,0.000434626,0,0,0,0,0,0,0,0.0313145,-31.9515,-0.213304,27.4271,0.581051,3.41759,0.00376909,
0.0257178,-0.0963009,0.0135445,-1.87587,0.0269121,0.272541,-0.0537198,-0.00105128,0.0084846,-0.00086717,-0.0130915,0.0329914,0.00145284,-0.000390427,-0.928779,-0.981741,-0.859546,2.80376,22.4283,-16.0475,-0.122767,0.453435,0.216205,0.44811,-0.276465,2.93428,-1.86422,-0.00176302,0.0258166,-0.0963471,0.0136266,-1.87594,0.0246245,0.273857,-0.0536945,0.00399921,0.00272483,0.000115987,-0.00363232,-0.00747932,0.00193376,0.000434626,0,0,0,0,0,0,0,0.0313145,-31.9515,-0.213304,27.4271,0.581051,3.41759,0.00376909,
0.0256649,-0.0962925,0.0134928,-1.87584,0.0286334,0.271538,-0.0537249,-0.00216154,0.00699654,-0.00198492,-0.00972091,0.0694248,-0.0239115,-0.000441738,-0.693915,-0.930033,-0.698593,2.1066,22.7709,-15.8527,-0.0320693,0.447383,0.236742,0.441136,-0.268395,2.90957,-1.84457,-0.00172338,0.0258102,-0.0958671,0.0136185,-1.87649,0.0246413,0.274755,-0.0536938,3.87e-05,0.059399,0.000305028,-0.0755044,0.000959094,0.130071,0.00041074,-0.495064,7.08427,0.0236301,-8.98401,1.0548,16.0172,-0.00298583,0.182071,-21.4699,-0.0625476,15.918,0.21484,2.56249,-0.0026396,
0.0256219,-0.0962894,0.0134492,-1.87582,0.0305326,0.270408,-0.0537278,-0.00280428,0.00567426,-0.00267963,-0.00726928,0.10302,-0.0473614,-0.000425301,-0.401713,-0.826428,-0.434194,1.53227,20.9972,-14.6562,0.0102732,0.441844,0.233586,0.435459,-0.265725,2.88466,-1.82904,-0.00168246,0.0258102,-0.0958671,0.0136185,-1.87649,0.0246413,0.274755,-0.0536938,3.87e-05,0.059399,0.000305028,-0.0755044,0.000959094,0.130071,0.00041074,0,0,0,0,0,0,0,0.182071,-21.4699,-0.0625476,15.918,0.21484,2.56249,-0.0026396,
0.0255908,-0.0962885,0.0134166,-1.87581,0.0325336,0.269196,-0.0537295,-0.00302271,0.00456173,-0.00295885,-0.00552308,0.132442,-0.0681899,-0.000382224,-0.136521,-0.695327,-0.174511,1.09138,18.3883,-13.0178,0.0269231,0.436327,0.230239,0.429847,-0.263191,2.85983,-1.81349,-0.00165299,0.0258102,-0.0958671,0.0136185,-1.87649,0.0246413,0.274755,-0.0536938,3.87e-05,0.059399,0.000305028,-0.0755044,0.000959094,0.130071,0.00041074,0,0,0,0,0,0,0,0.182071,-21.4699,-0.0625476,15.918,0.21484,2.56249,-0.0026396,
0.0254923,-0.095015,0.0133641,-1.87638,0.0330234,0.268431,-0.053777,-0.0065843,0.0126969,-0.00599691,-0.00214485,0.235005,-0.155821,-0.00108709,-2.22599,5.08448,-1.89879,2.11139,64.102,-54.7694,-0.440544,3.74801,1.72993,3.79903,-1.85781,10.9131,-9.73482,-0.0046729,0.0258102,-0.0958671,0.0136185,-1.87649,0.0246413,0.274755,-0.0536938,3.87e-05,0.059399,0.000305028,-0.0755044,0.000959094,0.130071,0.00041074,0,0,0,0,0,0,0,0.182071,-21.4699,-0.0625476,15.918,0.21484,2.56249,-0.0026396,
0.0253607,-0.0947591,0.0132416,-1.87632,0.0392907,0.263305,-0.053793,-0.00855751,0.0165552,-0.0078606,-0.000200135,0.344686,-0.252817,-0.00126882,-1.23326,2.41145,-1.16481,1.21545,68.551,-60.6225,-0.113581,3.62623,1.72622,3.69618,-1.81674,10.9131,-9.57611,-0.00404764,0.0258102,-0.0958671,0.0136185,-1.87649,0.0246413,0.274755,-0.0536938,3.87e-05,0.059399,0.000305028,-0.0755044,0.000959094,0.130071,0.00041074,0,0,0,0,0,0,0,0.182071,-21.4699,-0.0625476,15.918,0.21484,2.56249,-0.0026396,
0.0252827,-0.0945709,0.0131666,-1.8763,0.0461649,0.257504,-0.0538007,-0.00879606,0.0179491,-0.00816284,0.000244546,0.447605,-0.347271,-0.00120794,-0.149096,0.871173,-0.188901,0.277925,64.3239,-59.0339,0.0380538,3.49887,1.83468,3.57167,-1.79991,10.6976,-9.39987,-0.00445042,0.025811,-0.0929268,0.0136276,-1.88242,0.0266041,0.279017,-0.0536968,-0.00460808,0.0371326,-0.00331748,-0.145486,0.217354,-0.115069,-0.00108919,-0.580848,-2.78331,-0.452813,-8.74765,27.0493,-30.6425,-0.187492,0.384403,-29.3291,-0.0109729,32.8583,1.92505,3.35808,0.0239107,
0.0252613,-0.0944214,0.0131455,-1.87633,0.0533521,0.251284,-0.0538045,-0.00757149,0.0180956,-0.00705811,-0.000395055,0.537763,-0.433308,-0.00106025,0.765359,0.0915912,0.690456,-0.39975,56.3492,-53.7727,0.0923032,3.38742,1.80337,3.46026,-1.7694,10.4684,-9.25056,-0.00509632,0.025811,-0.0929268,0.0136276,-1.88242,0.0266041,0.279017,-0.0536968,-0.00460808,0.0371326,-0.00331748,-0.145486,0.217354,-0.115069,-0.00108919,0,0,0,0,0,0,0,0.384403,-29.3291,-0.0109729,32.8583,1.92505,3.35808,0.0239107,
0.0266993,-0.0920902,0.0146153,-1.88313,0.0348099,0.267273,-0.0535562,0.00835768,0.0243681,0.0102941,-0.00762414,0.549289,-0.520378,0.000671736,9.95573,3.92026,10.8451,-4.51818,7.20367,-54.4192,1.08249,24.5491,4.89729,25.5069,-10.8081,10.9037,-14.3974,0.0959128,0.025811,-0.0929268,0.0136276,-1.88242,0.0266041,0.279017,-0.0536968,-0.00460808,0.0371326,-0.00331748,-0.145486,0.217354,-0.115069,-0.00108919,0,0,0,0,0,0,0,0.384403,-29.3291,-0.0109729,32.8583,1.92505,3.35808,0.0239107,
0.0274901,-0.0917765,0.0154683,-1.88346,0.0405475,0.258969,-0.0534822,0.0264552,0.0273363,0.0295606,-0.0141396,0.582871,-0.623906,0.00238639,11.3109,1.85515,12.0416,-4.07219,20.9886,-64.7047,1.07166,23.1076,4.94167,24.2384,-9.28929,10.9037,-14.3974,0.0691789,0.025811,-0.0929268,0.0136276,-1.88242,0.0266041,0.279017,-0.0536968,-0.00460808,0.0371326,-0.00331748,-0.145486,0.217354,-0.115069,-0.00108919,0,0,0,0,0,0,0,0.384403,-29.3291,-0.0109729,32.8583,1.92505,3.35808,0.0239107,
0.0284468,-0.0916052,0.0164759,-1.88391,0.0470131,0.249803,-0.0533289,0.0450806,0.0261528,0.0488365,-0.0226707,0.627937,-0.728267,0.00574321,11.6409,-0.739685,12.0474,-5.33192,28.1663,-65.2258,2.09801,21.923,4.00573,22.9875,-8.58571,10.7426,-14.4097,0.0877079,0.0256399,-0.0903083,0.0134558,-1.88314,0.041289,0.266144,-0.0536992,-0.00991499,0.13091,-0.016943,0.019249,1.04041,-0.70402,6.23113e-05,-0.663363,11.7222,-1.70319,20.5918,102.882,-73.6189,0.143938,4.72065,-37.3906,4.2856,22.9916,3.12805,-1.44935,0.0440523,
0.0272534,-0.0894014,0.0150364,-1.88471,0.0554836,0.251438,-0.0534029,0.0613736,0.0304955,0.0645178,-0.0403769,0.676256,-0.781548,0.00739075,10.1831,2.71418,9.80081,-11.0663,30.199,-33.3008,1.02971,32.4834,5.53244,33.1952,-19.3974,10.7426,-14.4097,0.165938,0.0256399,-0.0903083,0.0134558,-1.88314,0.041289,0.266144,-0.0536992,-0.00991499,0.13091,-0.016943,0.019249,1.04041,-0.70402,6.23113e-05,0,0,0,0,0,0,0,4.72065,-37.3906,4.2856,22.9916,3.12805,-1.44935,0.0440523,
0.0285225,-0.089091,0.0163461,-1.88572,0.0625374,0.242584,-0.0532711,0.0808251,0.0321543,0.0843574,-0.0576893,0.717348,-0.846591,0.0092093,12.1572,1.03678,12.3998,-10.8203,25.6826,-40.6515,1.1366,29.5867,6.08622,30.3846,-18.0507,10.7426,-14.4097,0.0934825,0.0256399,-0.0903083,0.0134558,-1.88314,0.041289,0.266144,-0.0536992,-0.00991499,0.13091,-0.016943,0.019249,1.04041,-0.70402,6.23113e-05,0,0,0,0,0,0,0,4.72065,-37.3906,4.2856,22.9916,3.12805,-1.44935,0.0440523,
0.0299398,-0.0888734,0.0178111,-1.8869,0.0698737,0.23313,-0.0531496,0.100092,0.0311648,0.10411,-0.0755261,0.757287,-0.913613,0.0104032,12.0418,-0.618437,12.3451,-11.148,24.9617,-41.8891,0.746162,27.4442,5.07851,28.3916,-17.621,10.7426,-14.4097,0.142126,0.0256399,-0.0903083,0.0134558,-1.88314,0.041289,0.266144,-0.0536992,-0.00991499,0.13091,-0.016943,0.019249,1.04041,-0.70402,6.23113e-05,0,0,0,0,0,0,0,4.72065,-37.3906,4.2856,22.9916,3.12805,-1.44935,0.0440523,
0.0314229,-0.0886921,0.0193359,-1.88815,0.0775412,0.223208,-0.0531041,0.117153,0.0294644,0.12141,-0.0918007,0.797518,-0.978942,0.009461,10.663,-1.0628,10.8126,-10.1716,25.1448,-40.8305,-0.588852,24.8508,3.44465,25.6695,-18.3916,10.6449,-14.1268,0.143571,0.0263386,-0.0870928,0.0146843,-1.8835,0.0725438,0.229986,-0.0536957,0.0954141,0.0565979,0.140418,-0.0281351,1.00781,-1.35977,0.000338556,13.1661,-9.28899,19.6702,-5.92301,-4.07565,-81.9681,0.0345306,21.0778,-29.7774,21.0355,14.4739,3.54919,-2.91419,0.0577852,
0.0292782,-0.0869964,0.0177309,-1.8863,0.0876857,0.209826,-0.0534639,0.133556,0.0243247,0.138351,-0.111692,0.826497,-1.03589,0.0103776,10.252,-3.2123,10.588,-12.4319,18.1114,-35.592,0.572863,32.5039,3.98303,33.8073,-24.3072,10.6449,-14.1268,0.112569,0.0263386,-0.0870928,0.0146843,-1.8835,0.0725438,0.229986,-0.0536957,0.0954141,0.0565979,0.140418,-0.0281351,1.00781,-1.35977,0.000338556,0,0,0,0,0,0,0,21.0778,-29.7774,21.0355,14.4739,3.54919,-2.91419,0.0577852,
0.0309878,-0.0869901,0.0195014,-1.88798,0.0953917,0.199565,-0.053378,0.149586,0.0196179,0.154943,-0.131263,0.853846,-1.08521,0.0104506,10.019,-2.94171,10.37,-12.2318,17.0933,-30.8276,0.0456149,29.5826,3.53121,30.677,-23.4686,10.6449,-14.1268,0.116934,0.0263386,-0.0870928,0.0146843,-1.8835,0.0725438,0.229986,-0.0536957,0.0954141,0.0565979,0.140418,-0.0281351,1.00781,-1.35977,0.000338556,0,0,0,0,0,0,0,21.0778,-29.7774,21.0355,14.4739,3.54919,-2.91419,0.0577852,
0.0327264,-0.0869734,0.0213019,-1.88971,0.103345,0.189122,-0.0533739,0.163135,0.0161113,0.168965,-0.148261,0.881901,-1.12927,0.00846193,8.46775,-2.19164,8.76394,-10.6241,17.5346,-27.5346,-1.2429,26.5334,1.89225,27.4629,-23.8178,10.6449,-14.1268,0.0987137,0.0263386,-0.0870928,0.0146843,-1.8835,0.0725438,0.229986,-0.0536957,0.0954141,0.0565979,0.140418,-0.0281351,1.00781,-1.35977,0.000338556,0,0,0,0,0,0,0,21.0778,-29.7774,21.0355,14.4739,3.54919,-2.91419,0.0577852,
0.0344509,-0.0869203,0.0230907,-1.89143,0.111517,0.178507,-0.0534158,0.173619,0.0142173,0.179894,-0.161712,0.90983,-1.16879,0.00572233,6.55245,-1.18379,6.83061,-8.40663,17.4554,-24.6975,-1.71225,23.6884,1.99079,24.5012,-23.541,10.5906,-13.7814,0.00248509,0.0323041,-0.0855733,0.0207276,-1.88954,0.106163,0.180617,-0.0536311,0.224712,0.0458265,0.152561,-0.247703,1.07548,-1.60079,0.00583441,16.1623,-1.34642,1.5178,-27.446,8.45879,-30.1285,0.686982,17.4794,-28.4801,17.6355,25.8322,4.26422,-1.09138,0.0980684,
0.0359278,-0.0850558,0.0244717,-1.89433,0.122424,0.157505,-0.0535257,0.185628,0.0173561,0.192352,-0.191008,0.93024,-1.21555,0.00540429,7.50563,1.96181,7.78654,-18.3105,12.7561,-29.2309,-0.19878,31.0246,4.61484,32.2497,-30.1007,10.5906,-13.718,0.060253,0.0323041,-0.0855733,0.0207276,-1.88954,0.106163,0.180617,-0.0536311,0.224712,0.0458265,0.152561,-0.247703,1.07548,-1.60079,0.00583441,0,0,0,0,0,0,0,17.4794,-28.4801,17.6355,25.8322,4.26422,-1.09138,0.0980684,
0.0378176,-0.0848236,0.0264325,-1.89683,0.130619,0.146836,-0.0535779,0.195748,0.0196899,0.202901,-0.215369,0.949061,-1.23917,0.0030175,6.32523,1.45857,6.59284,-15.2253,11.7634,-14.7627,-1.49174,27.5285,2.9131,28.5657,-30.1854,10.5906,-12.837,0.0266059,0.0323041,-0.0855733,0.0207276,-1.88954,0.106163,0.180617,-0.0536311,0.224712,0.0458265,0.152561,-0.247703,1.07548,-1.60079,0.00583441,0,0,0,0,0,0,0,17.4794,-28.4801,17.6355,25.8322,4.26422,-1.09138,0.0980684,
0.0396828,-0.084581,0.0283684,-1.89931,0.138938,0.136664,-0.0536749,0.203228,0.0218172,0.210718,-0.234296,0.967231,-1.24562,-1.09448e-05,4.6748,1.32961,4.88561,-11.8295,11.3559,-4.02914,-1.89278,24.3302,2.423,25.2243,-29.7795,10.5906,-12.0853,-0.0703589,0.0323041,-0.0855733,0.0207276,-1.88954,0.106163,0.180617,-0.0536311,0.224712,0.0458265,0.152561,-0.247703,1.07548,-1.60079,0.00583441,0,0,0,0,0,0,0,17.4794,-28.4801,17.6355,25.8322,4.26422,-1.09138,0.0980684,
0.0476099,-0.0861322,0.0375835,-1.90783,0.162839,0.100932,-0.0537798,0.224425,0.0170352,0.232643,-0.271428,1.00687,-1.23689,-0.00321892,13.2483,-2.98878,13.703,-23.2075,24.7754,5.45686,-2.00498,26.9878,0.45674,28.0392,-36.4687,10.6854,-7.27746,-0.0581729,0.0425137,-0.0860309,0.03231,-1.90114,0.14417,0.122177,-0.0536017,0.370582,-0.00697476,0.323202,-0.362406,1.16471,-1.82986,-0.00242824,18.2337,-6.60016,21.3301,-14.3378,11.1536,-28.6328,-1.03283,4.77222,-29.0038,5.01161,22.9916,3.7323,-1.07765,0.11821,
0.0499293,-0.0860874,0.0399873,-1.91111,0.17211,0.092842,-0.053946,0.237525,0.014747,0.246208,-0.29914,1.03727,-1.19177,-0.00672921,8.18722,-1.43012,8.47824,-17.3199,19.0003,28.2013,-2.19393,23.7599,0.0349545,24.6433,-35.9525,10.6854,-6.22041,-0.153569,0.0425137,-0.0860309,0.03231,-1.90114,0.14417,0.122177,-0.0536017,0.370582,-0.00697476,0.323202,-0.362406,1.16471,-1.82986,-0.00242824,0,0,0,0,0,0,0,4.77222,-29.0038,5.01161,22.9916,3.7323,-1.07765,0.11821,
0.0521045,-0.0860098,0.0422425,-1.91429,0.181298,0.0859716,-0.0541113,0.2444,0.0137383,0.253348,-0.318797,1.0595,-1.12518,-0.0095149,4.29718,-0.630418,4.4624,-12.2858,13.8956,41.6207,-1.74106,21.7395,0.0244674,22.535,-35.2065,10.6854,-5.31983,-0.195898,0.0425137,-0.0860309,0.03231,-1.90114,0.14417,0.122177,-0.0536017,0.370582,-0.00697476,0.323202,-0.362406,1.16471,-1.82986,-0.00242824,0,0,0,0,0,0,0,4.77222,-29.0038,5.01161,22.9916,3.7323,-1.07765,0.11821,
0.0541504,-0.0859245,0.0443645,-1.91738,0.190384,0.0801596,-0.0542619,0.246667,0.0131224,0.255728,-0.332234,1.07476,-1.04544,-0.0113794,1.41665,-0.384984,1.48796,-8.39804,9.53766,49.8349,-1.16529,20.4856,-0.0452985,21.231,-34.5293,10.6854,-4.59979,-0.192052,0.0425137,-0.0860309,0.03231,-1.90114,0.14417,0.122177,-0.0536017,0.370582,-0.00697476,0.323202,-0.362406,1.16471,-1.82986,-0.00242824,0,0,0,0,0,0,0,4.77222,-29.0038,5.01161,22.9916,3.7323,-1.07765,0.11821,
0.047254,-0.0863425,0.0372146,-1.90912,0.163559,0.107987,-0.0541237,0.254009,0.00819119,0.263277,-0.366419,1.10172,-0.970718,-0.0157542,4.58872,-3.08198,4.71798,-21.3658,16.8473,46.7006,-2.73429,19.2767,0.0367722,20.1065,-40.5327,10.7225,3.01868,-0.316404,0.0572051,-0.0861892,0.047165,-1.91941,0.188431,0.061569,-0.0536158,0.46645,-0.072009,0.460943,-0.644019,1.42298,-1.63357,-0.000623803,11.9835,-8.12928,17.2177,-35.2017,32.2846,24.5356,0.225554,1.75708,-27.0598,2.41304,15.7434,2.86529,0.480581,0.0303194,
0.0493503,-0.0863224,0.0393859,-1.91301,0.173079,0.104948,-0.0543664,0.255613,0.00705352,0.264903,-0.390346,1.11938,-0.852548,-0.0186718,1.00254,-0.711044,1.01625,-14.9543,11.0361,73.8563,-1.82345,18.2008,-0.287401,18.9611,-39.9143,10.7225,3.73627,-0.323715,0.0572051,-0.0861892,0.047165,-1.91941,0.188431,0.061569,-0.0536158,0.46645,-0.072009,0.460943,-0.644019,1.42298,-1.63357,-0.000623803,0,0,0,0,0,0,0,1.75708,-27.0598,2.41304,15.7434,2.86529,0.480581,0.0303194,
0.0513023,-0.0862401,0.0414085,-1.91674,0.182415,0.103626,-0.0545772,0.253292,0.00770092,0.262487,-0.40547,1.1289,-0.715086,-0.0202072,-1.45047,0.404627,-1.5102,-9.45267,5.94844,85.9141,-0.959681,17.6751,-0.444545,18.3966,-39.2999,10.7225,4.20538,-0.292954,0.0572051,-0.0861892,0.047165,-1.91941,0.188431,0.061569,-0.0536158,0.46645,-0.072009,0.460943,-0.644019,1.42298,-1.63357,-0.000623803,0,0,0,0,0,0,0,1.75708,-27.0598,2.41304,15.7434,2.86529,0.480581,0.0303194,
0.0632444,-0.0862356,0.0534152,-1.92829,0.210302,0.0472661,-0.0541364,0.273551,0.00810374,0.28343,-0.431016,1.17189,-0.710479,-0.02251,12.6617,0.251759,13.0897,-15.9658,26.8733,2.87933,-1.4392,18.2008,-0.287401,18.9611,-39.9143,10.7225,3.73627,-0.323715,0.0572051,-0.0861892,0.047165,-1.91941,0.188431,0.061569,-0.0536158,0.46645,-0.072009,0.460943,-0.644019,1.42298,-1.63357,-0.000623803,0,0,0,0,0,0,0,1.75708,-27.0598,2.41304,15.7434,2.86529,0.480581,0.0303194,
0.0657827,-0.0860766,0.0560453,-1.93229,0.220656,0.0441547,-0.0543575,0.282299,0.0104585,0.292498,-0.44472,1.19636,-0.646168,-0.0235365,5.46748,1.47171,5.66704,-8.56506,15.2908,40.1944,-0.641557,17.7682,-1.24013,18.5549,-38.4027,10.5767,4.67517,-0.300754,0.0737799,-0.0861582,0.0645235,-1.9469,0.238124,0.0188909,-0.0537943,0.419824,-0.079152,0.607501,-0.861529,1.4638,-0.900777,-0.0140087,-5.82822,-0.892877,18.3198,-27.1888,5.10243,91.5992,-1.67311,1.72931,-25.2348,1.56404,17.7866,0.263363,4.12072,-0.170181,
0.0680776,-0.0858972,0.0584245,-1.93607,0.23063,0.0429871,-0.0545454,0.283211,0.0128505,0.293478,-0.450423,1.20645,-0.546125,-0.0235272,0.569978,1.49504,0.612632,-3.56471,6.30889,62.5269,0.00578934,17.3743,-1.25233,18.1322,-37.779,10.5767,5.15223,-0.260045,0.0737799,-0.0861582,0.0645235,-1.9469,0.238124,0.0188909,-0.0537943,0.419824,-0.079152,0.607501,-0.861529,1.4638,-0.900777,-0.0140087,0,0,0,0,0,0,0,1.72931,-25.2348,1.56404,17.7866,0.263363,4.12072,-0.170181,
0.0701769,-0.0857306,0.060602,-1.93972,0.240267,0.0436834,-0.0547029,0.279051,0.0144462,0.28922,-0.451533,1.20609,-0.419492,-0.0227577,-2.59955,0.997267,-2.66142,-0.693397,-0.228474,79.1457,0.480943,16.9794,-1.12503,17.7147,-37.1154,10.5767,5.97761,-0.220515,0.0737799,-0.0861582,0.0645235,-1.9469,0.238124,0.0188909,-0.0537943,0.419824,-0.079152,0.607501,-0.861529,1.4638,-0.900777,-0.0140087,0,0,0,0,0,0,0,1.72931,-25.2348,1.56404,17.7866,0.263363,4.12072,-0.170181,
0.0803008,-0.0856045,0.0713112,-1.95618,0.259781,0.00980432,-0.0542774,0.299133,0.0204626,0.310177,-0.468731,1.23042,-0.422555,-0.0239893,12.5508,3.76026,13.0986,-10.7488,15.2098,-1.91453,-0.769733,17.7682,-1.24013,18.5549,-38.4027,10.5767,4.67517,-0.300754,0.0737799,-0.0861582,0.0645235,-1.9469,0.238124,0.0188909,-0.0537943,0.419824,-0.079152,0.607501,-0.861529,1.4638,-0.900777,-0.0140087,0,0,0,0,0,0,0,1.72931,-25.2348,1.56404,17.7866,0.263363,4.12072,-0.170181,
0.0829718,-0.0852607,0.074085,-1.96014,0.27001,0.00828158,-0.0544747,0.306081,0.0249665,0.317487,-0.473963,1.24005,-0.376113,-0.0241238,4.3427,2.81493,4.56843,-3.26978,6.01734,29.0265,-0.0841176,17.3743,-1.25233,18.1322,-37.779,10.5767,5.15223,-0.260045,0.0737799,-0.0861582,0.0645235,-1.9469,0.238124,0.0188909,-0.0537943,0.419824,-0.079152,0.607501,-0.861529,1.4638,-0.900777,-0.0140087,0,0,0,0,0,0,0,1.72931,-25.2348,1.56404,17.7866,0.263363,4.12072,-0.170181,
0.0853577,-0.084976,0.0765632,-1.9639,0.279863,0.00869905,-0.0546395,0.304513,0.0270902,0.315944,-0.473179,1.23837,-0.290453,-0.0234202,-0.979849,1.32729,-0.964125,0.489675,-1.04829,53.5371,0.439762,16.9058,-1.58176,17.7035,-36.5686,10.3592,6.2842,-0.226549,0.0910196,-0.0859619,0.083217,-1.98025,0.290105,0.00655282,-0.0545976,0.410853,0.0221483,0.65908,-0.965192,1.55409,-0.284992,-0.0162124,-1.1214,12.6625,6.44736,-12.9579,11.2859,76.9731,-0.275467,-1.03589,-27.282,-1.53838,25.9552,1.78405,2.82799,-0.210464,
0.0875167,-0.0847535,0.0788065,-1.9675,0.28937,0.0108606,-0.054777,0.297585,0.0272345,0.308836,-0.46862,1.22838,-0.178323,-0.0221729,-4.33028,0.0902021,-4.44226,2.84953,-6.24491,70.0812,0.779586,16.4866,-1.41849,17.2706,-35.8953,10.3592,8.09852,-0.191489,0.0910196,-0.0859619,0.083217,-1.98025,0.290105,0.00655282,-0.0545976,0.410853,0.0221483,0.65908,-0.965192,1.55409,-0.284992,-0.0162124,0,0,0,0,0,0,0,-1.03589,-27.282,-1.53838,25.9552,1.78405,2.82799,-0.210464,
0.0977101,-0.0842104,0.0902043,-1.98984,0.311839,0.00267513,-0.0550262,0.315549,0.0432074,0.327704,-0.484354,1.24644,-0.175696,-0.0228469,11.2277,9.98309,11.7921,-9.83391,11.2856,1.64188,-0.421279,17.3006,-1.70907,18.121,-37.2322,10.3592,5.45882,-0.266079,0.0910196,-0.0859619,0.083217,-1.98025,0.290105,0.00655282,-0.0545976,0.410853,0.0221483,0.65908,-0.965192,1.55409,-0.284992,-0.0162124,0,0,0,0,0,0,0,-1.03589,-27.282,-1.53838,25.9552,1.78405,2.82799,-0.210464,
0.100418,-0.0835302,0.0930219,-1.99386,0.321897,0.00305264,-0.0551982,0.320146,0.0515709,0.332602,-0.487841,1.24861,-0.131119,-0.0225761,2.87308,5.22714,3.06128,-2.17912,1.3548,27.8606,0.169264,16.9058,-1.58176,17.7035,-36.5686,10.3592,6.2842,-0.226549,0.0910196,-0.0859619,0.083217,-1.98025,0.290105,0.00655282,-0.0545976,0.410853,0.0221483,0.65908,-0.965192,1.55409,-0.284992,-0.0162124,0,0,0,0,0,0,0,-1.03589,-27.282,-1.53838,25.9552,1.78405,2.82799,-0.210464,
0.102821,-0.0830204,0.0955218,-1.99764,0.33153,0.00509487,-0.0553411,0.316187,0.0540012,0.328579,-0.484765,1.2397,-0.0538396,-0.0216342,-2.47437,1.51896,-2.51455,1.92253,-5.5643,48.2998,0.5887,16.3932,-1.6153,17.2269,-35.5452,10.1697,8.3529,-0.195292,0.109343,-0.0841031,0.101723,-2.01286,0.344596,0.00437667,-0.0553053,0.430066,0.160066,0.688115,-0.96355,1.63954,0.0284367,-0.0264847,2.4016,17.2397,3.62937,0.205228,10.6817,39.1786,-1.28403,-2.63073,-34.8436,-2.78807,27.8,0.745846,2.29058,-0.163772,
0.116232,-0.0811992,0.108926,-2.02263,0.366624,0.00416996,-0.0556851,0.332445,0.0759875,0.345659,-0.499746,1.25621,-0.0326235,-0.0217673,10.161,13.7414,10.6751,-9.36341,10.3143,13.2601,-0.0832226,16.8124,-1.77858,17.6598,-36.2185,10.1697,6.53858,-0.230352,0.109343,-0.0841031,0.101723,-2.01286,0.344596,0.00437667,-0.0553053,0.430066,0.160066,0.688115,-0.96355,1.63954,0.0284367,-0.0264847,0,0,0,0,0,0,0,-2.63073,-34.8436,-2.78807,27.8,0.745846,2.29058,-0.163772,
0.118992,-0.0802156,0.111799,-2.02671,0.376572,0.00603193,-0.0558344,0.334938,0.0853804,0.348341,-0.501694,1.25365,0.0204505,-0.021145,1.55819,5.8706,1.67621,-1.21722,-1.59641,33.1713,0.388979,16.3932,-1.6153,17.2269,-35.5452,10.1697,8.3529,-0.195292,0.109343,-0.0841031,0.101723,-2.01286,0.344596,0.00437667,-0.0553053,0.430066,0.160066,0.688115,-0.96355,1.63954,0.0284367,-0.0264847,0,0,0,0,0,0,0,-2.63073,-34.8436,-2.78807,27.8,0.745846,2.29058,-0.163772,
0.121423,-0.0795033,0.11433,-2.03051,0.38602,0.00930343,-0.0559562,0.328732,0.0861128,0.341951,-0.496388,1.23912,0.0981478,-0.0199613,-3.87837,0.457722,-3.99362,3.3157,-9.08343,48.5608,0.739776,15.999,-1.57067,16.8128,-34.9909,10.1697,9.73474,-0.165448,0.109343,-0.0841031,0.101723,-2.01286,0.344596,0.00437667,-0.0553053,0.430066,0.160066,0.688115,-0.96355,1.63954,0.0284367,-0.0264847,0,0,0,0,0,0,0,-2.63073,-34.8436,-2.78807,27.8,0.745846,2.29058,-0.163772,
0.123595,-0.0789981,0.116592,-2.03409,0.395067,0.0138211,-0.0560536,0.317301,0.0815207,0.330124,-0.486623,1.21748,0.19146,-0.0184049,-7.14492,-2.87004,-7.39198,6.10314,-13.5266,58.3202,0.972758,15.5779,-2.11366,16.4061,-34.2312,9.97554,10.7991,-0.138861,0.128655,-0.0816219,0.119143,-2.04538,0.399011,0.010966,-0.0555959,0.640332,0.114588,0.448719,-0.936505,1.55728,0.333529,-0.00548588,26.2833,-5.6847,-29.9245,3.38071,-10.2828,38.1366,2.62485,-1.82141,-34.07,-1.58599,29.0695,1.31988,3.47069,-0.210464,
0.135321,-0.0792533,0.126062,-2.0547,0.419924,0.014697,-0.0559129,0.330441,0.0920247,0.343865,-0.495683,1.22506,0.209229,-0.0184944,8.21263,6.56501,8.58861,-5.66202,4.73744,11.1058,-0.0559009,16.3259,-2.19044,17.1972,-35.276,9.97554,8.42476,-0.196153,0.128655,-0.0816219,0.119143,-2.04538,0.399011,0.010966,-0.0555959,0.640332,0.114588,0.448719,-0.936505,1.55728,0.333529,-0.00548588,0,0,0,0,0,0,0,-1.82141,-34.07,-1.58599,29.0695,1.31988,3.47069,-0.210464,
0.137977,-0.0784656,0.128829,-2.05857,0.429404,0.0180981,-0.056038,0.330764,0.0933122,0.344246,-0.493325,1.21704,0.252413,-0.0179214,0.201966,0.804672,0.238007,1.47369,-5.00749,26.9899,0.358087,15.9317,-2.1458,16.783,-34.7217,9.97554,9.80659,-0.166309,0.128655,-0.0816219,0.119143,-2.04538,0.399011,0.010966,-0.0555959,0.640332,0.114588,0.448719,-0.936505,1.55728,0.333529,-0.00548588,0,0,0,0,0,0,0,-1.82141,-34.07,-1.58599,29.0695,1.31988,3.47069,-0.210464,
0.140318,-0.0779136,0.131266,-2.06218,0.438452,0.0226449,-0.056138,0.323115,0.0884505,0.336332,-0.485047,1.19982,0.3156,-0.0168392,-4.7806,-3.03858,-4.94653,5.17332,-10.7657,39.4918,0.676367,15.5779,-2.11366,16.4061,-34.2312,9.97554,10.7991,-0.138861,0.128655,-0.0816219,0.119143,-2.04538,0.399011,0.010966,-0.0555959,0.640332,0.114588,0.448719,-0.936505,1.55728,0.333529,-0.00548588,0,0,0,0,0,0,0,-1.82141,-34.07,-1.58599,29.0695,1.31988,3.47069,-0.210464,
0.142412,-0.0775387,0.133448,-2.06559,0.447092,0.0281862,-0.0562148,0.310857,0.0801336,0.323614,-0.473199,1.17587,0.391013,-0.0153899,-7.66146,-5.19803,-7.9486,7.40518,-14.9698,47.1329,0.905858,15.3393,-2.54096,16.1916,-33.4889,9.84158,11.5393,-0.115164,0.146355,-0.079219,0.139842,-2.07809,0.452907,0.0322506,-0.0558424,0.79725,0.0214012,0.30066,-0.953866,1.49598,0.891911,-0.0035743,19.6148,-11.6484,-18.5074,-2.17021,-7.66251,69.7977,0.238948,-5.09045,-30.9041,-5.50963,25.0348,1.79046,2.01867,-0.163772,
0.152954,-0.077633,0.146663,-2.08686,0.472833,0.0414186,-0.0561108,0.323929,0.082671,0.337284,-0.477358,1.18039,0.427106,-0.0155229,8.1705,1.58584,8.54363,-2.59923,2.82773,22.5584,-0.0831698,16.007,-2.65623,16.9059,-34.4465,9.84158,9.84816,-0.167778,0.146355,-0.079219,0.139842,-2.07809,0.452907,0.0322506,-0.0558424,0.79725,0.0214012,0.30066,-0.953866,1.49598,0.891911,-0.0035743,0,0,0,0,0,0,0,-5.09045,-30.9041,-5.50963,25.0348,1.79046,2.01867,-0.163772,
0.155544,-0.0771038,0.149362,-2.09045,0.481953,0.0466067,-0.056216,0.323893,0.0793668,0.337297,-0.471655,1.17231,0.471386,-0.0150491,-0.0226795,-2.06513,0.00823382,3.56459,-5.05171,27.6748,0.296173,15.6532,-2.62408,16.5289,-33.9561,9.84158,10.8407,-0.14033,0.146355,-0.079219,0.139842,-2.07809,0.452907,0.0322506,-0.0558424,0.79725,0.0214012,0.30066,-0.953866,1.49598,0.891911,-0.0035743,0,0,0,0,0,0,0,-5.09045,-30.9041,-5.50963,25.0348,1.79046,2.01867,-0.163772,
0.157817,-0.0767579,0.151731,-2.09381,0.490651,0.0525135,-0.0562967,0.315939,0.0721423,0.329051,-0.46145,1.15531,0.524781,-0.0140567,-4.97158,-4.51529,-5.15383,6.37797,-10.6255,33.3718,0.620233,15.3393,-2.54096,16.1916,-33.4889,9.84158,11.5393,-0.115164,0.146355,-0.079219,0.139842,-2.07809,0.452907,0.0322506,-0.0558424,0.79725,0.0214012,0.30066,-0.953866,1.49598,0.891911,-0.0035743,0,0,0,0,0,0,0,-5.09045,-30.9041,-5.50963,25.0348,1.79046,2.01867,-0.163772,
0.159852,-0.0765489,0.15385,-2.09699,0.49883,0.0590754,-0.0563548,0.303622,0.0629383,0.316229,-0.448651,1.1287,0.58387,-0.0126974,-7.69786,-5.75248,-8.01371,7.99934,-16.6294,36.9309,0.849579,15.1787,-2.6892,16.0551,-32.8564,9.5453,11.9496,-0.0911103,0.162108,-0.0773324,0.162491,-2.10999,0.504733,0.0682294,-0.0559417,0.405928,-0.0195,0.72145,-0.944775,1.44604,1.23647,-0.00486985,-48.9153,-5.11265,52.5987,1.13646,-6.24277,43.0695,-0.161944,-2.63073,-31.3762,-4.16075,22.6663,3.00628,-0.0696505,-0.0905302,
0.168778,-0.076106,0.169481,-2.11841,0.523618,0.0808894,-0.0561596,0.318902,0.0649814,0.332259,-0.453309,1.13116,0.61814,-0.0128728,9.5498,1.2769,10.0187,-2.91109,1.5403,21.4185,-0.109623,15.7724,-2.91921,16.6954,-33.7873,9.78892,10.8331,-0.140349,0.162108,-0.0773324,0.162491,-2.10999,0.504733,0.0682294,-0.0559417,0.405928,-0.0195,0.72145,-0.944775,1.44604,1.23647,-0.00486985,0,0,0,0,0,0,0,-2.63073,-31.3762,-4.16075,22.6663,3.00628,-0.0696505,-0.0905302,
0.17137,-0.0757033,0.172184,-2.12183,0.532322,0.0871406,-0.0562459,0.319929,0.062054,0.333369,-0.448178,1.12253,0.650793,-0.0124565,0.642053,-1.82963,0.694128,3.20652,-5.3937,20.408,0.260158,15.4585,-2.83609,16.358,-33.3202,9.78892,11.5318,-0.115183,0.162108,-0.0773324,0.162491,-2.10999,0.504733,0.0682294,-0.0559417,0.405928,-0.0195,0.72145,-0.944775,1.44604,1.23647,-0.00486985,0,0,0,0,0,0,0,-2.63073,-31.3762,-4.16075,22.6663,3.00628,-0.0696505,-0.0905302,
0.173634,-0.0754605,0.174542,-2.12504,0.540515,0.0938038,-0.0563081,0.312528,0.0557126,0.325653,-0.438591,1.10285,0.687215,-0.01152,-4.62573,-3.96337,-4.82297,5.99217,-12.3002,22.7642,0.585297,15.1787,-2.6892,16.0551,-32.8564,9.5453,11.9496,-0.0911103,0.162108,-0.0773324,0.162491,-2.10999,0.504733,0.0682294,-0.0559417,0.405928,-0.0195,0.72145,-0.944775,1.44604,1.23647,-0.00486985,0,0,0,0,0,0,0,-2.63073,-31.3762,-4.16075,22.6663,3.00628,-0.0696505,-0.0905302,
0.16878,-0.0760876,0.169479,-2.11839,0.52355,0.0812618,-0.05612,0.326035,0.0595232,0.339749,-0.444743,1.10877,0.705877,-0.0114364,8.44223,2.38165,8.81001,-3.84497,3.69479,11.6634,0.0522825,15.4707,-2.94769,16.386,-33.3312,9.7617,11.4653,-0.115002,0.182741,-0.0747617,0.179166,-2.14096,0.554993,0.112921,-0.0559503,0.304539,0.0644558,0.774155,-0.914758,1.43102,1.39554,0.000713382,-12.6736,10.4945,6.58814,3.75206,-1.87733,19.8842,0.697904,-3.16235,-32.6735,-3.53789,28.0222,2.85339,1.62041,-0.143631,
0.171373,-0.0756691,0.172179,-2.12177,0.532012,0.0876876,-0.0561877,0.325664,0.0580801,0.339307,-0.440187,1.09855,0.725347,-0.0108416,-0.232116,-0.901937,-0.276141,2.84699,-6.38468,12.1686,0.371717,15.1908,-2.80081,16.083,-32.8675,9.51808,11.8831,-0.0909292,0.182741,-0.0747617,0.179166,-2.14096,0.554993,0.112921,-0.0559503,0.304539,0.0644558,0.774155,-0.914758,1.43102,1.39554,0.000713382,0,0,0,0,0,0,0,-3.16235,-32.6735,-3.53789,28.0222,2.85339,1.62041,-0.143631,
0.173632,-0.075411,0.174531,-2.12492,0.539884,0.0944632,-0.0562337,0.317004,0.0529167,0.330239,-0.430843,1.07565,0.749666,-0.0098229,-5.41265,-3.22716,-5.66744,5.84037,-14.3158,15.1999,0.636711,14.9363,-2.60037,15.8065,-32.4021,8.79964,12.099,-0.0688807,0.182741,-0.0747617,0.179166,-2.14096,0.554993,0.112921,-0.0559503,0.304539,0.0644558,0.774155,-0.914758,1.43102,1.39554,0.000713382,0,0,0,0,0,0,0,-3.16235,-32.6735,-3.53789,28.0222,2.85339,1.62041,-0.143631,
0.175636,-0.0752721,0.176618,-2.12789,0.547188,0.10158,-0.0562599,0.303707,0.0458064,0.31638,-0.419123,1.04312,0.777665,-0.00851336,-8.31024,-4.4439,-8.66207,7.32521,-20.3316,17.4992,0.81846,14.7038,-2.36436,15.5529,-31.936,8.19366,12.1113,-0.0488448,0.182741,-0.0747617,0.179166,-2.14096,0.554993,0.112921,-0.0559503,0.304539,0.0644558,0.774155,-0.914758,1.43102,1.39554,0.000713382,0,0,0,0,0,0,0,-3.16235,-32.6735,-3.53789,28.0222,2.85339,1.62041,-0.143631,
0.189086,-0.0728997,0.185834,-2.1493,0.572783,0.12767,-0.0560732,0.315333,0.0575443,0.32856,-0.428643,1.04517,0.79571,-0.00839188,7.26614,7.33614,7.6129,-5.95025,1.28424,11.2781,0.0759231,15.1908,-2.80081,16.083,-32.8675,9.51808,11.8831,-0.0909292,0.182741,-0.0747617,0.179166,-2.14096,0.554993,0.112921,-0.0559503,0.304539,0.0644558,0.774155,-0.914758,1.43102,1.39554,0.000713382,0,0,0,0,0,0,0,-3.16235,-32.6735,-3.53789,28.0222,2.85339,1.62041,-0.143631,
0.191555,-0.0723238,0.188406,-2.15265,0.580532,0.134533,-0.056119,0.313999,0.060432,0.327157,-0.426659,1.02985,0.80813,-0.00785875,-0.834151,1.80484,-0.877215,1.23969,-9.57517,7.76252,0.333209,14.8132,-2.7454,15.6872,-32.4444,8.78008,12.0268,-0.0675731,0.201592,-0.0720494,0.195834,-2.17061,0.603509,0.161751,-0.0559499,0.687759,0.12453,0.347067,-0.845955,1.36352,1.42413,0.000927531,47.9025,7.50931,-53.3859,8.6004,-8.43762,3.57329,0.0267686,-0.908932,-32.975,-1.28844,28.5736,2.32788,1.35583,-0.150955,
0.193708,-0.0719573,0.190649,-2.15577,0.587692,0.14155,-0.0561452,0.305017,0.057508,0.317791,-0.419249,1.00289,0.821939,-0.00694309,-5.61352,-1.82752,-5.85351,4.63174,-16.8476,8.63035,0.572287,14.5807,-2.50939,15.4336,-31.9783,8.1741,12.039,-0.0475372,0.201592,-0.0720494,0.195834,-2.17061,0.603509,0.161751,-0.0559499,0.687759,0.12453,0.347067,-0.845955,1.36352,1.42413,0.000927531,0,0,0,0,0,0,0,-0.908932,-32.975,-1.28844,28.5736,2.32788,1.35583,-0.150955,
0.19562,-0.0717407,0.192642,-2.15871,0.594334,0.148757,-0.0561529,0.291816,0.0514235,0.304064,-0.408999,0.968361,0.83772,-0.00574694,-8.25067,-3.80278,-8.57956,6.40611,-21.5825,9.86324,0.747592,14.3751,-2.25455,15.2083,-31.5125,7.65455,11.9286,-0.028517,0.201592,-0.0720494,0.195834,-2.17061,0.603509,0.161751,-0.0559499,0.687759,0.12453,0.347067,-0.845955,1.36352,1.42413,0.000927531,0,0,0,0,0,0,0,-0.908932,-32.975,-1.28844,28.5736,2.32788,1.35583,-0.150955,
0.207634,-0.0699456,0.202096,-2.17867,0.620155,0.177031,-0.0560315,0.301934,0.063931,0.314612,-0.418207,0.969808,0.84948,-0.00560363,6.32386,7.81715,6.59268,-5.75502,0.904073,7.34999,0.0895712,14.8132,-2.7454,15.6872,-32.4444,8.78008,12.0268,-0.0675731,0.201592,-0.0720494,0.195834,-2.17061,0.603509,0.161751,-0.0559499,0.687759,0.12453,0.347067,-0.845955,1.36352,1.42413,0.000927531,0,0,0,0,0,0,0,-0.908932,-32.975,-1.28844,28.5736,2.32788,1.35583,-0.150955,
0.209975,-0.0693279,0.204536,-2.18195,0.62726,0.184017,-0.0560564,0.300093,0.0665865,0.312681,-0.416621,0.953453,0.854239,-0.00510629,-1.15073,1.6597,-1.20677,0.991094,-10.2221,2.97443,0.310834,14.8096,-2.78757,15.7022,-31.9759,8.22386,11.9441,-0.0463886,0.215101,-0.0708664,0.218132,-2.19915,0.6479,0.21151,-0.0559523,0.701725,0.00411021,0.3244,-0.880619,1.36098,1.50961,0.000871733,1.74573,-15.0525,-2.8334,-4.33302,-0.317898,10.6853,-0.00697478,-3.4956,-30.9041,-4.73601,23.3408,1.74743,1.82641,-0.0969389,
0.212022,-0.0689338,0.206669,-2.18501,0.63381,0.191054,-0.0560635,0.291247,0.0631223,0.303473,-0.409774,0.926519,0.859332,-0.00426145,-5.52892,-2.16512,-5.75539,4.27937,-16.8338,3.1829,0.528031,14.604,-2.53273,15.4769,-31.5102,7.70431,11.8337,-0.0273684,0.215101,-0.0708664,0.218132,-2.19915,0.6479,0.21151,-0.0559523,0.701725,0.00411021,0.3244,-0.880619,1.36098,1.50961,0.000871733,0,0,0,0,0,0,0,-3.4956,-30.9041,-4.73601,23.3408,1.74743,1.82641,-0.0969389,
0.221084,-0.0696828,0.224319,-2.2069,0.66356,0.226975,-0.0559809,0.300704,0.0641737,0.313246,-0.414152,0.923366,0.867153,-0.00389507,5.91074,0.657121,6.10825,-2.73637,-1.97023,4.88859,0.228982,14.8096,-2.78757,15.7022,-31.9759,8.22386,11.9441,-0.0463886,0.215101,-0.0708664,0.218132,-2.19915,0.6479,0.21151,-0.0559523,0.701725,0.00411021,0.3244,-0.880619,1.36098,1.50961,0.000871733,0,0,0,0,0,0,0,-3.4956,-30.9041,-4.73601,23.3408,1.74743,1.82641,-0.0969389,
0.223394,-0.0693193,0.226725,-2.21001,0.670198,0.2339,-0.055989,0.298309,0.0604266,0.310727,-0.409016,0.904627,0.866836,-0.00331973,-1.49674,-2.34193,-1.57455,3.21018,-11.7122,-0.198718,0.35959,14.604,-2.53273,15.4769,-31.5102,7.70431,11.8337,-0.0273684,0.215101,-0.0708664,0.218132,-2.19915,0.6479,0.21151,-0.0559523,0.701725,0.00411021,0.3244,-0.880619,1.36098,1.50961,0.000871733,0,0,0,0,0,0,0,-3.4956,-30.9041,-4.73601,23.3408,1.74743,1.82641,-0.0969389,
0.225408,-0.0691069,0.228825,-2.21292,0.67634,0.240822,-0.0559819,0.289008,0.053651,0.301081,-0.399996,0.877258,0.866523,-0.00247932,-5.81282,-4.23475,-6.02833,5.63779,-17.1053,-0.195096,0.525257,14.3842,-2.4081,15.2617,-30.9909,7.3181,11.5582,-0.00672061,0.232551,-0.0699457,0.236171,-2.22667,0.689512,0.264202,-0.0559466,0.179866,0.0457873,0.884174,-0.794889,1.27094,1.6032,0.000713426,-65.2324,5.20963,69.9717,10.7162,-11.255,11.699,-0.0197884,-1.44055,-28.0318,-2.23662,23.1186,1.87011,0.427481,-0.0905302,
0.227201,-0.0690011,0.230698,-2.21568,0.681924,0.247796,-0.0559562,0.276035,0.0455644,0.287699,-0.388898,0.841403,0.867573,-0.00133945,-8.10833,-5.05412,-8.36424,6.93582,-22.4094,0.655975,0.712421,14.1853,-2.14998,15.0506,-30.5345,6.93285,11.2664,0.00984868,0.232551,-0.0699457,0.236171,-2.22667,0.689512,0.264202,-0.0559466,0.179866,0.0457873,0.884174,-0.794889,1.27094,1.6032,0.000713426,0,0,0,0,0,0,0,-1.44055,-28.0318,-2.23662,23.1186,1.87011,0.427481,-0.0905302,
0.238586,-0.0686214,0.242534,-2.23404,0.703809,0.280629,-0.0559455,0.289146,0.0508284,0.301353,-0.394177,0.839899,0.881682,-0.00123366,8.19411,3.28999,8.53413,-3.29908,-0.939954,8.8181,0.0661184,14.5748,-2.6684,15.4712,-31.4529,7.74113,11.7873,-0.0255062,0.232551,-0.0699457,0.236171,-2.22667,0.689512,0.264202,-0.0559466,0.179866,0.0457873,0.884174,-0.794889,1.27094,1.6032,0.000713426,0,0,0,0,0,0,0,-1.44055,-28.0318,-2.23662,23.1186,1.87011,0.427481,-0.0905302,
0.240891,-0.0682569,0.244936,-2.23706,0.709924,0.287634,-0.055941,0.288932,0.0497756,0.301131,-0.390789,0.824814,0.880487,-0.000873568,-0.133409,-0.658018,-0.139061,2.11763,-9.42845,-0.746814,0.225055,14.3842,-2.4081,15.2617,-30.9909,7.3181,11.5582,-0.00672061,0.232551,-0.0699457,0.236171,-2.22667,0.689512,0.264202,-0.0559466,0.179866,0.0457873,0.884174,-0.794889,1.27094,1.6032,0.000713426,0,0,0,0,0,0,0,-1.44055,-28.0318,-2.23662,23.1186,1.87011,0.427481,-0.0905302,
0.242887,-0.0680515,0.24702,-2.23989,0.715474,0.294473,-0.0559171,0.281053,0.0449548,0.293007,-0.3833,0.798582,0.875366,-0.000101834,-4.92452,-3.01299,-5.07709,4.6806,-16.3946,-3.20071,0.482334,13.9195,-2.18765,14.7798,-30.6415,6.93903,11.2015,0.0130732,0.254311,-0.0680316,0.249168,-2.25329,0.72806,0.319539,-0.0559372,0.710273,0.115776,0.319911,-0.727157,0.99841,1.58418,-9.58383e-05,66.3009,8.74861,-70.5329,8.46654,-34.0657,-2.3774,-0.101158,-1.79364,-31.4,-2.03826,29.617,1.89483,1.09032,-0.0905302,
0.260049,-0.0663763,0.255118,-2.26054,0.740029,0.335733,-0.0559196,0.28906,0.0533463,0.301435,-0.389418,0.780489,0.884777,0.000104697,5.00405,5.24468,5.26754,-3.82415,-11.3086,5.88221,0.129082,14.1184,-2.44578,14.9909,-31.0978,7.32428,11.4934,-0.00349612,0.254311,-0.0680316,0.249168,-2.25329,0.72806,0.319539,-0.0559372,0.710273,0.115776,0.319911,-0.727157,0.99841,1.58418,-9.58383e-05,0,0,0,0,0,0,0,-1.79364,-31.4,-2.03826,29.617,1.89483,1.09032,-0.0905302,
0.262218,-0.0659261,0.257384,-2.26355,0.745199,0.34255,-0.0558961,0.285462,0.0539319,0.297791,-0.386798,0.753636,0.878248,0.000672759,-2.24864,0.366043,-2.27766,1.63795,-16.7826,-4.08098,0.355039,13.9195,-2.18765,14.7798,-30.6415,6.93903,11.2015,0.0130732,0.254311,-0.0680316,0.249168,-2.25329,0.72806,0.319539,-0.0559372,0.710273,0.115776,0.319911,-0.727157,0.99841,1.58418,-9.58383e-05,0,0,0,0,0,0,0,-1.79364,-31.4,-2.03826,29.617,1.89483,1.09032,-0.0905302,
0.2641,-0.0656544,0.259353,-2.26637,0.749926,0.349152,-0.0558596,0.275426,0.0499387,0.287461,-0.379974,0.721094,0.86764,0.00144938,-6.27202,-2.49576,-6.45622,4.26487,-20.3391,-6.62966,0.485385,13.7044,-1.93057,14.5863,-30.1868,6.11857,10.8575,0.0314481,0.254311,-0.0680316,0.249168,-2.25329,0.72806,0.319539,-0.0559372,0.710273,0.115776,0.319911,-0.727157,0.99841,1.58418,-9.58383e-05,0,0,0,0,0,0,0,-1.79364,-31.4,-2.03826,29.617,1.89483,1.09032,-0.0905302,
0.265772,-0.065504,0.261105,-2.26904,0.754139,0.355662,-0.0558098,0.262126,0.0437113,0.273758,-0.370735,0.68221,0.856865,0.00240544,-8.31291,-3.89211,-8.56463,5.77406,-24.3024,-6.73451,0.597538,13.5424,-1.95373,14.4485,-29.8761,5.5682,10.3336,0.0458849,0.263866,-0.066616,0.273382,-2.27896,0.76306,0.37532,-0.055926,0.539826,0.038607,0.388078,-0.719497,0.899868,1.6171,0.000736689,-21.3058,-9.64614,8.52089,0.957552,-12.3177,4.11445,0.104066,-2.47998,-30.7256,-4.48607,23.4399,2.30957,0.93743,-0.103348,
0.269036,-0.0655882,0.278776,-2.28591,0.773427,0.391782,-0.0558627,0.2678,0.0461278,0.279832,-0.375302,0.667502,0.872367,0.00262895,3.54654,1.51029,3.7967,-2.85442,-9.19252,9.68853,0.139695,14.0147,-2.46405,14.9023,-30.7799,6.99771,11.0627,0.0153767,0.263866,-0.066616,0.273382,-2.27896,0.76306,0.37532,-0.055926,0.539826,0.038607,0.388078,-0.719497,0.899868,1.6171,0.000736689,0,0,0,0,0,0,0,-2.47998,-30.7256,-4.48607,23.4399,2.30957,0.93743,-0.103348,
0.271009,-0.0653082,0.280844,-2.28877,0.77792,0.398636,-0.0558272,0.263579,0.0439033,0.27557,-0.371955,0.646346,0.869245,0.00298901,-2.63832,-1.39034,-2.66419,2.092,-13.2223,-1.95097,0.225039,13.7996,-2.20697,14.7088,-30.3252,6.17725,10.7187,0.0337517,0.263866,-0.066616,0.273382,-2.27896,0.76306,0.37532,-0.055926,0.539826,0.038607,0.388078,-0.719497,0.899868,1.6171,0.000736689,0,0,0,0,0,0,0,-2.47998,-30.7256,-4.48607,23.4399,2.30957,0.93743,-0.103348,
0.272735,-0.0651548,0.282655,-2.29147,0.781979,0.405211,-0.0557785,0.254009,0.0389587,0.265738,-0.364876,0.618538,0.85977,0.00361051,-5.98131,-3.09039,-6.14456,4.42435,-17.3801,-5.92197,0.388437,13.5424,-1.95373,14.4485,-29.8761,5.5682,10.3336,0.0458849,0.263866,-0.066616,0.273382,-2.27896,0.76306,0.37532,-0.055926,0.539826,0.038607,0.388078,-0.719497,0.899868,1.6171,0.000736689,0,0,0,0,0,0,0,-2.47998,-30.7256,-4.48607,23.4399,2.30957,0.93743,-0.103348,
0.274279,-0.065089,0.284279,-2.29402,0.785508,0.411641,-0.0557111,0.241809,0.03281,0.253173,-0.355821,0.58307,0.848567,0.00457155,-7.62521,-3.84289,-7.85356,5.65945,-22.1676,-7.00213,0.600647,13.4615,-1.9122,14.3796,-29.3256,4.86366,9.81911,0.058766,0.284233,-0.066065,0.285454,-2.30488,0.793914,0.430571,-0.0559129,0.143982,-0.0749969,0.799515,-0.765486,0.901677,1.57278,0.00161853,-49.4805,-14.2005,51.4296,-5.74871,0.226016,-5.53927,0.11023,-1.61908,-26.3616,-2.16124,15.5927,2.43225,0.440298,0.0376436,
0.289462,-0.0657729,0.290982,-2.31172,0.803056,0.44593,-0.0558032,0.252519,0.0305264,0.264282,-0.361118,0.57331,0.851677,0.00464436,6.69434,-1.42727,6.94323,-3.31084,-6.09966,1.94394,0.0455113,13.9812,-2.41394,14.8984,-30.2221,6.30974,10.6064,0.0348898,0.284233,-0.066065,0.285454,-2.30488,0.793914,0.430571,-0.0559129,0.143982,-0.0749969,0.799515,-0.765486,0.901677,1.57278,0.00161853,0,0,0,0,0,0,0,-1.61908,-26.3616,-2.16124,15.5927,2.43225,0.440298,0.0376436,
0.291461,-0.0656677,0.293074,-2.31449,0.806949,0.452252,-0.055758,0.251993,0.0270526,0.263717,-0.357999,0.555967,0.839392,0.00484446,-0.328888,-2.1711,-0.353089,1.94948,-10.8397,-7.67803,0.125058,13.724,-2.16071,14.638,-29.773,5.70069,10.2214,0.047023,0.284233,-0.066065,0.285454,-2.30488,0.793914,0.430571,-0.0559129,0.143982,-0.0749969,0.799515,-0.765486,0.901677,1.57278,0.00161853,0,0,0,0,0,0,0,-1.61908,-26.3616,-2.16124,15.5927,2.43225,0.440298,0.0376436,
0.293202,-0.0656299,0.294898,-2.31708,0.810387,0.458335,-0.0556941,0.245114,0.0225869,0.256589,-0.3513,0.530718,0.823594,0.00547321,-4.29926,-2.7911,-4.45472,4.1871,-15.7807,-9.87375,0.392968,13.4615,-1.9122,14.3796,-29.3256,4.86366,9.81911,0.058766,0.284233,-0.066065,0.285454,-2.30488,0.793914,0.430571,-0.0559129,0.143982,-0.0749969,0.799515,-0.765486,0.901677,1.57278,0.00161853,0,0,0,0,0,0,0,-1.61908,-26.3616,-2.16124,15.5927,2.43225,0.440298,0.0376436,
0.303667,-0.0654298,0.305981,-2.33693,0.829877,0.498183,-0.0557409,0.249567,0.022395,0.261246,-0.355845,0.521344,0.823851,0.00588211,2.78292,-0.11992,2.91061,-2.84085,-5.85852,0.160754,0.255567,13.7034,-2.34866,14.6334,-29.8368,5.79542,10.1256,0.0478214,0.298887,-0.0657302,0.30106,-2.33022,0.821276,0.483556,-0.055889,0.812393,-0.0606876,0.0467259,-0.757953,0.899025,1.52568,0.000168443,83.5514,1.78866,-94.0986,0.941623,-0.331467,-5.88831,-0.181261,-4.91589,-27.3335,-5.58501,20.9247,2.01019,1.41533,0.0376436,
0.305494,-0.0653231,0.307898,-2.33963,0.833214,0.504245,-0.0556736,0.24533,0.0205834,0.256902,-0.352153,0.50051,0.810626,0.00638911,-2.64813,-1.13227,-2.7154,2.30793,-13.0215,-8.26575,0.316871,13.4409,-2.10015,14.375,-29.3894,4.9584,9.72332,0.0595643,0.298887,-0.0657302,0.30106,-2.33022,0.821276,0.483556,-0.055889,0.812393,-0.0606876,0.0467259,-0.757953,0.899025,1.52568,0.000168443,0,0,0,0,0,0,0,-4.91589,-27.3335,-5.58501,20.9247,2.01019,1.41533,0.0376436,
0.307094,-0.065284,0.309578,-2.34218,0.836207,0.510063,-0.0556085,0.236245,0.0174463,0.247527,-0.345464,0.475224,0.793954,0.00673941,-5.67802,-1.96069,-5.85925,4.18008,-15.8035,-10.4202,0.21894,13.1657,-1.86036,14.0976,-28.9463,4.04876,9.32941,0.0780522,0.298887,-0.0657302,0.30106,-2.33022,0.821276,0.483556,-0.055889,0.812393,-0.0606876,0.0467259,-0.757953,0.899025,1.52568,0.000168443,0,0,0,0,0,0,0,-4.91589,-27.3335,-5.58501,20.9247,2.01019,1.41533,0.0376436,
0.308521,-0.0652928,0.311083,-2.34459,0.838483,0.515702,-0.0555362,0.224685,0.0137349,0.235645,-0.336551,0.437088,0.776157,0.00719928,-7.22501,-2.31958,-7.42601,5.57112,-23.8352,-11.1227,0.287417,12.7533,-1.62974,13.6465,-28.5244,3.65311,8.83334,0.0777688,0.298887,-0.0657302,0.30106,-2.33022,0.821276,0.483556,-0.055889,0.812393,-0.0606876,0.0467259,-0.757953,0.899025,1.52568,0.000168443,0,0,0,0,0,0,0,-4.91589,-27.3335,-5.58501,20.9247,2.01019,1.41533,0.0376436,
0.30364,-0.0654116,0.305951,-2.3368,0.829056,0.497798,-0.0557076,0.232806,0.015504,0.244035,-0.342278,0.433959,0.7803,0.00771194,5.07546,1.10564,5.24355,-3.57966,-1.95527,2.58906,0.320414,13.3471,-2.21659,14.295,-29.3009,5.0815,9.66753,0.0608255,0.308571,-0.0648747,0.321754,-2.355,0.846502,0.536153,-0.0558579,0.0408301,0.0755782,0.829636,-0.710018,0.806984,1.54515,-0.00274528,-96.4454,17.0332,97.8637,5.99188,-11.5051,2.43462,-0.364215,-0.829586,-30.2297,-1.78832,24.3127,2.05322,0.719534,0.0577852,
0.30544,-0.0653,0.307838,-2.33945,0.831987,0.503582,-0.0556425,0.231256,0.015193,0.242413,-0.340034,0.420429,0.768827,0.00779743,-0.968722,-0.194365,-1.0135,1.40283,-8.45663,-7.17075,0.0534317,13.0719,-1.97679,14.0177,-28.8578,4.17187,9.27362,0.0793134,0.308571,-0.0648747,0.321754,-2.355,0.846502,0.536153,-0.0558579,0.0408301,0.0755782,0.829636,-0.710018,0.806984,1.54515,-0.00274528,0,0,0,0,0,0,0,-0.829586,-30.2297,-1.78832,24.3127,2.05322,0.719534,0.0577852,
0.307011,-0.0652543,0.30949,-2.34192,0.834201,0.509064,-0.0555723,0.224265,0.0132952,0.235214,-0.333704,0.391703,0.752113,0.0079948,-4.36923,-1.18612,-4.49968,3.95578,-17.9536,-10.4463,0.123357,12.6595,-1.74618,13.5665,-28.436,3.77622,8.77754,0.0790301,0.308571,-0.0648747,0.321754,-2.355,0.846502,0.536153,-0.0558579,0.0408301,0.0755782,0.829636,-0.710018,0.806984,1.54515,-0.00274528,0,0,0,0,0,0,0,-0.829586,-30.2297,-1.78832,24.3127,2.05322,0.719534,0.0577852,
0.30841,-0.0652586,0.310966,-2.34425,0.835615,0.514362,-0.0555021,0.21441,0.0105285,0.225089,-0.325362,0.348702,0.734153,0.00814873,-6.15924,-1.7292,-6.32823,5.21378,-26.8757,-11.2245,0.0962063,12.2628,-1.4818,13.2087,-27.9806,2.24469,8.29538,0.0759989,0.308571,-0.0648747,0.321754,-2.355,0.846502,0.536153,-0.0558579,0.0408301,0.0755782,0.829636,-0.710018,0.806984,1.54515,-0.00274528,0,0,0,0,0,0,0,-0.829586,-30.2297,-1.78832,24.3127,2.05322,0.719534,0.0577852,
0.313178,-0.0635465,0.32668,-2.36172,0.85255,0.550296,-0.0556573,0.223184,0.0223965,0.234421,-0.336105,0.344443,0.741779,0.00842758,5.48331,7.41755,5.83264,-6.71399,-2.66146,4.76575,0.174283,13.0719,-1.97679,14.0177,-28.8578,4.17187,9.27362,0.0793134,0.308571,-0.0648747,0.321754,-2.355,0.846502,0.536153,-0.0558579,0.0408301,0.0755782,0.829636,-0.710018,0.806984,1.54515,-0.00274528,0,0,0,0,0,0,0,-0.829586,-30.2297,-1.78832,24.3127,2.05322,0.719534,0.0577852,
0.314912,-0.0631882,0.328507,-2.36444,0.854434,0.555689,-0.0555845,0.221889,0.0268739,0.2332,-0.336703,0.322655,0.728242,0.00856191,-0.809541,2.79837,-0.76328,-0.374127,-13.618,-8.46051,0.0839562,12.4594,-1.88632,13.3629,-28.5495,3.79976,8.70707,0.0813297,0.328091,-0.0642238,0.329305,-2.3785,0.865152,0.581803,-0.0557858,0.661025,0.0429086,0.165767,-0.656273,0.506613,1.27766,-0.000414425,77.5244,-4.0837,-82.9837,6.71818,-37.5464,-33.4369,0.291357,-0.246395,-30.1027,-0.736986,27.1771,1.77856,0.924612,-0.0301054,
0.316418,-0.0629765,0.330097,-2.36695,0.855577,0.560714,-0.0555134,0.215156,0.0267919,0.22631,-0.332235,0.286675,0.708206,0.00862616,-4.20752,-0.0512708,-4.30601,2.79266,-22.4872,-12.5223,0.0401524,12.0627,-1.62194,13.0052,-28.0941,2.26824,8.2249,0.0782985,0.328091,-0.0642238,0.329305,-2.3785,0.865152,0.581803,-0.0557858,0.661025,0.0429086,0.165767,-0.656273,0.506613,1.27766,-0.000414425,0,0,0,0,0,0,0,-0.246395,-30.1027,-0.736986,27.1771,1.77856,0.924612,-0.0301054,
0.317762,-0.0628643,0.331519,-2.36932,0.855996,0.565548,-0.055443,0.20572,0.0242399,0.216607,-0.325141,0.23983,0.687426,0.00865984,-5.89762,-1.59499,-6.06434,4.43357,-29.2784,-12.9873,0.0210527,11.7779,-1.35339,12.728,-27.6091,1.02749,7.74017,0.0733001,0.328091,-0.0642238,0.329305,-2.3785,0.865152,0.581803,-0.0557858,0.661025,0.0429086,0.165767,-0.656273,0.506613,1.27766,-0.000414425,0,0,0,0,0,0,0,-0.246395,-30.1027,-0.736986,27.1771,1.77856,0.924612,-0.0301054,
0.332555,-0.0633236,0.33394,-2.38499,0.869015,0.593591,-0.0556132,0.214234,0.0292553,0.225468,-0.333549,0.229998,0.680266,0.00881857,5.32123,3.13459,5.53819,-5.25464,-6.14487,-4.47533,0.099207,12.4594,-1.88632,13.3629,-28.5495,3.79976,8.70707,0.0813297,0.328091,-0.0642238,0.329305,-2.3785,0.865152,0.581803,-0.0557858,0.661025,0.0429086,0.165767,-0.656273,0.506613,1.27766,-0.000414425,0,0,0,0,0,0,0,-0.246395,-30.1027,-0.736986,27.1771,1.77856,0.924612,-0.0301054,
0.334236,-0.0630633,0.33571,-2.38763,0.869896,0.59826,-0.0555445,0.213413,0.0299116,0.224635,-0.332893,0.206016,0.660947,0.00877368,-0.513407,0.41023,-0.520474,0.409835,-14.9885,-12.0741,-0.0280579,12.101,-1.94577,13.0751,-28.1205,2.35189,8.11635,0.0797802,0.33366,-0.0644459,0.351152,-2.40138,0.87849,0.624478,-0.0557116,0.314857,-0.021801,0.412376,-0.70128,0.333042,1.18555,0.00326691,-43.271,-8.08869,30.8262,-5.62589,-21.6964,-11.513,0.460166,-1.69445,-26.4607,-3.61327,24.9594,0.911556,1.5609,-0.0969389,
0.335706,-0.0629076,0.337262,-2.39009,0.870151,0.602709,-0.0554764,0.207491,0.0278204,0.218514,-0.327847,0.171194,0.639972,0.0087223,-3.70111,-1.30702,-3.82577,3.15353,-21.7639,-13.1096,-0.0321151,11.8162,-1.67722,12.7979,-27.6354,1.11115,7.63162,0.0747817,0.33366,-0.0644459,0.351152,-2.40138,0.87849,0.624478,-0.0557116,0.314857,-0.021801,0.412376,-0.70128,0.333042,1.18555,0.00326691,0,0,0,0,0,0,0,-1.69445,-26.4607,-3.61327,24.9594,0.911556,1.5609,-0.0969389,
0.337025,-0.0628265,0.338659,-2.39242,0.869813,0.607059,-0.0554084,0.198978,0.0242848,0.20972,-0.320611,0.128506,0.620733,0.00867588,-5.32036,-2.20978,-5.49653,4.52252,-26.6805,-12.0246,-0.0290106,11.652,-1.45063,12.627,-27.1381,0.0806972,7.18249,0.0724748,0.33366,-0.0644459,0.351152,-2.40138,0.87849,0.624478,-0.0557116,0.314857,-0.021801,0.412376,-0.70128,0.333042,1.18555,0.00326691,0,0,0,0,0,0,0,-1.69445,-26.4607,-3.61327,24.9594,0.911556,1.5609,-0.0969389,
0.337606,-0.0638635,0.355334,-2.40802,0.879437,0.635374,-0.0555268,0.203653,0.0267961,0.214851,-0.330791,0.107447,0.617186,0.0087648,2.92167,1.56956,3.20685,-6.3624,-13.1618,-2.21641,0.0555773,12.101,-1.94577,13.0751,-28.1205,2.35189,8.11635,0.0797802,0.33366,-0.0644459,0.351152,-2.40138,0.87849,0.624478,-0.0557116,0.314857,-0.021801,0.412376,-0.70128,0.333042,1.18555,0.00326691,0,0,0,0,0,0,0,-1.69445,-26.4607,-3.61327,24.9594,0.911556,1.5609,-0.0969389,
0.339133,-0.0636481,0.356953,-2.41067,0.879223,0.639727,-0.0554615,0.201094,0.0268228,0.212345,-0.330764,0.0806166,0.60258,0.00864568,-1.59963,0.0167333,-1.56594,0.0167966,-16.7688,-9.12863,-0.0744544,11.6673,-1.70945,12.6493,-27.6428,1.16809,7.57393,0.0761503,0.351315,-0.0640699,0.357626,-2.42366,0.885593,0.663639,-0.0556774,0.10715,0.0777468,0.63243,-0.608495,0.0610574,1.11372,-0.00151082,-25.9633,12.4435,27.5067,11.5981,-33.998,-8.97965,-0.597216,0.412174,-26.7821,-0.33629,23.9398,1.1679,0.692984,-0.0163725,
0.340487,-0.0635126,0.358392,-2.41312,0.878599,0.643897,-0.0553961,0.194743,0.0248443,0.205845,-0.325921,0.0488931,0.586321,0.00854969,-3.96906,-1.23656,-4.06249,3.0271,-19.8271,-10.1624,-0.0599923,11.5032,-1.48286,12.4783,-27.1455,0.137634,7.1248,0.0738435,0.351315,-0.0640699,0.357626,-2.42366,0.885593,0.663639,-0.0556774,0.10715,0.0777468,0.63243,-0.608495,0.0610574,1.11372,-0.00151082,0,0,0,0,0,0,0,0.412174,-26.7821,-0.33629,23.9398,1.1679,0.692984,-0.0163725,
0.34172,-0.0634421,0.359703,-2.41544,0.877556,0.64799,-0.0553286,0.18661,0.021639,0.197467,-0.318715,0.0130438,0.571368,0.00852717,-5.08326,-2.00333,-5.23652,4.50389,-22.4058,-9.3451,-0.0140735,11.4297,-1.32265,12.3907,-26.652,-0.69877,6.70441,0.0727166,0.351315,-0.0640699,0.357626,-2.42366,0.885593,0.663639,-0.0556774,0.10715,0.0777468,0.63243,-0.608495,0.0610574,1.11372,-0.00151082,0,0,0,0,0,0,0,0.412174,-26.7821,-0.33629,23.9398,1.1679,0.692984,-0.0163725,
0.355228,-0.0629792,0.361823,-2.43002,0.884704,0.674105,-0.0556637,0.193366,0.0282588,0.204616,-0.326283,0.00316376,0.575238,0.00515277,4.22268,4.13739,4.46815,-4.73005,-6.17504,2.41851,-2.109,11.6673,-1.70945,12.6493,-27.6428,1.16809,7.57393,0.0761503,0.351315,-0.0640699,0.357626,-2.42366,0.885593,0.663639,-0.0556774,0.10715,0.0777468,0.63243,-0.608495,0.0610574,1.11372,-0.00151082,0,0,0,0,0,0,0,0.412174,-26.7821,-0.33629,23.9398,1.1679,0.692984,-0.0163725,
0.356677,-0.0628857,0.363349,-2.43232,0.884896,0.678508,-0.0557199,0.190937,0.0249452,0.201846,-0.318663,0.00735051,0.570261,0.00271732,-1.51803,-2.07103,-1.73143,4.76251,2.61672,-3.1105,-1.52216,11.4988,-1.84994,12.475,-27.0573,0.22981,7.02515,0.0743346,0.361102,-0.0634666,0.370821,-2.44591,0.887557,0.699378,-0.0556506,0.628847,-0.0173071,0.00879508,-0.632399,-0.0772881,0.946744,-0.00119462,65.2121,-11.8817,-77.9543,-2.98799,-17.2932,-20.8716,0.0395254,0.336795,-27.881,-0.661608,24.3881,0.795284,1.19652,0.050461,
0.357911,-0.0630851,0.364642,-2.43423,0.885395,0.682717,-0.0556679,0.183585,0.014969,0.19378,-0.302643,0.0183387,0.56144,0.00347445,-4.59554,-6.23513,-5.0409,10.0121,6.86764,-5.5131,0.473203,11.4254,-1.68973,12.3873,-26.5638,-0.606593,6.60476,0.0732077,0.361102,-0.0634666,0.370821,-2.44591,0.887557,0.699378,-0.0556506,0.628847,-0.0173071,0.00879508,-0.632399,-0.0772881,0.946744,-0.00119462,0,0,0,0,0,0,0,0.336795,-27.881,-0.661608,24.3881,0.795284,1.19652,0.050461,
0.364431,-0.063881,0.37425,-2.45103,0.888359,0.710438,-0.056132,0.183119,0.00394236,0.192968,-0.294649,0.0308183,0.580172,-0.00105732,-0.2909,-6.89163,-0.507379,4.99648,7.79975,11.7072,-2.83235,11.4988,-1.84994,12.475,-27.0573,0.22981,7.02515,0.0743346,0.361102,-0.0634666,0.370821,-2.44591,0.887557,0.699378,-0.0556506,0.628847,-0.0173071,0.00879508,-0.632399,-0.0772881,0.946744,-0.00119462,0,0,0,0,0,0,0,0.336795,-27.881,-0.661608,24.3881,0.795284,1.19652,0.050461,
0.365597,-0.0645066,0.375463,-2.45258,0.889321,0.715194,-0.0560412,0.175633,-0.012487,0.184691,-0.27448,0.0486853,0.58302,0.00142393,-4.67868,-10.2684,-5.17362,12.6058,11.1668,1.78006,1.55078,11.4254,-1.68973,12.3873,-26.5638,-0.606593,6.60476,0.0732077,0.361102,-0.0634666,0.370821,-2.44591,0.887557,0.699378,-0.0556506,0.628847,-0.0173071,0.00879508,-0.632399,-0.0772881,0.946744,-0.00119462,0,0,0,0,0,0,0,0.336795,-27.881,-0.661608,24.3881,0.795284,1.19652,0.050461,
0.366562,-0.0654131,0.376459,-2.45377,0.890443,0.719412,-0.0557307,0.164641,-0.0326508,0.172646,-0.249233,0.0670187,0.571888,0.00890179,-6.87044,-12.6024,-7.52758,15.7791,11.4584,-6.95711,4.67366,11.4968,-2.02917,12.4565,-25.7444,-1.1718,6.15519,0.0743226,0.368334,-0.0639537,0.386922,-2.46756,0.888483,0.729801,-0.0556626,0.166908,-0.0451062,0.545592,-0.588329,0.0236313,0.81558,0.000196126,-57.7425,-3.47489,67.0996,5.50871,12.6149,-16.3955,0.173843,0.892215,-24.6874,-0.360094,19.429,0.221249,2.77489,0.0706026,
0.36739,-0.0665528,0.377304,-2.4547,0.891613,0.723068,-0.0552434,0.152422,-0.0546134,0.159256,-0.222704,0.0828428,0.548912,0.0193053,-7.63661,-13.7267,-8.36878,16.5805,9.89006,-14.3606,6.50217,11.5226,-2.00133,12.462,-25.2744,-1.70165,5.80607,0.0759775,0.368334,-0.0639537,0.386922,-2.46756,0.888483,0.729801,-0.0556626,0.166908,-0.0451062,0.545592,-0.588329,0.0236313,0.81558,0.000196126,0,0,0,0,0,0,0,0.892215,-24.6874,-0.360094,19.429,0.221249,2.77489,0.0706026,
0.371948,-0.0649425,0.390705,-2.47196,0.889865,0.739078,-0.0559611,0.160679,-0.0612025,0.167375,-0.219831,0.0888882,0.547644,0.0145483,5.16088,-4.11816,5.07408,1.79582,3.77836,-0.792312,-2.9731,11.5054,-2.12005,12.4826,-26.2281,-0.482856,6.53248,0.0728406,0.368334,-0.0639537,0.386922,-2.46756,0.888483,0.729801,-0.0556626,0.166908,-0.0451062,0.545592,-0.588329,0.0236313,0.81558,0.000196126,0,0,0,0,0,0,0,0.892215,-24.6874,-0.360094,19.429,0.221249,2.77489,0.0706026,
0.373119,-0.0660864,0.391898,-2.47299,0.891033,0.742767,-0.0557527,0.157825,-0.0775583,0.163737,-0.201742,0.100322,0.530348,0.0168489,-1.7839,-10.2224,-2.27347,11.3054,7.1462,-10.8099,1.43791,11.4968,-2.02917,12.4565,-25.7444,-1.1718,6.15519,0.0743226,0.368334,-0.0639537,0.386922,-2.46756,0.888483,0.729801,-0.0556626,0.166908,-0.0451062,0.545592,-0.588329,0.0236313,0.81558,0.000196126,0,0,0,0,0,0,0,0.892215,-24.6874,-0.360094,19.429,0.221249,2.77489,0.0706026,
0.374031,-0.0676014,0.392813,-2.47363,0.892323,0.745822,-0.05531,0.149059,-0.0999221,0.153845,-0.177256,0.112513,0.500657,0.0245461,-5.47897,-13.9774,-6.18267,15.304,7.61919,-18.557,4.81074,11.3969,-2.3247,12.3462,-25.11,-1.62273,5.76755,0.0758319,0.384722,-0.065034,0.393589,-2.48606,0.891824,0.759639,-0.0556548,0.184267,-0.0570441,0.513463,-0.436448,0.190225,0.920427,0.000966009,2.16995,-1.49223,-4.01606,18.9851,20.8242,13.1059,0.0962355,-0.754208,-25.7109,-1.10991,19.1791,-1.78833,1.26977,0.0440523,
0.37477,-0.0693976,0.393539,-2.474,0.893637,0.748319,-0.0546471,0.137714,-0.124843,0.141234,-0.15122,0.122847,0.46293,0.0362111,-7.09073,-15.5758,-7.88176,16.2723,6.45915,-23.5792,7.29063,11.441,-2.34782,12.3695,-24.6523,-2.03287,5.45623,0.0788966,0.384722,-0.065034,0.393589,-2.48606,0.891824,0.759639,-0.0556548,0.184267,-0.0570441,0.513463,-0.436448,0.190225,0.920427,0.000966009,0,0,0,0,0,0,0,-0.754208,-25.7109,-1.10991,19.1791,-1.78833,1.26977,0.0440523,
0.388089,-0.0669761,0.397065,-2.48881,0.894974,0.769296,-0.055635,0.145489,-0.130953,0.148808,-0.143946,0.139603,0.476814,0.0320781,4.85947,-3.81831,4.73384,4.54652,10.4721,8.67763,-2.58313,11.3711,-2.35254,12.3407,-25.5801,-1.09288,6.11667,0.074177,0.384722,-0.065034,0.393589,-2.48606,0.891824,0.759639,-0.0556548,0.184267,-0.0570441,0.513463,-0.436448,0.190225,0.920427,0.000966009,0,0,0,0,0,0,0,-0.754208,-25.7109,-1.10991,19.1791,-1.78833,1.26977,0.0440523,
0.389121,-0.0687168,0.398089,-2.48919,0.896668,0.772523,-0.0552757,0.142195,-0.14828,0.144654,-0.124618,0.154048,0.462124,0.0346464,-2.0586,-10.8293,-2.59669,12.0797,9.02816,-9.1817,1.60513,11.3969,-2.3247,12.3462,-25.11,-1.62273,5.76755,0.0758319,0.384722,-0.065034,0.393589,-2.48606,0.891824,0.759639,-0.0556548,0.184267,-0.0570441,0.513463,-0.436448,0.190225,0.920427,0.000966009,0,0,0,0,0,0,0,-0.754208,-25.7109,-1.10991,19.1791,-1.78833,1.26977,0.0440523,
0.389901,-0.0708438,0.398841,-2.48924,0.898317,0.774882,-0.054689,0.133271,-0.1718,0.134533,-0.100943,0.164471,0.428685,0.042383,-5.57774,-14.7005,-6.32545,14.7972,6.51437,-20.8993,4.8354,11.441,-2.34782,12.3695,-24.6523,-2.03287,5.45623,0.0788966,0.384722,-0.065034,0.393589,-2.48606,0.891824,0.759639,-0.0556548,0.184267,-0.0570441,0.513463,-0.436448,0.190225,0.920427,0.000966009,0,0,0,0,0,0,0,-0.754208,-25.7109,-1.10991,19.1791,-1.78833,1.26977,0.0440523,
0.390521,-0.0732447,0.399418,-2.4891,0.899866,0.776552,-0.0538872,0.122096,-0.197461,0.122039,-0.0771001,0.170298,0.384701,0.0539508,-6.98393,-16.0381,-7.80854,14.9017,3.64181,-27.4898,7.22987,11.4346,-2.78037,12.4174,-24.2752,-2.27431,5.08561,0.0817256,0.394443,-0.0697445,0.406168,-2.49911,0.896248,0.788002,-0.055351,0.605321,-0.190982,-0.0176422,-0.364441,0.157251,0.723104,0.0163731,52.6317,-16.7422,-66.3882,9.0009,-4.12183,-24.6653,1.92588,-4.70959,-24.1121,-5.25969,13.2043,-1.09803,2.90032,0.198776,
0.397199,-0.0736934,0.408852,-2.50046,0.899571,0.79528,-0.054682,0.126119,-0.211475,0.125594,-0.0688535,0.177593,0.38455,0.0542421,2.5141,-8.75868,2.2217,5.15415,4.55967,-0.0944434,0.182075,11.3463,-2.69474,12.3718,-25.1786,-1.58114,5.68315,0.0761567,0.394443,-0.0697445,0.406168,-2.49911,0.896248,0.788002,-0.055351,0.605321,-0.190982,-0.0176422,-0.364441,0.157251,0.723104,0.0163731,0,0,0,0,0,0,0,-4.70959,-24.1121,-5.25969,13.2043,-1.09803,2.90032,0.198776,
0.398037,-0.0761677,0.409647,-2.50034,0.90117,0.7974,-0.0540193,0.121833,-0.231037,0.120363,-0.0520369,0.182061,0.360633,0.0599612,-2.67898,-12.2263,-3.26929,10.5103,2.79243,-14.9483,3.57444,11.3905,-2.71785,12.395,-24.7209,-1.99129,5.37183,0.0792213,0.394443,-0.0697445,0.406168,-2.49911,0.896248,0.788002,-0.055351,0.605321,-0.190982,-0.0176422,-0.364441,0.157251,0.723104,0.0163731,0,0,0,0,0,0,0,-4.70959,-24.1121,-5.25969,13.2043,-1.09803,2.90032,0.198776,
0.398682,-0.0788984,0.410233,-2.5,0.902672,0.798769,-0.0531452,0.113584,-0.253098,0.110932,-0.0330629,0.183209,0.322732,0.0698204,-5.15539,-13.7879,-5.89472,11.8588,0.717192,-23.6876,6.16196,11.4346,-2.78037,12.4174,-24.2752,-2.27431,5.08561,0.0817256,0.394443,-0.0697445,0.406168,-2.49911,0.896248,0.788002,-0.055351,0.605321,-0.190982,-0.0176422,-0.364441,0.157251,0.723104,0.0163731,0,0,0,0,0,0,0,-4.70959,-24.1121,-5.25969,13.2043,-1.09803,2.90032,0.198776,
0.399206,-0.0817977,0.410687,-2.49955,0.904054,0.799577,-0.0520723,0.10398,-0.27496,0.100095,-0.0151506,0.1811,0.278394,0.0826799,-6.00233,-13.664,-6.77301,11.1952,-1.31792,-27.7112,8.03721,11.4443,-3.37793,12.5089,-23.7439,-2.39199,4.72982,0.0852402,0.400795,-0.0777923,0.420291,-2.51147,0.899441,0.810832,-0.0546448,0.123174,-0.278758,0.426785,-0.342536,0.107605,0.607538,0.0274443,-60.2683,-10.972,55.5535,2.73813,-6.20576,-14.4458,1.38391,-2.30145,-23.3663,-4.13695,16.2433,0.660702,2.33727,0.272019,
0.403436,-0.0822475,0.422947,-2.5128,0.900935,0.816826,-0.0537836,0.110669,-0.279701,0.106865,-0.0180574,0.165899,0.284349,0.079578,4.18023,-2.96318,4.23139,-1.81678,-9.50077,3.72126,-1.9387,11.3628,-3.22571,12.4706,-24.626,-1.91726,5.26987,0.0795917,0.400795,-0.0777923,0.420291,-2.51147,0.899441,0.810832,-0.0546448,0.123174,-0.278758,0.426785,-0.342536,0.107605,0.607538,0.0274443,0,0,0,0,0,0,0,-2.30145,-23.3663,-4.13695,16.2433,0.660702,2.33727,0.272019,
0.404232,-0.084979,0.423685,-2.51258,0.901896,0.818388,-0.0530302,0.108425,-0.292049,0.103955,-0.00899697,0.15674,0.266536,0.0824993,-1.40234,-7.71694,-1.81902,5.6628,-5.72453,-11.133,1.82584,11.4069,-3.28822,12.4929,-24.1804,-2.20027,4.98365,0.082096,0.400795,-0.0777923,0.420291,-2.51147,0.899441,0.810832,-0.0546448,0.123174,-0.278758,0.426785,-0.342536,0.107605,0.607538,0.0274443,0,0,0,0,0,0,0,-2.30145,-23.3663,-4.13695,16.2433,0.660702,2.33727,0.272019,
0.404834,-0.0879742,0.42421,-2.51212,0.9029,0.819237,-0.0520683,0.101803,-0.308519,0.0962852,0.00439736,0.15049,0.234442,0.0900468,-4.13855,-10.2939,-4.79339,8.37146,-3.90575,-20.0587,4.7172,11.4443,-3.37793,12.5089,-23.7439,-2.39199,4.72982,0.0852402,0.400795,-0.0777923,0.420291,-2.51147,0.899441,0.810832,-0.0546448,0.123174,-0.278758,0.426785,-0.342536,0.107605,0.607538,0.0274443,0,0,0,0,0,0,0,-2.30145,-23.3663,-4.13695,16.2433,0.660702,2.33727,0.272019,
0.405319,-0.0911406,0.424603,-2.51153,0.903892,0.819556,-0.0509101,0.0935577,-0.325973,0.0868592,0.0181824,0.145201,0.195529,0.100992,-5.15343,-10.9089,-5.89119,8.61564,-3.30566,-24.3206,6.84055,11.465,-3.48549,12.5084,-23.3156,-2.48906,4.49838,0.0875413,0.400795,-0.0777923,0.420291,-2.51147,0.899441,0.810832,-0.0546448,0.123174,-0.278758,0.426785,-0.342536,0.107605,0.607538,0.0274443,0,0,0,0,0,0,0,-2.30145,-23.3663,-4.13695,16.2433,0.660702,2.33727,0.272019,
0.403445,-0.0822244,0.422953,-2.51272,0.900811,0.816725,-0.0538213,0.102443,-0.320243,0.096361,0.00964891,0.135394,0.216848,0.0937869,5.5533,3.58128,5.93858,-5.33343,-6.12969,13.3244,-4.50302,11.4069,-3.28822,12.4929,-24.1804,-2.20027,4.98365,0.082096,0.400795,-0.0777923,0.420291,-2.51147,0.899441,0.810832,-0.0546448,0.123174,-0.278758,0.426785,-0.342536,0.107605,0.607538,0.0274443,0,0,0,0,0,0,0,-2.30145,-23.3663,-4.13695,16.2433,0.660702,2.33727,0.272019,
0.404242,-0.0849495,0.423693,-2.51247,0.901699,0.818242,-0.053083,0.101897,-0.324322,0.0955922,0.01409,0.130523,0.211411,0.0934877,-0.341436,-2.54945,-0.480492,2.77571,-3.04417,-3.39795,-0.18698,11.4443,-3.37793,12.5089,-23.7439,-2.39199,4.72982,0.0852402,0.400795,-0.0777923,0.420291,-2.51147,0.899441,0.810832,-0.0546448,0.123174,-0.278758,0.426785,-0.342536,0.107605,0.607538,0.0274443,0,0,0,0,0,0,0,-2.30145,-23.3663,-4.13695,16.2433,0.660702,2.33727,0.272019,
0.404844,-0.0879413,0.424217,-2.51197,0.902637,0.819049,-0.0521339,0.0965594,-0.334252,0.0895747,0.0236283,0.127872,0.189295,0.098516,-3.33575,-6.20632,-3.76092,5.96142,-1.65662,-13.8223,3.14269,11.465,-3.48549,12.5084,-23.3156,-2.48906,4.49838,0.0875413,0.400795,-0.0777923,0.420291,-2.51147,0.899441,0.810832,-0.0546448,0.123174,-0.278758,0.426785,-0.342536,0.107605,0.607538,0.0274443,0,0,0,0,0,0,0,-2.30145,-23.3663,-4.13695,16.2433,0.660702,2.33727,0.272019,
0.417303,-0.0928013,0.425069,-2.5226,0.902561,0.836771,-0.0518146,0.101072,-0.33392,0.094336,0.0192677,0.114811,0.205115,0.0970695,2.82036,0.207778,2.9758,-2.7254,-8.16373,9.88756,-0.904081,11.3485,-3.64508,12.5337,-23.8389,-2.35641,4.6511,0.0856865,0.415016,-0.0877826,0.422802,-2.5219,0.901765,0.831404,-0.0530677,0.0879141,-0.310171,0.391003,-0.263044,0.0745907,0.591681,0.0553171,-4.40749,-3.92667,-4.47287,9.93654,-4.12674,-1.98217,3.4841,-1.66668,-23.5408,-2.08586,19.3536,0.25787,2.28417,0.251877,
0.417998,-0.0957643,0.425689,-2.52221,0.903208,0.838047,-0.0508763,0.098243,-0.341212,0.0909815,0.02514,0.108024,0.195985,0.101112,-1.76814,-4.55752,-2.09654,3.67022,-4.24146,-5.70672,2.52655,11.3693,-3.75264,12.5332,-23.4105,-2.45347,4.41967,0.0879876,0.415016,-0.0877826,0.422802,-2.5219,0.901765,0.831404,-0.0530677,0.0879141,-0.310171,0.391003,-0.263044,0.0745907,0.591681,0.0553171,0,0,0,0,0,0,0,-1.66668,-23.5408,-2.08586,19.3536,0.25787,2.28417,0.251877,
0.418533,-0.0989492,0.42613,-2.52163,0.903932,0.838659,-0.0497385,0.0919682,-0.352593,0.0838013,0.0345855,0.104526,0.172074,0.109334,-3.92173,-7.11308,-4.48763,5.90339,-2.18656,-14.9439,5.13881,11.372,-3.86924,12.5158,-22.9877,-2.48629,4.21576,0.090492,0.415016,-0.0877826,0.422802,-2.5219,0.901765,0.831404,-0.0530677,0.0879141,-0.310171,0.391003,-0.263044,0.0745907,0.591681,0.0553171,0,0,0,0,0,0,0,-1.66668,-23.5408,-2.08586,19.3536,0.25787,2.28417,0.251877,
0.418972,-0.102267,0.426462,-2.52097,0.904684,0.838795,-0.0484137,0.0845451,-0.365018,0.0753552,0.0441898,0.10242,0.141069,0.120589,-4.63946,-7.7656,-5.2788,6.00271,-1.31626,-19.3783,7.03414,11.3522,-3.98895,12.4765,-22.5694,-2.45382,4.03168,0.0921313,0.415016,-0.0877826,0.422802,-2.5219,0.901765,0.831404,-0.0530677,0.0879141,-0.310171,0.391003,-0.263044,0.0745907,0.591681,0.0553171,0,0,0,0,0,0,0,-1.66668,-23.5408,-2.08586,19.3536,0.25787,2.28417,0.251877,
0.422633,-0.105827,0.433732,-2.52986,0.903829,0.852099,-0.0498744,0.0881369,-0.365185,0.0787126,0.0433866,0.103761,0.15067,0.114943,2.24491,-0.104738,2.09836,-0.502009,0.83821,6.0005,-3.52848,11.323,-4.04972,12.6722,-23.6424,-2.44229,4.33461,0.0883839,0.420691,-0.100236,0.431989,-2.52999,0.902082,0.848269,-0.0511213,0.464077,-0.283002,-0.0713556,-0.201662,0.000156628,0.420248,0.0429027,47.0204,3.39613,-57.7948,7.67264,-9.30426,-21.4291,-1.5518,0.412174,-21.0692,-0.812364,18.9807,0.416256,2.19079,0.285752,
0.423278,-0.108978,0.434274,-2.5293,0.904688,0.852982,-0.0489102,0.0866358,-0.370926,0.0765212,0.0487807,0.104473,0.142607,0.11606,-0.938236,-3.58809,-1.36963,3.37134,0.44525,-5.03947,0.698183,11.3257,-4.16631,12.6548,-23.2195,-2.47512,4.1307,0.0908883,0.420691,-0.100236,0.431989,-2.52999,0.902082,0.848269,-0.0511213,0.464077,-0.283002,-0.0713556,-0.201662,0.000156628,0.420248,0.0429027,0,0,0,0,0,0,0,0.412174,-21.0692,-0.812364,18.9807,0.416256,2.19079,0.285752,
0.423813,-0.112274,0.434694,-2.52864,0.905517,0.853404,-0.0477337,0.0826957,-0.379135,0.0717114,0.0556018,0.104314,0.124648,0.122259,-2.46252,-5.13057,-3.00616,4.26317,-0.0994043,-11.2244,3.87425,11.306,-4.28603,12.6156,-22.8013,-2.44264,3.94662,0.0925276,0.420691,-0.100236,0.431989,-2.52999,0.902082,0.848269,-0.0511213,0.464077,-0.283002,-0.0713556,-0.201662,0.000156628,0.420248,0.0429027,0,0,0,0,0,0,0,0.412174,-21.0692,-0.812364,18.9807,0.416256,2.19079,0.285752,
0.424281,-0.115636,0.43504,-2.52795,0.90631,0.853516,-0.046361,0.0778549,-0.387366,0.0660289,0.0615053,0.103276,0.102516,0.132125,-3.02555,-5.14418,-3.55153,3.68972,-0.648585,-13.8324,6.16637,11.265,-4.40354,12.5565,-22.3856,-2.36905,3.78554,0.0941636,0.420691,-0.100236,0.431989,-2.52999,0.902082,0.848269,-0.0511213,0.464077,-0.283002,-0.0713556,-0.201662,0.000156628,0.420248,0.0429027,0,0,0,0,0,0,0,0.412174,-21.0692,-0.812364,18.9807,0.416256,2.19079,0.285752,
0.422625,-0.10581,0.433726,-2.52983,0.903793,0.852072,-0.0498768,0.0826497,-0.382849,0.0711428,0.0577138,0.103991,0.119395,0.124138,2.99678,2.8233,3.19617,-2.36969,0.446751,10.5496,-4.99197,11.3077,-4.61368,12.8082,-23.2329,-2.43055,4.02597,0.0913377,0.425082,-0.113367,0.442438,-2.53737,0.902022,0.863524,-0.0489978,0.194849,-0.300787,0.247197,-0.18358,-0.000574607,0.430558,0.0807868,-33.6535,-2.22316,39.819,2.26025,-0.0914044,1.28872,4.7355,2.97107,-21.9658,0.588087,18.9807,0.550839,2.31713,0.29216,
0.423262,-0.108954,0.434261,-2.52925,0.904639,0.852932,-0.048914,0.0820297,-0.384876,0.0702824,0.0606605,0.104342,0.117027,0.123382,-0.387483,-1.26683,-0.537745,1.84164,0.219232,-1.48014,-0.472737,11.2879,-4.7334,12.7689,-22.8147,-2.39808,3.84188,0.092977,0.425082,-0.113367,0.442438,-2.53737,0.902022,0.863524,-0.0489978,0.194849,-0.300787,0.247197,-0.18358,-0.000574607,0.430558,0.0807868,0,0,0,0,0,0,0,2.97107,-21.9658,0.588087,18.9807,0.550839,2.31713,0.29216,
0.423785,-0.112243,0.434671,-2.52857,0.905466,0.853329,-0.047739,0.0787153,-0.390137,0.0664655,0.0654349,0.104129,0.103536,0.128081,-2.07152,-3.28812,-2.38556,2.98401,-0.13286,-8.43229,2.9371,11.247,-4.85091,12.7098,-22.399,-2.32449,3.6808,0.094613,0.425082,-0.113367,0.442438,-2.53737,0.902022,0.863524,-0.0489978,0.194849,-0.300787,0.247197,-0.18358,-0.000574607,0.430558,0.0807868,0,0,0,0,0,0,0,2.97107,-21.9658,0.588087,18.9807,0.550839,2.31713,0.29216,
0.424239,-0.115599,0.435005,-2.52788,0.906265,0.853412,-0.0463677,0.0743128,-0.396008,0.0615197,0.0696306,0.103289,0.084923,0.136746,-2.7516,-3.66946,-3.09114,2.62231,-0.525127,-11.6328,5.41575,11.1835,-4.96317,12.629,-21.9854,-2.20984,3.53694,0.095484,0.425082,-0.113367,0.442438,-2.53737,0.902022,0.863524,-0.0489978,0.194849,-0.300787,0.247197,-0.18358,-0.000574607,0.430558,0.0807868,0,0,0,0,0,0,0,2.97107,-21.9658,0.588087,18.9807,0.550839,2.31713,0.29216,
0.42727,-0.118713,0.444533,-2.5376,0.902242,0.867227,-0.0474631,0.0827341,-0.387086,0.0707878,0.0594252,0.0879635,0.106164,0.131351,5.26333,5.57612,5.79259,-6.37834,-9.57857,13.2757,-3.3721,11.3055,-5.24408,12.956,-22.7659,-2.35499,3.74141,0.0933417,0.433926,-0.12776,0.448519,-2.54522,0.901712,0.876073,-0.0463794,-0.0184349,-0.412429,0.471115,-0.215329,-0.00222094,0.390777,0.0794777,-26.6605,-13.9552,27.9898,-3.9686,-0.205792,-4.97262,-0.163631,2.01099,-22.1919,0.26277,22.1704,0.709225,2.20452,0.332443,
0.427986,-0.121759,0.445155,-2.53719,0.902616,0.868221,-0.0463696,0.0840935,-0.385818,0.0721804,0.0578252,0.0797092,0.109781,0.132418,0.84966,0.792535,0.870343,-1.00002,-5.15894,2.26057,0.667064,11.2646,-5.36159,12.8969,-22.3502,-2.2814,3.58033,0.0949778,0.433926,-0.12776,0.448519,-2.54522,0.901712,0.876073,-0.0463794,-0.0184349,-0.412429,0.471115,-0.215329,-0.00222094,0.390777,0.0794777,0,0,0,0,0,0,0,2.01099,-22.1919,0.26277,22.1704,0.709225,2.20452,0.332443,
0.428565,-0.124963,0.445623,-2.53666,0.903088,0.868744,-0.0451018,0.0817493,-0.388753,0.0694422,0.0596516,0.0755724,0.100897,0.13763,-1.46515,-1.83437,-1.71134,1.14149,-2.58553,-5.55279,3.25731,11.2011,-5.47385,12.816,-21.9366,-2.16676,3.43646,0.0958487,0.433926,-0.12776,0.448519,-2.54522,0.901712,0.876073,-0.0463794,-0.0184349,-0.412429,0.471115,-0.215329,-0.00222094,0.390777,0.0794777,0,0,0,0,0,0,0,2.01099,-22.1919,0.26277,22.1704,0.709225,2.20452,0.332443,
0.436234,-0.133408,0.450825,-2.54596,0.900102,0.879506,-0.0448978,0.0902943,-0.383125,0.0790353,0.0461664,0.0450275,0.116051,0.130763,5.3406,3.51716,5.9957,-8.42824,-19.0906,9.4713,-4.29156,11.2646,-5.36159,12.8969,-22.3502,-2.2814,3.58033,0.0949778,0.433926,-0.12776,0.448519,-2.54522,0.901712,0.876073,-0.0463794,-0.0184349,-0.412429,0.471115,-0.215329,-0.00222094,0.390777,0.0794777,0,0,0,0,0,0,0,2.01099,-22.1919,0.26277,22.1704,0.709225,2.20452,0.332443,
0.437002,-0.136453,0.451507,-2.54572,0.899824,0.880486,-0.0438662,0.0914346,-0.382633,0.0802605,0.042931,0.029077,0.117332,0.1304,0.712722,0.308022,0.765715,-2.02212,-9.96905,0.800609,-0.227362,11.2011,-5.47385,12.816,-21.9366,-2.16676,3.43646,0.0958487,0.433926,-0.12776,0.448519,-2.54522,0.901712,0.876073,-0.0463794,-0.0184349,-0.412429,0.471115,-0.215329,-0.00222094,0.390777,0.0794777,0,0,0,0,0,0,0,2.01099,-22.1919,0.26277,22.1704,0.709225,2.20452,0.332443,
0.437624,-0.139618,0.452023,-2.54534,0.899791,0.88106,-0.0426704,0.0887029,-0.385226,0.0771192,0.044002,0.0224376,0.108216,0.134215,-1.70733,-1.62108,-1.96329,0.669389,-4.14963,-5.6973,2.38474,11.1157,-5.94789,12.9126,-21.654,-2.01722,3.23061,0.0969523,0.442102,-0.142109,0.453998,-2.55224,0.901313,0.886671,-0.0437241,0.110832,-0.487498,0.270035,-0.226609,0.00624097,0.272583,0.0746319,16.1583,-9.38362,-25.135,-1.40997,1.05774,-14.7743,-0.605734,0.25745,-23.7392,-1.33605,22.6425,0.471188,2.09832,0.279343,
0.438157,-0.142849,0.452438,-2.54489,0.89992,0.881257,-0.0413617,0.084285,-0.388957,0.0720789,0.0463632,0.0211791,0.0914868,0.14009,-2.76118,-2.33198,-3.15022,1.47573,-0.786534,-10.4557,3.67152,11.0124,-6.04315,12.7941,-21.2417,-1.85742,3.11997,0.0970783,0.442102,-0.142109,0.453998,-2.55224,0.901313,0.886671,-0.0437241,0.110832,-0.487498,0.270035,-0.226609,0.00624097,0.272583,0.0746319,0,0,0,0,0,0,0,0.25745,-23.7392,-1.33605,22.6425,0.471188,2.09832,0.279343,
0.438639,-0.146099,0.452796,-2.54444,0.900151,0.881124,-0.0399854,0.0794641,-0.392403,0.0666106,0.0484442,0.0227151,0.069874,0.14648,-3.01305,-2.15316,-3.41768,1.30064,0.960005,-13.508,3.99371,10.8921,-6.12842,12.6599,-20.8293,-1.68825,3.02407,0.0970646,0.442102,-0.142109,0.453998,-2.55224,0.901313,0.886671,-0.0437241,0.110832,-0.487498,0.270035,-0.226609,0.00624097,0.272583,0.0746319,0,0,0,0,0,0,0,0.25745,-23.7392,-1.33605,22.6425,0.471188,2.09832,0.279343,
0.444218,-0.148407,0.456005,-2.55273,0.900438,0.889389,-0.0421543,0.0869258,-0.391471,0.0746256,0.0395399,0.0094073,0.0852823,0.139212,4.66351,0.582389,5.0094,-5.56521,-8.31739,9.63018,-4.54244,11.1992,-5.84358,13.0121,-22.0668,-2.1547,3.35574,0.0961895,0.442102,-0.142109,0.453998,-2.55224,0.901313,0.886671,-0.0437241,0.110832,-0.487498,0.270035,-0.226609,0.00624097,0.272583,0.0746319,0,0,0,0,0,0,0,0.25745,-23.7392,-1.33605,22.6425,0.471188,2.09832,0.279343,
0.444976,-0.151534,0.456663,-2.55247,0.900294,0.890231,-0.0410959,0.0885048,-0.391348,0.0761701,0.0382061,0.00392895,0.0892895,0.137829,0.98692,0.0768242,0.96533,-0.833627,-3.42397,2.50455,-0.863955,11.1604,-6.2903,13.1919,-21.811,-2.01908,3.14229,0.0973784,0.449211,-0.157285,0.460797,-2.55949,0.900822,0.896641,-0.0408372,0.340602,-0.507456,0.102063,-0.249586,-0.0292053,0.292151,0.0859759,28.7213,-2.49478,-20.9966,-2.87219,-4.43078,2.44606,1.41801,0.384403,-24.0883,-1.66136,23.8882,0.422665,2.74834,0.23906,
0.445621,-0.15469,0.457196,-2.55212,0.900312,0.890739,-0.0399099,0.086916,-0.391984,0.0742606,0.0393298,0.00357825,0.0841195,0.139914,-0.993008,-0.397452,-1.19349,0.702362,-0.219189,-3.23126,1.30287,11.0571,-6.38556,13.0734,-21.3988,-1.85928,3.03165,0.0975044,0.449211,-0.157285,0.460797,-2.55949,0.900822,0.896641,-0.0408372,0.340602,-0.507456,0.102063,-0.249586,-0.0292053,0.292151,0.0859759,0,0,0,0,0,0,0,0.384403,-24.0883,-1.66136,23.8882,0.422665,2.74834,0.23906,
0.45167,-0.163909,0.46305,-2.55975,0.900771,0.899356,-0.0394093,0.0966002,-0.393379,0.0841716,0.0344016,0.00209868,0.0980539,0.132122,6.05261,-0.872317,6.1944,-3.08016,-0.924728,8.70898,-4.86967,11.1604,-6.2903,13.1919,-21.811,-2.01908,3.14229,0.0973784,0.449211,-0.157285,0.460797,-2.55949,0.900822,0.896641,-0.0408372,0.340602,-0.507456,0.102063,-0.249586,-0.0292053,0.292151,0.0859759,0,0,0,0,0,0,0,0.384403,-24.0883,-1.66136,23.8882,0.422665,2.74834,0.23906,
0.452561,-0.167028,0.463839,-2.55947,0.900818,0.900324,-0.0384381,0.0995513,-0.39268,0.0870672,0.0345562,0.00285077,0.10264,0.129977,1.84445,0.437096,1.80977,0.0966199,0.470056,2.86637,-1.3406,11.0571,-6.38556,13.0734,-21.3988,-1.85928,3.03165,0.0975044,0.449211,-0.157285,0.460797,-2.55949,0.900822,0.896641,-0.0408372,0.340602,-0.507456,0.102063,-0.249586,-0.0292053,0.292151,0.0859759,0,0,0,0,0,0,0,0.384403,-24.0883,-1.66136,23.8882,0.422665,2.74834,0.23906,
0.453323,-0.17011,0.464494,-2.55916,0.900944,0.901008,-0.0373544,0.0986826,-0.391202,0.0860193,0.0355002,0.00542049,0.0992161,0.131074,-0.542943,0.923658,-0.654979,0.590026,1.60608,-2.14001,0.685586,10.895,-6.89093,13.1193,-21.1375,-1.67719,2.85528,0.0978506,0.455031,-0.172399,0.469759,-2.5669,0.898875,0.90598,-0.0375166,0.388842,-0.463949,0.000185431,-0.205221,-0.0297613,0.197652,0.104657,6.03007,5.43848,-12.7347,5.54567,-0.069508,-11.8124,2.33516,-0.0718349,-23.6876,-3.08562,23.7375,0.557247,2.21734,0.29216,
0.454,-0.173151,0.465063,-2.55887,0.901127,0.901422,-0.0362036,0.0958839,-0.388974,0.083051,0.0356703,0.00893181,0.0897251,0.133632,-1.74921,1.39277,-1.85517,0.106294,2.19458,-5.93185,1.59827,10.7588,-6.96624,12.9699,-20.7249,-1.49934,2.77122,0.0973635,0.455031,-0.172399,0.469759,-2.5669,0.898875,0.90598,-0.0375166,0.388842,-0.463949,0.000185431,-0.205221,-0.0297613,0.197652,0.104657,0,0,0,0,0,0,0,-0.0718349,-23.6876,-3.08562,23.7375,0.557247,2.21734,0.29216,
0.457328,-0.17892,0.47177,-2.56694,0.899523,0.907686,-0.0359062,0.10244,-0.389881,0.0894158,0.032551,0.0137024,0.0919196,0.12892,4.09775,-0.566815,3.978,-1.94957,2.9816,1.37156,-2.94467,11.0152,-6.80566,13.2535,-21.55,-1.84636,2.95118,0.0978642,0.455031,-0.172399,0.469759,-2.5669,0.898875,0.90598,-0.0375166,0.388842,-0.463949,0.000185431,-0.205221,-0.0297613,0.197652,0.104657,0,0,0,0,0,0,0,-0.0718349,-23.6876,-3.08562,23.7375,0.557247,2.21734,0.29216,
0.45821,-0.181976,0.472542,-2.56669,0.899757,0.908341,-0.0349075,0.103994,-0.388293,0.0908318,0.0323713,0.0168236,0.0899219,0.128103,0.971196,0.992352,0.884985,-0.112292,1.95077,-1.24855,-0.510458,10.895,-6.89093,13.1193,-21.1375,-1.67719,2.85528,0.0978506,0.455031,-0.172399,0.469759,-2.5669,0.898875,0.90598,-0.0375166,0.388842,-0.463949,0.000185431,-0.205221,-0.0297613,0.197652,0.104657,0,0,0,0,0,0,0,-0.0718349,-23.6876,-3.08562,23.7375,0.557247,2.21734,0.29216,
0.458989,-0.18497,0.473214,-2.56644,0.899993,0.908812,-0.0338349,0.10268,-0.385485,0.0894527,0.0320672,0.0193684,0.0837125,0.129297,-0.821536,1.75503,-0.861894,-0.190049,1.5905,-3.8809,0.746012,10.767,-7.42946,13.1826,-20.7875,-1.47562,2.6683,0.09786,0.460227,-0.187416,0.479525,-2.57439,0.897003,0.915598,-0.0341297,0.265515,-0.402502,0.183869,-0.206271,-0.0400111,0.292708,0.0880113,-15.4159,7.68082,22.9604,-0.131231,-1.28122,11.882,-2.08073,2.13398,-22.3665,-1.41142,23.6661,0.288082,2.50939,0.23906,
0.459699,-0.187901,0.473821,-2.56624,0.900237,0.909103,-0.0327246,0.0998965,-0.38166,0.0867354,0.0306717,0.0215737,0.074234,0.131195,-1.73953,2.39057,-1.69834,-0.872195,1.3783,-5.92402,1.18642,10.6177,-7.4949,13.021,-20.3744,-1.29772,2.59536,0.0972227,0.460227,-0.187416,0.479525,-2.57439,0.897003,0.915598,-0.0341297,0.265515,-0.402502,0.183869,-0.206271,-0.0400111,0.292708,0.0880113,0,0,0,0,0,0,0,2.13398,-22.3665,-1.41142,23.6661,0.288082,2.50939,0.23906,
0.462729,-0.193049,0.481924,-2.57505,0.896503,0.918313,-0.0328999,0.10781,-0.374583,0.0959007,0.0212508,0.0119571,0.0905765,0.121749,4.94626,4.42303,5.72835,-5.88806,-6.01039,10.214,-5.90416,10.9032,-7.35415,13.332,-21.2001,-1.65347,2.75237,0.0983472,0.460227,-0.187416,0.479525,-2.57439,0.897003,0.915598,-0.0341297,0.265515,-0.402502,0.183869,-0.206271,-0.0400111,0.292708,0.0880113,0,0,0,0,0,0,0,2.13398,-22.3665,-1.41142,23.6661,0.288082,2.50939,0.23906,
0.463665,-0.19581,0.482792,-2.57503,0.896416,0.919394,-0.0320999,0.109656,-0.36871,0.0984273,0.0173483,0.0073708,0.0994793,0.117399,1.15327,3.67057,1.57912,-2.43908,-2.86642,5.56421,-2.71881,10.767,-7.42946,13.1826,-20.7875,-1.47562,2.6683,0.09786,0.460227,-0.187416,0.479525,-2.57439,0.897003,0.915598,-0.0341297,0.265515,-0.402502,0.183869,-0.206271,-0.0400111,0.292708,0.0880113,0,0,0,0,0,0,0,2.13398,-22.3665,-1.41142,23.6661,0.288082,2.50939,0.23906,
0.46448,-0.198568,0.483533,-2.57498,0.896438,0.920287,-0.0312028,0.108089,-0.363916,0.0972519,0.015287,0.00644814,0.101918,0.116349,-0.979192,2.99664,-0.734625,-1.28833,-0.576663,1.52409,-0.656279,10.6224,-8.02493,13.2046,-20.3634,-1.26522,2.50391,0.0975652,0.4673,-0.202573,0.487317,-2.58204,0.895446,0.924139,-0.0311234,0.0236497,-0.406132,0.406361,-0.204935,-0.0524903,0.23233,0.0747832,-30.2332,-0.45376,27.8115,0.167032,-1.5599,-7.54729,-1.65351,3.09803,-19.2204,-0.312487,22.8171,0.336605,2.32995,0.245468,
0.469672,-0.207588,0.489831,-2.58355,0.892901,0.926649,-0.0300204,0.11328,-0.353448,0.10479,-0.000976926,-0.0220777,0.110277,0.107598,3.24437,6.54237,4.7111,-10.1649,-17.8287,5.22447,-5.46912,10.7717,-7.95949,13.3662,-20.7765,-1.44312,2.57685,0.0982025,0.4673,-0.202573,0.487317,-2.58204,0.895446,0.924139,-0.0311234,0.0236497,-0.406132,0.406361,-0.204935,-0.0524903,0.23233,0.0747832,0,0,0,0,0,0,0,3.09803,-19.2204,-0.312487,22.8171,0.336605,2.32995,0.245468,
0.470568,-0.210122,0.490706,-2.58385,0.892179,0.927705,-0.0293249,0.113028,-0.346104,0.1057,-0.00844012,-0.0357303,0.114639,0.103466,-0.157469,4.58967,0.568673,-4.6645,-8.5329,2.72641,-2.58226,10.6224,-8.02493,13.2046,-20.3634,-1.26522,2.50391,0.0975652,0.4673,-0.202573,0.487317,-2.58204,0.895446,0.924139,-0.0311234,0.0236497,-0.406132,0.406361,-0.204935,-0.0524903,0.23233,0.0747832,0,0,0,0,0,0,0,3.09803,-19.2204,-0.312487,22.8171,0.336605,2.32995,0.245468,
0.471348,-0.21269,0.491449,-2.58405,0.891744,0.928646,-0.0285291,0.109912,-0.341084,0.103134,-0.0116659,-0.0394401,0.115236,0.102668,-1.94736,3.13776,-1.60325,-2.01613,-2.31858,0.372986,-0.498969,10.4611,-8.08108,13.0318,-19.9499,-1.08793,2.44025,0.0965695,0.4673,-0.202573,0.487317,-2.58204,0.895446,0.924139,-0.0311234,0.0236497,-0.406132,0.406361,-0.204935,-0.0524903,0.23233,0.0747832,0,0,0,0,0,0,0,3.09803,-19.2204,-0.312487,22.8171,0.336605,2.32995,0.245468,
0.472051,-0.215269,0.492108,-2.5842,0.891524,0.929444,-0.0276627,0.105522,-0.337338,0.0989965,-0.0130074,-0.037055,0.112134,0.103793,-2.74417,2.34108,-2.58619,-0.838395,1.49069,-1.93901,0.703077,10.3102,-8.49794,13.0738,-19.6099,-0.905467,2.30547,0.095807,0.47716,-0.217111,0.492791,-2.58962,0.894416,0.931949,-0.0280336,0.0565315,-0.360366,0.4383,-0.207027,-0.0415256,0.263338,0.0690497,4.11022,5.72082,3.99245,-0.261555,1.37059,3.87604,-0.716688,1.52698,-20.7677,-0.986925,20.5518,0.226742,2.50298,0.225327,
0.479801,-0.221634,0.495664,-2.59133,0.892038,0.934716,-0.0272241,0.1141,-0.326608,0.110021,-0.0264186,-0.0550098,0.121934,0.0936188,5.3617,6.70614,6.8904,-8.38202,-11.2218,6.12501,-6.35879,10.6421,-8.39431,13.4282,-20.4373,-1.25419,2.4249,0.0979466,0.47716,-0.217111,0.492791,-2.58962,0.894416,0.931949,-0.0280336,0.0565315,-0.360366,0.4383,-0.207027,-0.0415256,0.263338,0.0690497,0,0,0,0,0,0,0,1.52698,-20.7677,-0.986925,20.5518,0.226742,2.50298,0.225327,
0.480784,-0.223969,0.49666,-2.59175,0.891377,0.935961,-0.0266849,0.115859,-0.319663,0.112915,-0.0316524,-0.0605292,0.128673,0.0883747,1.09906,4.34086,1.80886,-3.27111,-3.44965,4.21186,-3.27757,10.4809,-8.45046,13.2553,-20.0238,-1.0769,2.36123,0.0969509,0.47716,-0.217111,0.492791,-2.58962,0.894416,0.931949,-0.0280336,0.0565315,-0.360366,0.4383,-0.207027,-0.0415256,0.263338,0.0690497,0,0,0,0,0,0,0,1.52698,-20.7677,-0.986925,20.5518,0.226742,2.50298,0.225327,
0.48163,-0.226354,0.497501,-2.59206,0.890995,0.93713,-0.0260373,0.11384,-0.315342,0.111372,-0.033002,-0.0579675,0.132167,0.0868909,-1.26167,2.70084,-0.964342,-0.843519,1.6011,2.18388,-0.927391,10.3102,-8.49794,13.0738,-19.6099,-0.905467,2.30547,0.095807,0.47716,-0.217111,0.492791,-2.58962,0.894416,0.931949,-0.0280336,0.0565315,-0.360366,0.4383,-0.207027,-0.0415256,0.263338,0.0690497,0,0,0,0,0,0,0,1.52698,-20.7677,-0.986925,20.5518,0.226742,2.50298,0.225327,
0.482385,-0.228761,0.498243,-2.59231,0.890821,0.93818,-0.0253092,0.109945,-0.312439,0.107634,-0.0327052,-0.0507342,0.131975,0.0877139,-2.43457,1.81427,-2.33668,0.185499,4.52081,-0.11998,0.514386,10.1494,-8.90326,13.1561,-19.3742,-0.744949,2.16925,0.0948605,0.485606,-0.231872,0.500455,-2.59765,0.892636,0.940906,-0.0256777,0.337745,-0.402395,0.119978,-0.252162,-0.0674557,0.260069,0.0692525,35.1516,-5.2537,-39.7902,-5.64186,-3.24126,-0.408622,0.0253474,-0.67883,-20.5931,-3.48631,21.0239,-0.0845373,2.9406,0.218918,
0.488216,-0.237201,0.503008,-2.59875,0.892277,0.943611,-0.0248312,0.11724,-0.313582,0.115295,-0.0355181,-0.0449634,0.139037,0.0819568,4.55966,-0.714518,4.78825,-1.75807,3.60673,4.41362,-3.59823,10.4991,-8.81622,13.5269,-20.2024,-1.08136,2.27385,0.0973944,0.485606,-0.231872,0.500455,-2.59765,0.892636,0.940906,-0.0256777,0.337745,-0.402395,0.119978,-0.252162,-0.0674557,0.260069,0.0692525,0,0,0,0,0,0,0,-0.67883,-20.5931,-3.48631,21.0239,-0.0845373,2.9406,0.218918,
0.489218,-0.239647,0.504006,-2.59902,0.892187,0.944903,-0.0242592,0.11884,-0.312015,0.117173,-0.0350874,-0.0382276,0.143526,0.0798639,1.00004,0.979188,1.17405,0.26918,4.20988,2.80578,-1.30806,10.3283,-8.86369,13.3454,-19.7885,-0.909927,2.21809,0.0962505,0.485606,-0.231872,0.500455,-2.59765,0.892636,0.940906,-0.0256777,0.337745,-0.402395,0.119978,-0.252162,-0.0674557,0.260069,0.0692525,0,0,0,0,0,0,0,-0.67883,-20.5931,-3.48631,21.0239,-0.0845373,2.9406,0.218918,
0.490101,-0.242034,0.504886,-2.59927,0.89219,0.946097,-0.0236148,0.117158,-0.309289,0.115743,-0.0342962,-0.0305035,0.144663,0.0800027,-1.05142,1.70378,-0.893834,0.494543,4.82757,0.710929,0.0867802,10.1494,-8.90326,13.1561,-19.3742,-0.744949,2.16925,0.0948605,0.485606,-0.231872,0.500455,-2.59765,0.892636,0.940906,-0.0256777,0.337745,-0.402395,0.119978,-0.252162,-0.0674557,0.260069,0.0692525,0,0,0,0,0,0,0,-0.67883,-20.5931,-3.48631,21.0239,-0.0845373,2.9406,0.218918,
0.488186,-0.237192,0.502989,-2.59874,0.892327,0.943563,-0.0248453,0.122581,-0.310917,0.121479,-0.036655,-0.0280075,0.148538,0.0756032,3.38948,-1.01764,3.58513,-1.47425,1.55999,2.4214,-2.74967,10.3283,-8.86369,13.3454,-19.7885,-0.909927,2.21809,0.0962505,0.491845,-0.246723,0.511031,-2.60643,0.890495,0.949204,-0.0239669,0.452687,-0.432594,0.0203395,-0.290131,-0.0650374,0.264045,0.042513,14.3678,-3.77488,-12.4549,-4.74614,0.302289,0.496914,-3.34244,-1.66668,-21.3945,-5.23589,23.0908,0.0198328,3.23907,0.225327,
0.489168,-0.23963,0.503971,-2.599,0.892276,0.944829,-0.02428,0.122618,-0.309685,0.121738,-0.0358246,-0.0236935,0.150473,0.0746139,0.0230146,0.770594,0.161936,0.518994,2.69625,1.20938,-0.61831,10.18,-9.37967,13.4351,-19.4316,-0.737039,2.08482,0.0952399,0.491845,-0.246723,0.511031,-2.60643,0.890495,0.949204,-0.0239669,0.452687,-0.432594,0.0203395,-0.290131,-0.0650374,0.264045,0.042513,0,0,0,0,0,0,0,-1.66668,-21.3945,-5.23589,23.0908,0.0198328,3.23907,0.225327,
0.490031,-0.242007,0.504835,-2.59924,0.892322,0.945997,-0.0236413,0.119651,-0.307185,0.118967,-0.0346785,-0.0177873,0.149573,0.0756582,-1.85456,1.56227,-1.73197,0.716291,3.69137,-0.562346,0.652651,9.99475,-9.41214,13.2401,-19.0172,-0.58121,2.04117,0.0937069,0.491845,-0.246723,0.511031,-2.60643,0.890495,0.949204,-0.0239669,0.452687,-0.432594,0.0203395,-0.290131,-0.0650374,0.264045,0.042513,0,0,0,0,0,0,0,-1.66668,-21.3945,-5.23589,23.0908,0.0198328,3.23907,0.225327,
0.49081,-0.244331,0.505618,-2.5995,0.89245,0.947041,-0.0229577,0.115197,-0.303849,0.114766,-0.034165,-0.0110238,0.145768,0.0776183,-2.78376,2.08518,-2.62614,0.320957,4.22722,-2.37815,1.22508,9.80426,-9.43827,13.0403,-18.6027,-0.435084,2.00236,0.0919953,0.491845,-0.246723,0.511031,-2.60643,0.890495,0.949204,-0.0239669,0.452687,-0.432594,0.0203395,-0.290131,-0.0650374,0.264045,0.042513,0,0,0,0,0,0,0,-1.66668,-21.3945,-5.23589,23.0908,0.0198328,3.23907,0.225327,
0.494563,-0.252347,0.513606,-2.60738,0.890973,0.952235,-0.0233592,0.122326,-0.308638,0.121893,-0.0346936,-0.00427212,0.155344,0.0716037,4.45586,-2.99308,4.45491,-0.330356,4.21979,5.98487,-3.75916,10.18,-9.37967,13.4351,-19.4316,-0.737039,2.08482,0.0952399,0.491845,-0.246723,0.511031,-2.60643,0.890495,0.949204,-0.0239669,0.452687,-0.432594,0.0203395,-0.290131,-0.0650374,0.264045,0.042513,0,0,0,0,0,0,0,-1.66668,-21.3945,-5.23589,23.0908,0.0198328,3.23907,0.225327,
0.49559,-0.254788,0.514644,-2.6076,0.891149,0.953732,-0.022863,0.123548,-0.307923,0.123456,-0.0333004,0.000991949,0.161702,0.0696867,0.763929,0.446827,0.976818,0.870697,3.29005,3.97384,-1.19812,10.0335,-9.98686,13.4674,-18.8748,-0.545379,1.95987,0.0939885,0.498514,-0.261335,0.522651,-2.61608,0.889121,0.957848,-0.0222885,0.255281,-0.467227,0.295858,-0.283608,-0.0218574,0.250009,0.0416655,-24.6757,-4.32916,34.4399,0.815378,5.3975,-1.75442,-0.105938,-0.0718349,-18.8713,-4.81139,26.3797,0.434567,2.87377,0.245468,
0.496491,-0.257119,0.515563,-2.60784,0.891358,0.955102,-0.0222942,0.121358,-0.304629,0.121749,-0.0326118,0.00602014,0.163607,0.0699695,-1.36882,2.05834,-1.06726,0.430422,3.14262,1.19067,0.176748,9.84297,-10.013,13.2676,-18.4603,-0.399252,1.92107,0.092277,0.498514,-0.261335,0.522651,-2.61608,0.889121,0.957848,-0.0222885,0.255281,-0.467227,0.295858,-0.283608,-0.0218574,0.250009,0.0416655,0,0,0,0,0,0,0,-0.0718349,-18.8713,-4.81139,26.3797,0.434567,2.87377,0.245468,
0.497303,-0.259367,0.516403,-2.60812,0.891603,0.956322,-0.0216854,0.117376,-0.299887,0.118377,-0.0331911,0.0109478,0.161394,0.0711961,-2.489,2.96407,-2.10708,-0.362058,3.07978,-1.38282,0.766637,9.64881,-10.0336,13.0645,-18.0459,-0.263683,1.8852,0.0904296,0.498514,-0.261335,0.522651,-2.61608,0.889121,0.957848,-0.0222885,0.255281,-0.467227,0.295858,-0.283608,-0.0218574,0.250009,0.0416655,0,0,0,0,0,0,0,-0.0718349,-18.8713,-4.81139,26.3797,0.434567,2.87377,0.245468,
0.501469,-0.266539,0.525792,-2.61771,0.887947,0.960773,-0.0218836,0.126693,-0.30079,0.129447,-0.0414382,-0.00463692,0.165673,0.0630581,5.82314,-0.564294,6.91833,-5.15443,-9.74045,2.6744,-5.08621,10.0335,-9.98686,13.4674,-18.8748,-0.545379,1.95987,0.0939885,0.498514,-0.261335,0.522651,-2.61608,0.889121,0.957848,-0.0222885,0.255281,-0.467227,0.295858,-0.283608,-0.0218574,0.250009,0.0416655,0,0,0,0,0,0,0,-0.0718349,-18.8713,-4.81139,26.3797,0.434567,2.87377,0.245468,
0.502549,-0.268842,0.526939,-2.61815,0.887615,0.962248,-0.0215234,0.128364,-0.298208,0.132235,-0.0441391,-0.012009,0.169409,0.0594503,1.04457,1.61381,1.74278,-1.68808,-4.60758,2.33481,-2.25492,9.84612,-10.5161,13.4206,-18.3865,-0.369,1.85929,0.0924961,0.506384,-0.274284,0.53184,-2.62494,0.888654,0.964781,-0.0209102,0.0476257,-0.429582,0.497118,-0.257577,0.0010022,0.181216,0.0499779,-25.957,4.70572,25.1575,3.25387,2.85745,-8.59921,1.03905,3.91132,-18.9705,-1.41142,26.9034,-0.0781286,2.91405,0.23906,
0.503471,-0.271075,0.527923,-2.61854,0.887472,0.963665,-0.0210694,0.12573,-0.294394,0.130373,-0.0450966,-0.0131901,0.17097,0.0589115,-1.64623,2.38332,-1.16377,-0.598466,-0.738132,0.975335,-0.336732,9.65196,-10.5367,13.2175,-17.9721,-0.23343,1.82342,0.0906487,0.506384,-0.274284,0.53184,-2.62494,0.888654,0.964781,-0.0209102,0.0476257,-0.429582,0.497118,-0.257577,0.0010022,0.181216,0.0499779,0,0,0,0,0,0,0,3.91132,-18.9705,-1.41142,26.9034,-0.0781286,2.91405,0.23906,
0.504284,-0.273255,0.528797,-2.61893,0.887477,0.964976,-0.0205514,0.120913,-0.290007,0.126166,-0.0457462,-0.0104123,0.169551,0.0600789,-3.0106,2.74192,-2.62932,-0.405955,1.7361,-0.886271,0.729605,9.455,-10.5525,13.0119,-17.5579,-0.108942,1.79068,0.0886888,0.506384,-0.274284,0.53184,-2.62494,0.888654,0.964781,-0.0209102,0.0476257,-0.429582,0.497118,-0.257577,0.0010022,0.181216,0.0499779,0,0,0,0,0,0,0,3.91132,-18.9705,-1.41142,26.9034,-0.0781286,2.91405,0.23906,
0.509188,-0.278694,0.535154,-2.62726,0.886236,0.967092,-0.0205626,0.128289,-0.285066,0.136422,-0.0594906,-0.0348477,0.164487,0.0525311,4.60979,3.08851,6.40962,-8.5903,-15.2722,-3.16537,-4.71736,9.84612,-10.5161,13.4206,-18.3865,-0.369,1.85929,0.0924961,0.506384,-0.274284,0.53184,-2.62494,0.888654,0.964781,-0.0209102,0.0476257,-0.429582,0.497118,-0.257577,0.0010022,0.181216,0.0499779,0,0,0,0,0,0,0,3.91132,-18.9705,-1.41142,26.9034,-0.0781286,2.91405,0.23906,
0.510221,-0.280796,0.536304,-2.62793,0.885544,0.968353,-0.0202798,0.128455,-0.280618,0.137904,-0.0644862,-0.0451592,0.163112,0.0490931,0.103988,2.78003,0.926361,-3.12222,-6.44467,-0.859486,-2.14877,9.62086,-10.8645,13.3826,-18.1029,-0.226928,1.75629,0.0910728,0.516374,-0.286947,0.53904,-2.63378,0.888581,0.972727,-0.0196759,0.0504883,-0.333864,0.457969,-0.248064,0.00753568,0.218347,0.0506529,0.357825,11.9647,-4.8936,1.18912,0.816684,4.64141,0.0843668,1.93164,-18.423,-1.83592,24.8087,-0.0296057,3.19878,0.151169,
0.511098,-0.282904,0.53728,-2.62848,0.885158,0.969651,-0.0198931,0.124696,-0.277176,0.134708,-0.0653878,-0.0457932,0.162947,0.0489421,-2.34968,2.15102,-1.99745,-0.563535,-0.396261,-0.102978,-0.09434,9.4239,-10.8803,13.177,-17.6887,-0.102439,1.72355,0.0891129,0.516374,-0.286947,0.53904,-2.63378,0.888581,0.972727,-0.0196759,0.0504883,-0.333864,0.457969,-0.248064,0.00753568,0.218347,0.0506529,0,0,0,0,0,0,0,1.93164,-18.423,-1.83592,24.8087,-0.0296057,3.19878,0.151169,
0.511871,-0.28501,0.53814,-2.62897,0.885001,0.970909,-0.0194266,0.119075,-0.274399,0.129276,-0.0644844,-0.0405518,0.161803,0.0508163,-3.51276,1.73548,-3.39505,0.564668,3.27589,-0.714933,1.17139,9.22525,-10.8921,12.97,-17.275,0.0113485,1.692,0.0870212,0.516374,-0.286947,0.53904,-2.63378,0.888581,0.972727,-0.0196759,0.0504883,-0.333864,0.457969,-0.248064,0.00753568,0.218347,0.0506529,0,0,0,0,0,0,0,1.93164,-18.423,-1.83592,24.8087,-0.0296057,3.19878,0.151169,
0.518943,-0.2907,0.542193,-2.63621,0.886686,0.975257,-0.0194258,0.124409,-0.266218,0.137349,-0.0763031,-0.0526648,0.160574,0.0437542,3.33351,5.11314,5.04565,-7.3867,-7.57063,-0.768061,-4.41387,9.62086,-10.8645,13.3826,-18.1029,-0.226928,1.75629,0.0910728,0.516374,-0.286947,0.53904,-2.63378,0.888581,0.972727,-0.0196759,0.0504883,-0.333864,0.457969,-0.248064,0.00753568,0.218347,0.0506529,0,0,0,0,0,0,0,1.93164,-18.423,-1.83592,24.8087,-0.0296057,3.19878,0.151169,
0.519912,-0.292626,0.543307,-2.63696,0.886203,0.976599,-0.0192011,0.123748,-0.261131,0.137732,-0.0796182,-0.0542065,0.161994,0.0406204,-0.413406,3.17934,0.239409,-2.07196,-0.963564,0.887172,-1.95862,9.38253,-11.2274,13.3727,-17.835,-0.106538,1.66193,0.0894945,0.524611,-0.29965,0.547662,-2.64274,0.888373,0.980172,-0.0187823,0.286326,-0.332337,0.162416,-0.258897,-0.0291485,0.234927,0.0249263,29.4797,0.190827,-36.9441,-1.3541,-4.58553,2.07248,-3.21583,-0.57568,-20.1686,-4.83519,20.2264,0.226742,3.24547,0.171311,
0.520747,-0.294604,0.544264,-2.63756,0.885983,0.977975,-0.0188715,0.119868,-0.258345,0.134107,-0.0788309,-0.048867,0.164001,0.0407368,-2.42456,1.74128,-2.26582,0.492069,3.33721,1.25478,0.0727466,9.18388,-11.2391,13.1658,-17.4213,0.00724945,1.63038,0.0874028,0.524611,-0.29965,0.547662,-2.64274,0.888373,0.980172,-0.0187823,0.286326,-0.332337,0.162416,-0.258897,-0.0291485,0.234927,0.0249263,0,0,0,0,0,0,0,-0.57568,-20.1686,-4.83519,20.2264,0.226742,3.24547,0.171311,
0.527069,-0.304099,0.550316,-2.64434,0.888302,0.983091,-0.0184903,0.123415,-0.260102,0.137764,-0.0788756,-0.0394559,0.168427,0.0374915,2.21697,-1.09814,2.28598,-0.0279017,5.88194,2.76595,-2.02831,9.38253,-11.2274,13.3727,-17.835,-0.106538,1.66193,0.0894945,0.524611,-0.29965,0.547662,-2.64274,0.888373,0.980172,-0.0187823,0.286326,-0.332337,0.162416,-0.258897,-0.0291485,0.234927,0.0249263,0,0,0,0,0,0,0,-0.57568,-20.1686,-4.83519,20.2264,0.226742,3.24547,0.171311,
0.528009,-0.30617,0.551371,-2.64486,0.888386,0.984589,-0.0181915,0.122235,-0.259867,0.136581,-0.0759084,-0.0294657,0.172185,0.0374626,-0.73806,0.146986,-0.739666,1.85447,6.24384,2.34916,-0.0180299,9.18388,-11.2391,13.1658,-17.4213,0.00724945,1.63038,0.0874028,0.524611,-0.29965,0.547662,-2.64274,0.888373,0.980172,-0.0187823,0.286326,-0.332337,0.162416,-0.258897,-0.0291485,0.234927,0.0249263,0,0,0,0,0,0,0,-0.57568,-20.1686,-4.83519,20.2264,0.226742,3.24547,0.171311,
0.528837,-0.308206,0.552313,-2.64533,0.888566,0.986022,-0.0178161,0.118502,-0.258791,0.132812,-0.0725606,-0.0190734,0.173582,0.0393554,-2.33314,0.672622,-2.35525,2.0924,6.49522,0.872777,1.18297,8.99721,-11.7136,13.222,-17.0186,0.116293,1.52865,0.0855691,0.531199,-0.313323,0.559392,-2.6522,0.887384,0.988121,-0.0183519,0.435136,-0.356998,0.0504037,-0.281002,-0.0612745,0.250502,0.0134477,18.6012,-3.08259,-14.0016,-2.76315,-4.01574,1.94688,-1.43482,-3.13855,-18.2723,-6.96166,18.0841,0.60577,3.28484,0.245468,
0.529588,-0.310209,0.553179,-2.6458,0.888821,0.987349,-0.0173907,0.113568,-0.25711,0.127912,-0.0697689,-0.00887548,0.172045,0.0421185,-3.08324,1.05069,-3.06264,1.74483,6.37369,-0.960411,1.72694,8.79725,-11.719,13.0141,-16.6061,0.208756,1.49873,0.083275,0.531199,-0.313323,0.559392,-2.6522,0.887384,0.988121,-0.0183519,0.435136,-0.356998,0.0504037,-0.281002,-0.0612745,0.250502,0.0134477,0,0,0,0,0,0,0,-3.13855,-18.2723,-6.96166,18.0841,0.60577,3.28484,0.245468,
0.533881,-0.318285,0.562081,-2.65341,0.887943,0.991103,-0.0181236,0.120236,-0.263911,0.133996,-0.0671778,-0.000675896,0.176437,0.0383449,4.16744,-4.25058,3.80246,1.61941,5.12474,2.74489,-2.35846,9.1969,-11.7054,13.4298,-17.4318,0.0137589,1.55848,0.0877391,0.531199,-0.313323,0.559392,-2.6522,0.887384,0.988121,-0.0183519,0.435136,-0.356998,0.0504037,-0.281002,-0.0612745,0.250502,0.0134477,0,0,0,0,0,0,0,-3.13855,-18.2723,-6.96166,18.0841,0.60577,3.28484,0.245468,
0.534874,-0.320458,0.563186,-2.6538,0.888217,0.99265,-0.0178297,0.121023,-0.265462,0.134818,-0.0636033,0.00632196,0.179825,0.0380235,0.491758,-0.969446,0.514114,2.23409,4.37366,2.1175,-0.200875,8.99721,-11.7136,13.222,-17.0186,0.116293,1.52865,0.0855691,0.531199,-0.313323,0.559392,-2.6522,0.887384,0.988121,-0.0183519,0.435136,-0.356998,0.0504037,-0.281002,-0.0612745,0.250502,0.0134477,0,0,0,0,0,0,0,-3.13855,-18.2723,-6.96166,18.0841,0.60577,3.28484,0.245468,
0.535742,-0.322537,0.564176,-2.65421,0.888532,0.994105,-0.0174674,0.118507,-0.264332,0.132595,-0.0610491,0.0129201,0.180229,0.0394761,-1.57266,0.705812,-1.38967,1.59637,4.12382,0.252305,0.90784,8.87647,-12.2824,13.2801,-16.4405,0.23412,1.42263,0.0834913,0.537246,-0.326808,0.571748,-2.66243,0.886806,0.995325,-0.018129,0.283795,-0.45868,0.240292,-0.319456,-0.00972878,0.213615,0.00429795,-18.9176,-12.7102,23.736,-4.8067,6.44321,-4.61087,-1.14372,-2.47998,-17.451,-7.96141,24.5349,0.672604,3.75542,0.251877,
0.536521,-0.324542,0.565088,-2.65465,0.888882,0.995433,-0.0170665,0.114281,-0.261598,0.128871,-0.0598658,0.0191052,0.177391,0.0416035,-2.64117,1.70879,-2.32771,0.739552,3.86573,-1.77348,1.32965,8.67666,-12.2852,13.0725,-16.0288,0.315884,1.3934,0.0811394,0.537246,-0.326808,0.571748,-2.66243,0.886806,0.995325,-0.018129,0.283795,-0.45868,0.240292,-0.319456,-0.00972878,0.213615,0.00429795,0,0,0,0,0,0,0,-2.47998,-17.451,-7.96141,24.5349,0.672604,3.75542,0.251877,
