xiao-wang007/linearmpc_panda/paper_data/panda_inverse_dynamics_controller_opt_time_to_start_no_acceleration_ff/4/trajectory.csv
Commanded Joint 0 Position,Commanded Joint 1 Position,Commanded Joint 2 Position,Commanded Joint 3 Position,Commanded Joint 4 Position,Commanded Joint 5 Position,Commanded Joint 6 Position,Commanded Joint 0 Velocity,Commanded Joint 1 Velocity,Commanded Joint 2 Velocity,Commanded Joint 3 Velocity,Commanded Joint 4 Velocity,Commanded Joint 5 Velocity,Commanded Joint 6 Velocity,Commanded Joint 0 Acceleration,Commanded Joint 1 Acceleration,Commanded Joint 2 Acceleration,Commanded Joint 3 Acceleration,Commanded Joint 4 Acceleration,Commanded Joint 5 Acceleration,Commanded Joint 6 Acceleration,Commanded Joint 0 Torque,Commanded Joint 1 Torque,Commanded Joint 2 Torque,Commanded Joint 3 Torque,Commanded Joint 4 Torque,Commanded Joint 5 Torque,Commanded Joint 6 Torque,Actual Joint 0 Position,Actual Joint 1 Position,Actual Joint 2 Position,Actual Joint 3 Position,Actual Joint 4 Position,Actual Joint 5 Position,Actual Joint 6 Position,Actual Joint 0 Velocity,Actual Joint 1 Velocity,Actual Joint 2 Velocity,Actual Joint 3 Velocity,Actual Joint 4 Velocity,Actual Joint 5 Velocity,Actual Joint 6 Velocity,Actual Joint 0 Acceleration,Actual Joint 1 Acceleration,Actual Joint 2 Acceleration,Actual Joint 3 Acceleration,Actual Joint 4 Acceleration,Actual Joint 5 Acceleration,Actual Joint 6 Acceleration,Actual Joint 0 Torque,Actual Joint 1 Torque,Actual Joint 2 Torque,Actual Joint 3 Torque,Actual Joint 4 Torque,Actual Joint 5 Torque,Actual Joint 6 Torque,
-0.0344039,-0.1021,0.040902,-1.89281,0.0252309,0.251369,0.0546446,0.000635046,0.0191741,0.000908637,-0.0344601,-0.00593983,0.0533263,-0.000386676,0,0,0,0,0,0,0,0.0569323,21.1185,0.295114,-24.3711,-0.678577,1.94934,-0.024684,-0.0344455,-0.10281,0.0408435,-1.88994,0.0256179,0.245645,0.0546887,-0.000224851,0.000868725,0.000164464,-0.000393742,-0.00230554,0.00107187,-0.000753359,0,0,0,0,0,0,0,-0.0718349,-31.9515,-0.33629,27.4271,1.07635,3.00011,-0.00996382,
-0.0344476,-0.102795,0.0408413,-1.88994,0.0255936,0.245659,0.0546882,0.000490289,0.0154424,0.000706757,-0.0275965,-0.00487755,0.0427549,-0.000310843,0,0,0,0,0,0,0,0.0511773,21.5592,0.284743,-24.2874,-0.678748,1.69842,-0.0231652,-0.0344455,-0.10281,0.0408435,-1.88994,0.0256179,0.245645,0.0546887,-0.000224851,0.000868725,0.000164464,-0.000393742,-0.00230554,0.00107187,-0.000753359,0,0,0,0,0,0,0,-0.0718349,-31.9515,-0.33629,27.4271,1.07635,3.00011,-0.00996382,
-0.0344482,-0.102792,0.0408405,-1.88994,0.0255901,0.245663,0.0546881,0.000376128,0.0124427,0.0005464,-0.0220983,-0.00398799,0.0342917,-0.000249758,0,0,0,0,0,0,0,0.043954,22.132,0.272874,-24.1788,-0.678089,1.35157,-0.0211933,-0.0344443,-0.102761,0.0408472,-1.89007,0.0256181,0.245655,0.0546883,-0.00181023,-0.00351304,0.00142313,-0.00752959,-0.00314002,0.0077964,-0.000390256,-0.198172,-0.54772,0.157333,-0.891981,-0.10431,0.840565,0.0453879,-0.119442,-31.7253,-0.387865,27.3517,1.07635,2.95342,-0.0163725,
-0.0344488,-0.102788,0.0408399,-1.88994,0.0255877,0.245666,0.0546881,0.000286923,0.0100322,0.000419978,-0.017694,-0.00325067,0.0275204,-0.000200671,0,0,0,0,0,0,0,0.0380161,22.6561,0.263445,-24.011,-0.675963,0.96637,-0.01918,-0.0344443,-0.102761,0.0408472,-1.89007,0.0256181,0.245655,0.0546883,-0.00181023,-0.00351304,0.00142313,-0.00752959,-0.00314002,0.0077964,-0.000390256,0,0,0,0,0,0,0,-0.119442,-31.7253,-0.387865,27.3517,1.07635,2.95342,-0.0163725,
-0.0347222,-0.102778,0.0405855,-1.88989,0.034017,0.240679,0.0546533,-0.000703695,0.00785204,-0.000644263,-0.0137165,0.0506312,-0.0104485,-0.000209128,0,0,0,0,0,0,0,0.468909,0.214818,0.461601,-0.290761,3.14861,-2.01328,-0.00222268,-0.0344443,-0.102761,0.0408472,-1.89007,0.0256181,0.245655,0.0546883,-0.00181023,-0.00351304,0.00142313,-0.00752959,-0.00314002,0.0077964,-0.000390256,0,0,0,0,0,0,0,-0.119442,-31.7253,-0.387865,27.3517,1.07635,2.95342,-0.0163725,
-0.0347463,-0.102784,0.0405594,-1.88988,0.0362094,0.239322,0.0546519,-0.00116494,0.00614869,-0.00116963,-0.0107477,0.0953152,-0.0422789,-0.000201298,0,0,0,0,0,0,0,0.463941,0.213191,0.456591,-0.28781,3.12063,-1.99596,-0.00218075,-0.0344443,-0.102761,0.0408472,-1.89007,0.0256181,0.245655,0.0546883,-0.00181023,-0.00351304,0.00142313,-0.00752959,-0.00314002,0.0077964,-0.000390256,0,0,0,0,0,0,0,-0.119442,-31.7253,-0.387865,27.3517,1.07635,2.95342,-0.0163725,
-0.0347585,-0.102787,0.0405451,-1.88988,0.0384351,0.237929,0.0546508,-0.0012389,0.00484368,-0.0012927,-0.0085444,0.131893,-0.0686535,-0.000188288,0,0,0,0,0,0,0,0.459066,0.222062,0.450842,-0.282589,3.09273,-1.97506,-0.00215794,-0.0344344,-0.102397,0.040855,-1.89048,0.025621,0.245682,0.0546899,0.00264097,0.00489294,0.00318413,-0.0271428,-0.00337328,-0.0101828,-0.000537005,0.5564,1.05075,0.220125,-2.45165,-0.0291567,-2.2474,-0.0183436,-0.171017,-31.0787,-0.435472,28.1253,1.05163,3.20519,-0.0163725,
-0.0348026,-0.102186,0.0405687,-1.89003,0.052258,0.224177,0.0546,-0.000714111,0.00405924,-0.000498457,-0.0067073,0.271513,-0.191014,-0.000211214,0,0,0,0,0,0,0,3.80807,1.13997,3.9212,-1.76415,10.3873,-8.65029,-0.00290809,-0.0344344,-0.102397,0.040855,-1.89048,0.025621,0.245682,0.0546899,0.00264097,0.00489294,0.00318413,-0.0271428,-0.00337328,-0.0101828,-0.000537005,0,0,0,0,0,0,0,-0.171017,-31.0787,-0.435472,28.1253,1.05163,3.20519,-0.0163725,
-0.0347397,-0.102175,0.0406379,-1.89006,0.0590203,0.218561,0.054599,0.00100098,0.00354302,0.00133151,-0.00617597,0.386269,-0.293213,-0.000194131,0,0,0,0,0,0,0,3.703,1.10131,3.80826,-1.73782,10.1517,-8.46951,-0.00364773,-0.0344344,-0.102397,0.040855,-1.89048,0.025621,0.245682,0.0546899,0.00264097,0.00489294,0.00318413,-0.0271428,-0.00337328,-0.0101828,-0.000537005,0,0,0,0,0,0,0,-0.171017,-31.0787,-0.435472,28.1253,1.05163,3.20519,-0.0163725,
-0.0346331,-0.102154,0.0407502,-1.89012,0.0658041,0.212866,0.0545985,0.00346524,0.00333766,0.0038726,-0.00648578,0.478611,-0.376954,-0.000167243,0,0,0,0,0,0,0,3.61579,1.06505,3.70056,-1.71148,9.91317,-8.29152,-0.00444391,-0.0344344,-0.102397,0.040855,-1.89048,0.025621,0.245682,0.0546899,0.00264097,0.00489294,0.00318413,-0.0271428,-0.00337328,-0.0101828,-0.000537005,0,0,0,0,0,0,0,-0.171017,-31.0787,-0.435472,28.1253,1.05163,3.20519,-0.0163725,
-0.0344904,-0.102125,0.040899,-1.89021,0.0725457,0.207156,0.0545981,0.00633993,0.00341135,0.00681746,-0.00729776,0.551429,-0.444312,-0.000144604,0,0,0,0,0,0,0,3.58576,1.03518,3.5653,-1.68084,9.65975,-8.11846,-0.00338818,-0.034436,-0.102315,0.0408559,-1.8912,0.0256361,0.245681,0.0546897,0.00165939,0.00415454,0.00338677,-0.0225898,-0.00443682,0.00329185,-0.000597878,-0.122697,-0.0922999,0.0253303,0.569118,-0.132943,1.68434,-0.0076092,0.0313145,-32.3998,-0.185533,27.5739,1.08825,3.07244,-0.0163725,
-0.0319862,-0.103476,0.0430792,-1.89271,0.0520452,0.211124,0.0548356,0.0220758,-0.00473773,0.0238153,-0.0184529,0.617893,-0.58633,0.000339716,0,0,0,0,0,0,0,20.7222,-1.13655,16.1869,-11.4365,10.9203,-14.2513,0.113056,-0.034436,-0.102315,0.0408559,-1.8912,0.0256361,0.245681,0.0546897,0.00165939,0.00415454,0.00338677,-0.0225898,-0.00443682,0.00329185,-0.000597878,0,0,0,0,0,0,0,0.0313145,-32.3998,-0.185533,27.5739,1.08825,3.07244,-0.0163725,
-0.0312297,-0.103769,0.0438925,-1.89331,0.0595177,0.201553,0.0548539,0.0365748,-0.0111104,0.0393851,-0.0298164,0.681127,-0.70835,0.000727161,0,0,0,0,0,0,0,16.809,-0.743209,16.9813,-10.8387,10.9203,-14.2513,0.0411384,-0.034436,-0.102315,0.0408559,-1.8912,0.0256361,0.245681,0.0546897,0.00165939,0.00415454,0.00338677,-0.0225898,-0.00443682,0.00329185,-0.000597878,0,0,0,0,0,0,0,0.0313145,-32.3998,-0.185533,27.5739,1.08825,3.07244,-0.0163725,
-0.0304144,-0.104046,0.0447659,-1.89401,0.0672808,0.192041,0.0548726,0.049642,-0.0158136,0.0533434,-0.0414075,0.73898,-0.804478,0.00104982,0,0,0,0,0,0,0,15.8094,-1.04483,16.4863,-10.6618,10.9203,-14.2513,0.0296871,-0.034436,-0.102315,0.0408559,-1.8912,0.0256361,0.245681,0.0546897,0.00165939,0.00415454,0.00338677,-0.0225898,-0.00443682,0.00329185,-0.000597878,0,0,0,0,0,0,0,0.0313145,-32.3998,-0.185533,27.5739,1.08825,3.07244,-0.0163725,
-0.0308025,-0.102242,0.0446741,-1.89433,0.0509148,0.212674,0.0548155,0.0658583,-0.0116551,0.0699855,-0.0563305,0.764013,-0.867434,0.0012477,0,0,0,0,0,0,0,24.7346,6.87574,25.4963,-17.7716,10.9203,-14.2513,0.0577886,-0.034436,-0.102315,0.0408559,-1.8912,0.0256361,0.245681,0.0546897,0.00165939,0.00415454,0.00338677,-0.0225898,-0.00443682,0.00329185,-0.000597878,0,0,0,0,0,0,0,0.0313145,-32.3998,-0.185533,27.5739,1.08825,3.07244,-0.0163725,
-0.0296718,-0.102179,0.0458549,-1.89538,0.0582892,0.203364,0.0548304,0.0809544,-0.00774487,0.0855087,-0.0713761,0.79557,-0.926703,0.00137158,0,0,0,0,0,0,0,23.275,6.13227,24.0509,-17.4918,10.9176,-14.2433,0.0396734,-0.0343554,-0.10219,0.0413469,-1.89227,0.0266136,0.245234,0.0546931,0.00451759,-0.00942299,0.0255392,-0.0447334,0.0554762,-0.0410656,0.000530695,0.357275,-1.69719,2.76905,-2.76795,7.48912,-5.54469,0.141072,1.65393,-31.2254,1.61165,25.7092,1.74194,2.42333,-0.0163725,
-0.0284802,-0.10209,0.047099,-1.89657,0.0660042,0.194184,0.0548469,0.0945532,-0.00397617,0.0995092,-0.0866998,0.829332,-0.970863,0.00150927,0,0,0,0,0,0,0,22.0306,5.39978,22.8129,-17.2586,10.9176,-14.2433,0.0285858,-0.0343554,-0.10219,0.0413469,-1.89227,0.0266136,0.245234,0.0546931,0.00451759,-0.00942299,0.0255392,-0.0447334,0.0554762,-0.0410656,0.000530695,0,0,0,0,0,0,0,1.65393,-31.2254,1.61165,25.7092,1.74194,2.42333,-0.0163725,
-0.0272469,-0.101968,0.0483868,-1.89785,0.073966,0.185405,0.0548648,0.106476,-0.000137431,0.111802,-0.101477,0.86251,-0.996148,0.001656,0,0,0,0,0,0,0,20.9524,4.70151,21.7308,-17.0664,10.9176,-14.2433,0.0202318,-0.0343554,-0.10219,0.0413469,-1.89227,0.0266136,0.245234,0.0546931,0.00451759,-0.00942299,0.0255392,-0.0447334,0.0554762,-0.0410656,0.000530695,0,0,0,0,0,0,0,1.65393,-31.2254,1.61165,25.7092,1.74194,2.42333,-0.0163725,
-0.0301211,-0.103722,0.0458228,-1.8983,0.0526676,0.212753,0.0545746,0.11453,-0.00780137,0.120168,-0.120338,0.864304,-1.01191,0.000708453,0,0,0,0,0,0,0,26.2306,2.84199,27.2037,-25.3373,10.9176,-14.2433,-0.0109094,-0.0343554,-0.10219,0.0413469,-1.89227,0.0266136,0.245234,0.0546931,0.00451759,-0.00942299,0.0255392,-0.0447334,0.0554762,-0.0410656,0.000530695,0,0,0,0,0,0,0,1.65393,-31.2254,1.61165,25.7092,1.74194,2.42333,-0.0163725,
-0.0288581,-0.104004,0.0471432,-1.90003,0.0600859,0.204257,0.054554,0.123198,-0.0132877,0.129146,-0.139457,0.8769,-1.02193,5.18983e-05,0,0,0,0,0,0,0,24.7204,1.88538,25.6788,-25.0217,10.9049,-14.2033,-0.0288135,-0.033528,-0.102511,0.0435339,-1.89458,0.0318483,0.240713,0.0546909,0.0491741,-0.00370757,0.084173,-0.0907525,0.216564,-0.215663,-0.00124667,5.58207,0.714428,7.32923,-5.75238,20.1359,-21.8246,-0.222171,5.33161,-29.1783,5.46388,23.3923,1.88202,1.5545,0.00376909,
-0.0275309,-0.104249,0.0485299,-1.90188,0.0678296,0.196189,0.0545394,0.131738,-0.0167542,0.137982,-0.157759,0.895112,-1.01924,-0.000324259,0,0,0,0,0,0,0,23.4748,1.03115,24.4104,-24.7253,10.9049,-14.2033,-0.0363907,-0.033528,-0.102511,0.0435339,-1.89458,0.0318483,0.240713,0.0546909,0.0491741,-0.00370757,0.084173,-0.0907525,0.216564,-0.215663,-0.00124667,0,0,0,0,0,0,0,5.33161,-29.1783,5.46388,23.3923,1.88202,1.5545,0.00376909,
-0.0282305,-0.103372,0.049123,-1.90241,0.061088,0.20704,0.0544957,0.137976,-0.0168415,0.144512,-0.175136,0.899474,-1.01268,-0.00101406,0,0,0,0,0,0,0,25.7563,4.55705,26.7608,-28.6285,10.9049,-14.2033,-0.0441728,-0.033528,-0.102511,0.0435339,-1.89458,0.0318483,0.240713,0.0546909,0.0491741,-0.00370757,0.084173,-0.0907525,0.216564,-0.215663,-0.00124667,0,0,0,0,0,0,0,5.33161,-29.1783,5.46388,23.3923,1.88202,1.5545,0.00376909,
-0.0268628,-0.103462,0.0505541,-1.90449,0.0687826,0.199517,0.054471,0.144573,-0.0157081,0.151387,-0.192147,0.911944,-0.998237,-0.0014285,0,0,0,0,0,0,0,24.4011,3.60499,25.3843,-28.3091,10.9049,-14.2033,-0.0514489,-0.033528,-0.102511,0.0435339,-1.89458,0.0318483,0.240713,0.0546909,0.0491741,-0.00370757,0.084173,-0.0907525,0.216564,-0.215663,-0.00124667,0,0,0,0,0,0,0,5.33161,-29.1783,5.46388,23.3923,1.88202,1.5545,0.00376909,
-0.0254511,-0.103501,0.0520306,-1.90666,0.0767349,0.192536,0.0544538,0.150951,-0.0135496,0.158024,-0.207771,0.928363,-0.973096,-0.00157126,0,0,0,0,0,0,0,23.2792,2.74561,24.2544,-27.9539,10.8853,-14.125,-0.0512558,-0.0311394,-0.10278,0.0478975,-1.89875,0.0414337,0.230512,0.054685,0.071841,-0.0176938,0.137915,-0.151691,0.237065,-0.311535,-0.00282489,2.83336,-1.74828,6.71776,-7.61737,2.56267,-11.9841,-0.197277,2.76874,-29.5274,2.51222,25.2332,2.81677,1.35583,0.0440523,
-0.0250302,-0.104182,0.0543264,-1.90938,0.0716253,0.197095,0.0543788,0.156116,-0.01676,0.163368,-0.228895,0.929491,-0.962204,-0.00239322,0,0,0,0,0,0,0,26.1537,3.11185,27.1421,-34.7757,10.8853,-14.125,-0.073596,-0.0311394,-0.10278,0.0478975,-1.89875,0.0414337,0.230512,0.054685,0.071841,-0.0176938,0.137915,-0.151691,0.237065,-0.311535,-0.00282489,0,0,0,0,0,0,0,2.76874,-29.5274,2.51222,25.2332,2.81677,1.35583,0.0440523,
-0.0235663,-0.104371,0.0558554,-1.91198,0.0794261,0.190208,0.0543408,0.16149,-0.0181395,0.16892,-0.248304,0.938612,-0.941947,-0.00286465,0,0,0,0,0,0,0,24.7834,2.00802,25.7514,-34.4185,10.8853,-14.125,-0.0803548,-0.0311394,-0.10278,0.0478975,-1.89875,0.0414337,0.230512,0.054685,0.071841,-0.0176938,0.137915,-0.151691,0.237065,-0.311535,-0.00282489,0,0,0,0,0,0,0,2.76874,-29.5274,2.51222,25.2332,2.81677,1.35583,0.0440523,
-0.0220704,-0.104514,0.0574175,-1.91465,0.0874596,0.183915,0.0543111,0.16659,-0.0180911,0.174188,-0.265309,0.951727,-0.910871,-0.00303459,0,0,0,0,0,0,0,23.6553,1.08453,24.5977,-34.0547,10.8853,-13.0436,-0.0771264,-0.0311394,-0.10278,0.0478975,-1.89875,0.0414337,0.230512,0.054685,0.071841,-0.0176938,0.137915,-0.151691,0.237065,-0.311535,-0.00282489,0,0,0,0,0,0,0,2.76874,-29.5274,2.51222,25.2332,2.81677,1.35583,0.0440523,
-0.0205568,-0.104617,0.058998,-1.91734,0.095657,0.178283,0.0542893,0.171112,-0.0170385,0.178863,-0.279603,0.966317,-0.869512,-0.00297358,0,0,0,0,0,0,0,22.7339,0.335522,23.6723,-33.5921,10.8844,-11.0602,-0.0726326,-0.0279019,-0.1029,0.0543959,-1.90489,0.0492701,0.218658,0.0546953,0.103481,0.00563112,0.217853,-0.201581,0.248315,-0.357082,-4.79541e-06,3.95495,2.91562,9.99229,-6.23615,1.40628,-5.69333,0.352512,3.85974,-29.9043,3.48817,23.7137,2.13836,0.818411,-0.0365141,
-0.020777,-0.103633,0.0618931,-1.91795,0.0807895,0.18924,0.0543098,0.175149,-0.0160073,0.183038,-0.29761,0.965271,-0.842423,-0.00375627,0,0,0,0,0,0,0,26.0735,3.77675,27.0532,-39.4084,10.8844,-14.0155,-0.0951199,-0.0279019,-0.1029,0.0543959,-1.90489,0.0492701,0.218658,0.0546953,0.103481,0.00563112,0.217853,-0.201581,0.248315,-0.357082,-4.79541e-06,0,0,0,0,0,0,0,3.85974,-29.9043,3.48817,23.7137,2.13836,0.818411,-0.0365141,
-0.0192218,-0.103682,0.0635159,-1.92097,0.0887658,0.1839,0.0542644,0.178999,-0.014041,0.187002,-0.313577,0.971623,-0.807431,-0.00413975,0,0,0,0,0,0,0,24.7236,2.73313,25.6787,-38.9734,10.8844,-11.9961,-0.0966976,-0.0279019,-0.1029,0.0543959,-1.90489,0.0492701,0.218658,0.0546953,0.103481,0.00563112,0.217853,-0.201581,0.248315,-0.357082,-4.79541e-06,0,0,0,0,0,0,0,3.85974,-29.9043,3.48817,23.7137,2.13836,0.818411,-0.0365141,
-0.0176546,-0.10369,0.0651509,-1.92402,0.0969388,0.179165,0.0542286,0.18238,-0.0114322,0.190476,-0.327037,0.981623,-0.764309,-0.00420705,0,0,0,0,0,0,0,23.5946,1.89427,24.5201,-38.5302,10.8844,-10.117,-0.0911426,-0.0279019,-0.1029,0.0543959,-1.90489,0.0492701,0.218658,0.0546953,0.103481,0.00563112,0.217853,-0.201581,0.248315,-0.357082,-4.79541e-06,0,0,0,0,0,0,0,3.85974,-29.9043,3.48817,23.7137,2.13836,0.818411,-0.0365141,
-0.0165065,-0.104135,0.0698938,-1.92897,0.089828,0.184476,0.0542484,0.184022,-0.0135377,0.192193,-0.346981,0.979466,-0.705513,-0.00496068,0,0,0,0,0,0,0,24.8161,1.18286,25.7492,-44.3922,10.8751,-9.80213,-0.11799,-0.0238017,-0.102963,0.0622154,-1.91305,0.0576081,0.205399,0.054694,0.124272,-0.00442869,0.234971,-0.268205,0.264927,-0.400583,-0.0014301,2.59898,-1.25748,2.13965,-8.32801,2.07645,-5.43763,-0.178163,3.78437,-28.008,3.36122,21.0992,1.83349,0.771719,0.00376909,
-0.0149658,-0.104274,0.071502,-1.9324,0.0978558,0.181233,0.0541968,0.185736,-0.0142876,0.193959,-0.363455,0.984269,-0.645496,-0.00525877,0,0,0,0,0,0,0,23.6396,0.3102,24.5522,-43.8721,10.8751,-8.00609,-0.112784,-0.0238017,-0.102963,0.0622154,-1.91305,0.0576081,0.205399,0.054694,0.124272,-0.00442869,0.234971,-0.268205,0.264927,-0.400583,-0.0014301,0,0,0,0,0,0,0,3.78437,-28.008,3.36122,21.0992,1.83349,0.771719,0.00376909,
-0.0134183,-0.10438,0.0731167,-1.93583,0.106058,0.178545,0.054159,0.187276,-0.0140975,0.195536,-0.376534,0.992478,-0.583594,-0.005152,0,0,0,0,0,0,0,22.6394,-0.354752,23.5253,-43.33,10.8751,-6.45752,-0.102793,-0.0238017,-0.102963,0.0622154,-1.91305,0.0576081,0.205399,0.054694,0.124272,-0.00442869,0.234971,-0.268205,0.264927,-0.400583,-0.0014301,0,0,0,0,0,0,0,3.78437,-28.008,3.36122,21.0992,1.83349,0.771719,0.00376909,
-0.0118726,-0.104462,0.0747293,-1.93924,0.114378,0.176412,0.0541335,0.188463,-0.0133145,0.196743,-0.38643,1.00198,-0.520193,-0.00475919,0,0,0,0,0,0,0,21.7855,-0.839643,22.644,-42.7594,10.8751,-5.11263,-0.0925202,-0.0238017,-0.102963,0.0622154,-1.91305,0.0576081,0.205399,0.054694,0.124272,-0.00442869,0.234971,-0.268205,0.264927,-0.400583,-0.0014301,0,0,0,0,0,0,0,3.78437,-28.008,3.36122,21.0992,1.83349,0.771719,0.00376909,
-0.0167514,-0.104031,0.0696112,-1.92994,0.0901744,0.193407,0.0543289,0.187387,-0.013313,0.195491,-0.39737,0.996622,-0.461509,-0.00483507,0,0,0,0,0,0,0,23.2208,0.964929,24.0638,-45.9143,10.8601,-5.44477,-0.108044,-0.0195618,-0.103063,0.0714645,-1.92392,0.0684945,0.191803,0.0546954,0.126085,0.00333304,0.292407,-0.351177,0.353348,-0.387265,0.000837958,0.226566,0.970216,7.17952,-10.3715,11.0526,1.66476,0.283507,1.65393,-27.6827,1.16334,22.5949,1.61377,1.42815,-0.0365141,
-0.0152739,-0.104092,0.0711473,-1.93347,0.0982279,0.191993,0.054298,0.186847,-0.0121936,0.194797,-0.405953,0.998635,-0.404553,-0.00463939,0,0,0,0,0,0,0,22.301,0.443664,23.1263,-45.2957,10.8601,-4.18631,-0.0974462,-0.0195618,-0.103063,0.0714645,-1.92392,0.0684945,0.191803,0.0546954,0.126085,0.00333304,0.292407,-0.351177,0.353348,-0.387265,0.000837958,0,0,0,0,0,0,0,1.65393,-27.6827,1.16334,22.5949,1.61377,1.42815,-0.0365141,
-0.0137925,-0.104118,0.0726871,-1.93696,0.10645,0.190982,0.0542771,0.186512,-0.0103938,0.194333,-0.412212,1.00447,-0.348931,-0.00423517,0,0,0,0,0,0,0,21.5136,0.0671033,22.3167,-44.6615,10.8601,-3.09772,-0.0815418,-0.0195618,-0.103063,0.0714645,-1.92392,0.0684945,0.191803,0.0546954,0.126085,0.00333304,0.292407,-0.351177,0.353348,-0.387265,0.000837958,0,0,0,0,0,0,0,1.65393,-27.6827,1.16334,22.5949,1.61377,1.42815,-0.0365141,
-0.0118262,-0.103701,0.0795975,-1.94253,0.102477,0.178147,0.0543865,0.187979,-0.00983027,0.19592,-0.425266,1.00233,-0.336223,-0.00424931,0,0,0,0,0,0,0,23.511,1.1707,24.3685,-49.5955,10.8601,-5.68717,-0.0834677,-0.0195618,-0.103063,0.0714645,-1.92392,0.0684945,0.191803,0.0546954,0.126085,0.00333304,0.292407,-0.351177,0.353348,-0.387265,0.000837958,0,0,0,0,0,0,0,1.65393,-27.6827,1.16334,22.5949,1.61377,1.42815,-0.0365141,
-0.0102784,-0.103733,0.0812117,-1.94633,0.11064,0.176219,0.0543622,0.189079,-0.00866767,0.197091,-0.435243,1.00594,-0.317175,-0.0040064,0,0,0,0,0,0,0,22.4831,0.377094,23.3626,-48.8206,10.805,-4.5089,-0.0783038,-0.0154515,-0.103093,0.0814946,-1.93737,0.0812544,0.178692,0.0546949,0.108543,0.00496993,0.257338,-0.379845,0.343615,-0.33428,-0.000799856,-2.19281,0.204611,-4.38361,-3.58344,-1.21664,6.62311,-0.204727,-5.39593,-33.8478,-5.86272,30.8151,1.46728,3.0468,0.0101778,
-0.00873919,-0.103743,0.0828166,-1.9501,0.118941,0.174661,0.0543479,0.189743,-0.00718651,0.197795,-0.442398,1.01228,-0.292693,-0.00356451,0,0,0,0,0,0,0,21.6328,-0.0594166,22.4923,-48.1219,10.805,-3.57895,-0.0687068,-0.0154515,-0.103093,0.0814946,-1.93737,0.0812544,0.178692,0.0546949,0.108543,0.00496993,0.257338,-0.379845,0.343615,-0.33428,-0.000799856,0,0,0,0,0,0,0,-5.39593,-33.8478,-5.86272,30.8151,1.46728,3.0468,0.0101778,
-0.00721376,-0.103737,0.084407,-1.95383,0.12733,0.17347,0.0543454,0.18993,-0.00558711,0.197998,-0.447027,1.01955,-0.263925,-0.00291246,0,0,0,0,0,0,0,20.9093,-0.369962,21.7476,-47.4003,10.805,-2.75763,-0.0564442,-0.0154515,-0.103093,0.0814946,-1.93737,0.0812544,0.178692,0.0546949,0.108543,0.00496993,0.257338,-0.379845,0.343615,-0.33428,-0.000799856,0,0,0,0,0,0,0,-5.39593,-33.8478,-5.86272,30.8151,1.46728,3.0468,0.0101778,
-0.00874909,-0.103491,0.0885759,-1.95571,0.114698,0.17236,0.0545922,0.185814,-0.00502435,0.193828,-0.44865,1.01158,-0.227683,-0.00220477,0,0,0,0,0,0,0,20.2702,-0.583941,21.0854,-46.6669,10.805,-2.03074,-0.0399448,-0.0154515,-0.103093,0.0814946,-1.93737,0.0812544,0.178692,0.0546949,0.108543,0.00496993,0.257338,-0.379845,0.343615,-0.33428,-0.000799856,0,0,0,0,0,0,0,-5.39593,-33.8478,-5.86272,30.8151,1.46728,3.0468,0.0101778,
-0.00739167,-0.103494,0.0899942,-1.9593,0.122754,0.171991,0.0546052,0.182587,-0.00410283,0.190522,-0.448705,1.01066,-0.191383,-0.0014403,0,0,0,0,0,0,0,19.6477,-0.732972,20.4371,-45.933,10.805,-1.40897,-0.0277434,-0.0154515,-0.103093,0.0814946,-1.93737,0.0812544,0.178692,0.0546949,0.108543,0.00496993,0.257338,-0.379845,0.343615,-0.33428,-0.000799856,0,0,0,0,0,0,0,-5.39593,-33.8478,-5.86272,30.8151,1.46728,3.0468,0.0101778,
-0.00603739,-0.103483,0.0914085,-1.96284,0.130955,0.171905,0.0546265,0.179926,-0.00301716,0.187775,-0.447381,1.01356,-0.155267,-0.000618705,0,0,0,0,0,0,0,19.0763,-0.948783,19.874,-45.0684,10.7557,-0.730604,-0.0162379,-0.0114183,-0.102684,0.0909988,-1.95045,0.0950482,0.169941,0.0547044,0.122522,0.0106662,0.264894,-0.396125,0.481559,-0.223626,0.000991986,1.74745,0.712035,0.944478,-2.03504,17.243,13.8318,0.22398,-3.08697,-31.9237,-3.33556,28.2483,0.868527,2.80785,-0.0227812,
-0.00481311,-0.102747,0.0979735,-1.96807,0.130611,0.168935,0.0547716,0.176016,-0.00184944,0.183737,-0.443622,1.01156,-0.114124,0.000381623,0,0,0,0,0,0,0,17.9986,-1.00367,18.7459,-43.5964,10.7557,0.178355,0.00846778,-0.0114183,-0.102684,0.0909988,-1.95045,0.0950482,0.169941,0.0547044,0.122522,0.0106662,0.264894,-0.396125,0.481559,-0.223626,0.000991986,0,0,0,0,0,0,0,-3.08697,-31.9237,-3.33556,28.2483,0.868527,2.80785,-0.0227812,
-0.00354443,-0.102715,0.0992959,-1.97143,0.138803,0.169577,0.0548098,0.17253,-0.000687053,0.180049,-0.439028,1.01404,-0.0752717,0.00125909,0,0,0,0,0,0,0,17.4904,-0.982198,18.2117,-42.8634,10.7557,0.553374,0.0182404,-0.0114183,-0.102684,0.0909988,-1.95045,0.0950482,0.169941,0.0547044,0.122522,0.0106662,0.264894,-0.396125,0.481559,-0.223626,0.000991986,0,0,0,0,0,0,0,-3.08697,-31.9237,-3.33556,28.2483,0.868527,2.80785,-0.0227812,
-0.00229812,-0.102677,0.100603,-1.97473,0.147099,0.170434,0.0548479,0.169182,0.000407176,0.176722,-0.43375,1.01863,-0.0387847,0.00196037,0,0,0,0,0,0,0,17.0104,-0.931541,17.7086,-42.1285,10.7557,0.896293,0.028992,-0.0114183,-0.102684,0.0909988,-1.95045,0.0950482,0.169941,0.0547044,0.122522,0.0106662,0.264894,-0.396125,0.481559,-0.223626,0.000991986,0,0,0,0,0,0,0,-3.08697,-31.9237,-3.33556,28.2483,0.868527,2.80785,-0.0227812,
-0.00113027,-0.102319,0.106221,-1.98176,0.148204,0.163478,0.0548749,0.164175,0.00208006,0.17191,-0.427602,1.01557,-0.00606313,0.0025664,0,0,0,0,0,0,0,16.0422,-0.954899,16.6944,-40.5934,10.6925,1.56408,0.0476973,-0.007174,-0.102455,0.0998082,-1.96489,0.112262,0.162119,0.0547112,0.113716,-0.00122135,0.248193,-0.415164,0.529249,-0.206709,0.000678711,-1.1008,-1.48595,-2.0876,-2.37985,5.9613,2.1146,-0.0391594,-0.932736,-31.4516,-1.38762,26.7526,0.886837,2.54235,-0.050247,
1.33959e-05,-0.102242,0.10743,-1.98491,0.156282,0.16472,0.0549187,0.159932,0.00360395,0.167757,-0.420688,1.01441,0.026204,0.00314848,0,0,0,0,0,0,0,15.5316,-0.880617,16.1329,-39.8928,10.6925,1.78677,0.0510913,-0.007174,-0.102455,0.0998082,-1.96489,0.112262,0.162119,0.0547112,0.113716,-0.00122135,0.248193,-0.415164,0.529249,-0.206709,0.000678711,0,0,0,0,0,0,0,-0.932736,-31.4516,-1.38762,26.7526,0.886837,2.54235,-0.050247,
0.00116836,-0.102162,0.108644,-1.98796,0.164015,0.166169,0.0549676,0.156819,0.00488091,0.164548,-0.412969,1.00485,0.0571965,0.00374112,0,0,0,0,0,0,0,14.9887,-0.77366,15.6783,-39.1875,10.6925,1.99432,0.050931,-0.007174,-0.102455,0.0998082,-1.96489,0.112262,0.162119,0.0547112,0.113716,-0.00122135,0.248193,-0.415164,0.529249,-0.206709,0.000678711,0,0,0,0,0,0,0,-0.932736,-31.4516,-1.38762,26.7526,0.886837,2.54235,-0.050247,
0.00233547,-0.102086,0.109866,-1.99094,0.171211,0.167797,0.0550185,0.154633,0.00580282,0.162198,-0.404713,0.983791,0.0864637,0.00426681,0,0,0,0,0,0,0,14.5307,-0.636936,15.2668,-38.463,10.6925,2.18512,0.0527456,-0.007174,-0.102455,0.0998082,-1.96489,0.112262,0.162119,0.0547112,0.113716,-0.00122135,0.248193,-0.415164,0.529249,-0.206709,0.000678711,0,0,0,0,0,0,0,-0.932736,-31.4516,-1.38762,26.7526,0.886837,2.54235,-0.050247,
-0.00129219,-0.102022,0.106059,-1.98084,0.144945,0.164709,0.0549136,0.152589,0.00757244,0.160003,-0.398441,0.944703,0.102507,0.00466232,0,0,0,0,0,0,0,14.1564,-0.633409,14.9326,-37.6021,10.636,2.47889,0.0530152,-0.00308385,-0.102334,0.108471,-1.97966,0.131013,0.15828,0.0547081,0.126272,0.00847186,0.268606,-0.444068,0.547345,-0.0646968,-0.000783947,1.56957,1.21165,2.55164,-3.61306,2.262,17.7515,-0.182832,-0.0202602,-30.305,-0.610033,26.7288,1.43066,2.4096,-0.0227812,
-0.000134876,-0.101913,0.107268,-1.98374,0.150737,0.166283,0.0549646,0.151004,0.00877817,0.158237,-0.391213,0.900546,0.121364,0.00500359,0,0,0,0,0,0,0,13.8219,-0.515186,14.5897,-36.8718,10.3295,2.64665,0.0562291,-0.00308385,-0.102334,0.108471,-1.97966,0.131013,0.15828,0.0547081,0.126272,0.00847186,0.268606,-0.444068,0.547345,-0.0646968,-0.000783947,0,0,0,0,0,0,0,-0.0202602,-30.305,-0.610033,26.7288,1.43066,2.4096,-0.0227812,
0.00102113,-0.101816,0.108475,-1.98656,0.155985,0.168051,0.0550156,0.149703,0.00943682,0.156753,-0.383417,0.851644,0.141286,0.00527988,0,0,0,0,0,0,0,13.5196,-0.424489,14.2694,-36.1511,9.04014,2.80029,0.0578722,-0.00308385,-0.102334,0.108471,-1.97966,0.131013,0.15828,0.0547081,0.126272,0.00847186,0.268606,-0.444068,0.547345,-0.0646968,-0.000783947,0,0,0,0,0,0,0,-0.0202602,-30.305,-0.610033,26.7288,1.43066,2.4096,-0.0227812,
0.00328379,-0.101491,0.115186,-1.99468,0.154267,0.163096,0.0549282,0.149473,0.0110957,0.156465,-0.376056,0.783106,0.154344,0.00546635,0,0,0,0,0,0,0,13.0165,-0.325662,13.7224,-34.7417,6.97101,3.01629,0.057991,-0.00308385,-0.102334,0.108471,-1.97966,0.131013,0.15828,0.0547081,0.126272,0.00847186,0.268606,-0.444068,0.547345,-0.0646968,-0.000783947,0,0,0,0,0,0,0,-0.0202602,-30.305,-0.610033,26.7288,1.43066,2.4096,-0.0227812,
0.00444711,-0.101372,0.116401,-1.99736,0.157928,0.164954,0.0549792,0.148661,0.0118543,0.155548,-0.367983,0.718003,0.169924,0.00564989,0,0,0,0,0,0,0,12.7909,-0.521517,13.502,-33.9979,6.02635,3.13715,0.0585648,0.00104476,-0.102135,0.116303,-1.99432,0.149056,0.157732,0.054709,0.106574,0.00318015,0.188643,-0.382471,0.502891,-0.00348302,0.000225413,-2.46233,-0.661463,-9.99536,7.69964,-5.55681,7.65172,0.12617,-5.74902,-33.4471,-6.43797,29.9423,1.1615,2.94701,-0.0301054,
0.00558761,-0.101275,0.117592,-1.99997,0.161191,0.166972,0.0550309,0.147442,0.0119213,0.154199,-0.359535,0.655986,0.186401,0.00581128,0,0,0,0,0,0,0,12.6352,-0.516276,13.3234,-33.3141,5.27994,3.21124,0.0588061,0.00104476,-0.102135,0.116303,-1.99432,0.149056,0.157732,0.054709,0.106574,0.00318015,0.188643,-0.382471,0.502891,-0.00348302,0.000225413,0,0,0,0,0,0,0,-5.74902,-33.4471,-6.43797,29.9423,1.1615,2.94701,-0.0301054,
0.00661782,-0.101671,0.122139,-2.00777,0.164521,0.164835,0.054971,0.145043,0.0115038,0.151656,-0.350364,0.58636,0.19901,0.00596539,0,0,0,0,0,0,0,12.3834,-0.537123,13.0285,-31.9655,4.0329,3.32587,0.0607402,0.00104476,-0.102135,0.116303,-1.99432,0.149056,0.157732,0.054709,0.106574,0.00318015,0.188643,-0.382471,0.502891,-0.00348302,0.000225413,0,0,0,0,0,0,0,-5.74902,-33.4471,-6.43797,29.9423,1.1615,2.94701,-0.0301054,
0.00768397,-0.101607,0.123253,-2.01021,0.166705,0.166978,0.0550235,0.142688,0.0107999,0.149161,-0.341152,0.523667,0.212777,0.00608714,0,0,0,0,0,0,0,12.2716,-0.557573,12.8966,-31.2996,3.51942,3.36713,0.0619703,0.00104476,-0.102135,0.116303,-1.99432,0.149056,0.157732,0.054709,0.106574,0.00318015,0.188643,-0.382471,0.502891,-0.00348302,0.000225413,0,0,0,0,0,0,0,-5.74902,-33.4471,-6.43797,29.9423,1.1615,2.94701,-0.0301054,
0.00873204,-0.101558,0.124347,-2.01257,0.168636,0.169228,0.0550757,0.140352,0.00987679,0.146691,-0.332034,0.46723,0.226464,0.00617353,0,0,0,0,0,0,0,12.1301,-0.670067,12.7535,-30.5532,3.02972,3.46062,0.0625611,0.00471513,-0.101068,0.123397,-2.00563,0.163125,0.158261,0.0547135,0.100764,0.0658584,0.212979,-0.310397,0.338137,0.035446,0.00115898,-0.726207,7.83478,3.04197,9.0092,-20.5942,4.86613,0.116696,-4.32873,-32.1736,-4.81139,27.7008,1.04522,2.32995,-0.0703886,
0.00976169,-0.101521,0.125422,-2.01487,0.170344,0.171553,0.0551274,0.138023,0.00880656,0.144233,-0.323089,0.416481,0.239315,0.00623258,0,0,0,0,0,0,0,12.0179,-0.695955,12.6229,-29.8965,2.64286,3.48243,0.0634011,0.00471513,-0.101068,0.123397,-2.00563,0.163125,0.158261,0.0547135,0.100764,0.0658584,0.212979,-0.310397,0.338137,0.035446,0.00115898,0,0,0,0,0,0,0,-4.32873,-32.1736,-4.81139,27.7008,1.04522,2.32995,-0.0703886,
0.0102512,-0.100045,0.1292,-2.01805,0.173076,0.166685,0.0549641,0.136539,0.00986815,0.142687,-0.31638,0.371613,0.244027,0.00624622,0,0,0,0,0,0,0,11.9008,-0.722068,12.4877,-29.2436,2.31468,3.49617,0.0636346,0.00471513,-0.101068,0.123397,-2.00563,0.163125,0.158261,0.0547135,0.100764,0.0658584,0.212979,-0.310397,0.338137,0.035446,0.00115898,0,0,0,0,0,0,0,-4.32873,-32.1736,-4.81139,27.7008,1.04522,2.32995,-0.0703886,
0.0112697,-0.0999606,0.130264,-2.02029,0.174435,0.168889,0.055014,0.134692,0.010011,0.140758,-0.30907,0.331257,0.250342,0.00624272,0,0,0,0,0,0,0,11.778,-0.748093,12.3479,-28.5938,2.02811,3.50079,0.0639458,0.00471513,-0.101068,0.123397,-2.00563,0.163125,0.158261,0.0547135,0.100764,0.0658584,0.212979,-0.310397,0.338137,0.035446,0.00115898,0,0,0,0,0,0,0,-4.32873,-32.1736,-4.81139,27.7008,1.04522,2.32995,-0.0703886,
0.0122633,-0.0998993,0.131303,-2.02245,0.175639,0.171167,0.055063,0.132596,0.00954201,0.138567,-0.301416,0.295114,0.257206,0.00621897,0,0,0,0,0,0,0,11.6426,-0.908032,12.2159,-27.9045,1.75114,3.52718,0.0638045,0.00734409,-0.100334,0.130632,-2.01587,0.172621,0.158833,0.054709,0.0635763,0.0206285,0.193332,-0.273524,0.237697,0.00910172,0.000282717,-4.64846,-5.65374,-2.45582,4.60923,-12.555,-3.29304,-0.109533,-1.05969,-32.3006,-1.41142,29.4186,1.10016,2.74834,-0.0301054,
0.0122638,-0.100066,0.135783,-2.02692,0.178913,0.167234,0.0549601,0.129824,0.00845048,0.135684,-0.292854,0.259922,0.259049,0.00616593,0,0,0,0,0,0,0,11.3594,-0.952736,11.9021,-26.6174,1.36676,3.50241,0.0629348,0.00734409,-0.100334,0.130632,-2.01587,0.172621,0.158833,0.054709,0.0635763,0.0206285,0.193332,-0.273524,0.237697,0.00910172,0.000282717,0,0,0,0,0,0,0,-1.05969,-32.3006,-1.41142,29.4186,1.10016,2.74834,-0.0301054,
0.0131932,-0.100044,0.136755,-2.02892,0.179763,0.169455,0.0550065,0.127095,0.00730516,0.132848,-0.284281,0.229186,0.262764,0.00609369,0,0,0,0,0,0,0,11.2064,-0.972369,11.7348,-25.9766,1.2151,3.48142,0.0622864,0.00734409,-0.100334,0.130632,-2.01587,0.172621,0.158833,0.054709,0.0635763,0.0206285,0.193332,-0.273524,0.237697,0.00910172,0.000282717,0,0,0,0,0,0,0,-1.05969,-32.3006,-1.41142,29.4186,1.10016,2.74834,-0.0301054,
0.0141021,-0.100033,0.137706,-2.03085,0.180525,0.171733,0.0550518,0.124397,0.00612696,0.130047,-0.275789,0.202409,0.267162,0.00600592,0,0,0,0,0,0,0,11.0457,-0.989793,11.5602,-25.3371,1.08849,3.45655,0.0613128,0.00734409,-0.100334,0.130632,-2.01587,0.172621,0.158833,0.054709,0.0635763,0.0206285,0.193332,-0.273524,0.237697,0.00910172,0.000282717,0,0,0,0,0,0,0,-1.05969,-32.3006,-1.41142,29.4186,1.10016,2.74834,-0.0301054,
0.0149906,-0.100031,0.138636,-2.03272,0.181212,0.174045,0.055096,0.121732,0.00494437,0.12728,-0.267435,0.179086,0.271518,0.00590975,0,0,0,0,0,0,0,10.8778,-1.08495,11.3954,-24.6375,0.965068,3.46567,0.0602771,0.00967317,-0.0995206,0.137539,-2.0249,0.178323,0.160275,0.0547119,0.0746325,0.00381729,0.208726,-0.254252,0.120272,0.052037,0.00103817,1.38202,-2.1014,1.92426,2.40894,-14.6781,5.36691,0.0944316,-1.46435,-30.6542,-2.06206,25.983,0.948178,2.14501,-0.0566557,
0.0145768,-0.0995146,0.142682,-2.03482,0.182374,0.168894,0.0549306,0.120157,0.00395017,0.125653,-0.260127,0.160052,0.269686,0.0057888,0,0,0,0,0,0,0,10.7035,-1.09867,11.2082,-23.9998,0.872247,3.4341,0.0591032,0.00967317,-0.0995206,0.137539,-2.0249,0.178323,0.160275,0.0547119,0.0746325,0.00381729,0.208726,-0.254252,0.120272,0.052037,0.00103817,0,0,0,0,0,0,0,-1.46435,-30.6542,-2.06206,25.983,0.948178,2.14501,-0.0566557,
0.015459,-0.0995205,0.143605,-2.0366,0.182979,0.171066,0.0549723,0.118182,0.00301206,0.123611,-0.25263,0.14315,0.270042,0.00567146,0,0,0,0,0,0,0,10.5232,-1.11095,11.0155,-23.3627,0.78965,3.39985,0.0579797,0.00967317,-0.0995206,0.137539,-2.0249,0.178323,0.160275,0.0547119,0.0746325,0.00381729,0.208726,-0.254252,0.120272,0.052037,0.00103817,0,0,0,0,0,0,0,-1.46435,-30.6542,-2.06206,25.983,0.948178,2.14501,-0.0566557,
0.016315,-0.0995327,0.144502,-2.03832,0.18352,0.173282,0.055013,0.115946,0.00210306,0.121297,-0.245056,0.12806,0.271455,0.00555643,0,0,0,0,0,0,0,10.337,-1.12152,10.8172,-22.7258,0.71836,3.36455,0.0567071,0.00967317,-0.0995206,0.137539,-2.0249,0.178323,0.160275,0.0547119,0.0746325,0.00381729,0.208726,-0.254252,0.120272,0.052037,0.00103817,0,0,0,0,0,0,0,-1.46435,-30.6542,-2.06206,25.983,0.948178,2.14501,-0.0566557,
0.0171467,-0.0995513,0.145373,-2.03998,0.184002,0.175525,0.0550531,0.113548,0.00121897,0.118814,-0.237483,0.114498,0.273219,0.00544656,0,0,0,0,0,0,0,10.1457,-1.13098,10.6143,-22.0889,0.65227,3.328,0.0555426,0.00967317,-0.0995206,0.137539,-2.0249,0.178323,0.160275,0.0547119,0.0746325,0.00381729,0.208726,-0.254252,0.120272,0.052037,0.00103817,0,0,0,0,0,0,0,-1.46435,-30.6542,-2.06206,25.983,0.948178,2.14501,-0.0566557,
0.0164928,-0.0985582,0.149143,-2.04265,0.181793,0.169795,0.054904,0.111464,0.00151884,0.116689,-0.231626,0.100733,0.267411,0.00533016,0,0,0,0,0,0,0,9.94584,-1.20632,10.4178,-21.4144,0.592294,3.31896,0.0542504,0.0120424,-0.0987539,0.144458,-2.03353,0.180053,0.162025,0.0547075,0.0672056,0.0107323,0.194492,-0.24368,0.0071197,0.0320045,-0.000847546,-0.928354,0.86438,-1.77923,1.32152,-14.1441,-2.50407,-0.235715,-0.198788,-30.551,-0.836168,24.9356,1.01501,1.91247,-0.0163725,
0.0172923,-0.0985477,0.149982,-2.04424,0.182125,0.171833,0.0549424,0.109159,0.00147691,0.114318,-0.225145,0.0889002,0.264882,0.00522538,0,0,0,0,0,0,0,9.74561,-1.21364,10.2065,-20.7767,0.53358,3.28253,0.0531122,0.0120424,-0.0987539,0.144458,-2.03353,0.180053,0.162025,0.0547075,0.0672056,0.0107323,0.194492,-0.24368,0.0071197,0.0320045,-0.000847546,0,0,0,0,0,0,0,-0.198788,-30.551,-0.836168,24.9356,1.01501,1.91247,-0.0163725,
0.0180683,-0.098548,0.150796,-2.04577,0.182418,0.173927,0.0549804,0.106726,0.00117286,0.111807,-0.21827,0.0784312,0.264243,0.0051303,0,0,0,0,0,0,0,9.54169,-1.21994,9.99185,-20.1382,0.477328,3.24715,0.0519509,0.0120424,-0.0987539,0.144458,-2.03353,0.180053,0.162025,0.0547075,0.0672056,0.0107323,0.194492,-0.24368,0.0071197,0.0320045,-0.000847546,0,0,0,0,0,0,0,-0.198788,-30.551,-0.836168,24.9356,1.01501,1.91247,-0.0163725,
0.0163311,-0.0984175,0.148973,-2.0418,0.181194,0.168961,0.0548892,0.104817,0.00188933,0.10983,-0.2115,0.0679981,0.256199,0.0050215,0,0,0,0,0,0,0,9.12627,-1.23081,9.55572,-18.8587,0.361259,3.17866,0.0499859,0.0120424,-0.0987539,0.144458,-2.03353,0.180053,0.162025,0.0547075,0.0672056,0.0107323,0.194492,-0.24368,0.0071197,0.0320045,-0.000847546,0,0,0,0,0,0,0,-0.198788,-30.551,-0.836168,24.9356,1.01501,1.91247,-0.0163725,
0.0170788,-0.0983948,0.149757,-2.0432,0.181361,0.170844,0.0549259,0.102547,0.00207871,0.10747,-0.204194,0.0585661,0.252028,0.00493585,0,0,0,0,0,0,0,8.902,-1.30216,9.33202,-18.1705,0.302343,3.17675,0.0490457,0.0147255,-0.0978757,0.150681,-2.04103,0.179999,0.163385,0.0547097,0.0826669,0.0371043,0.172751,-0.187868,0.00867985,0.0253705,-0.000293903,1.93266,3.2965,-2.71763,6.9765,0.195018,-0.829241,0.0692054,-0.829586,-29.1783,-1.51061,22.4442,1.18621,1.6607,-0.0365141,
0.0178,-0.0983859,0.150513,-2.04453,0.181481,0.172784,0.0549628,0.100067,0.00188423,0.104887,-0.19658,0.049856,0.250136,0.00487069,0,0,0,0,0,0,0,8.69236,-1.30635,9.11245,-17.5282,0.240669,3.14373,0.0483327,0.0147255,-0.0978757,0.150681,-2.04103,0.179999,0.163385,0.0547097,0.0826669,0.0371043,0.172751,-0.187868,0.00867985,0.0253705,-0.000293903,0,0,0,0,0,0,0,-0.829586,-29.1783,-1.51061,22.4442,1.18621,1.6607,-0.0365141,
0.0187668,-0.0973869,0.154934,-2.04817,0.180746,0.170276,0.0548819,0.0980843,0.00252555,0.102833,-0.188809,0.0419318,0.242938,0.00481217,0,0,0,0,0,0,0,8.27883,-1.31379,8.67939,-16.2413,0.114338,3.07295,0.0474011,0.0147255,-0.0978757,0.150681,-2.04103,0.179999,0.163385,0.0547097,0.0826669,0.0371043,0.172751,-0.187868,0.00867985,0.0253705,-0.000293903,0,0,0,0,0,0,0,-0.829586,-29.1783,-1.51061,22.4442,1.18621,1.6607,-0.0365141,
0.0194566,-0.0973651,0.155658,-2.04935,0.18079,0.172048,0.0549193,0.0957133,0.00256415,0.100369,-0.180694,0.0346377,0.238639,0.00478355,0,0,0,0,0,0,0,8.0779,-1.317,8.46871,-15.5973,0.0535409,3.03202,0.0471681,0.0147255,-0.0978757,0.150681,-2.04103,0.179999,0.163385,0.0547097,0.0826669,0.0371043,0.172751,-0.187868,0.00867985,0.0253705,-0.000293903,0,0,0,0,0,0,0,-0.829586,-29.1783,-1.51061,22.4442,1.18621,1.6607,-0.0365141,
0.0201186,-0.0973594,0.156353,-2.05047,0.180807,0.173844,0.0549572,0.09312,0.00219366,0.0976692,-0.172425,0.0281298,0.235802,0.00477352,0,0,0,0,0,0,0,7.87719,-1.39422,8.26679,-14.9189,-0.000613695,3.00824,0.0470211,0.0172241,-0.0971185,0.15586,-2.04725,0.179765,0.163846,0.0547107,0.0550552,0.0282389,0.138167,-0.165638,-0.00282283,0.00473287,0.00114024,-3.45146,-1.10818,-4.32301,2.7787,-1.43784,-2.57971,0.179267,-1.76983,-31.4516,-2.43498,26.1298,1.14959,2.26403,-0.050247,
0.0207558,-0.0973672,0.157022,-2.05151,0.180808,0.175635,0.0549959,0.0904246,0.00156182,0.0948619,-0.16413,0.0225407,0.233433,0.00478795,0,0,0,0,0,0,0,7.68992,-1.39632,8.06957,-14.2755,-0.0472393,2.9526,0.0471616,0.0172241,-0.0971185,0.15586,-2.04725,0.179765,0.163846,0.0547107,0.0550552,0.0282389,0.138167,-0.165638,-0.00282283,0.00473287,0.00114024,0,0,0,0,0,0,0,-1.76983,-31.4516,-2.43498,26.1298,1.14959,2.26403,-0.050247,
0.0205745,-0.0967291,0.159391,-2.0533,0.179629,0.169876,0.054903,0.0878516,0.00201899,0.0922007,-0.157422,0.0173203,0.224314,0.00485315,0,0,0,0,0,0,0,7.51171,-1.39745,7.8813,-13.6331,-0.0816057,2.88642,0.0476279,0.0172241,-0.0971185,0.15586,-2.04725,0.179765,0.163846,0.0547107,0.0550552,0.0282389,0.138167,-0.165638,-0.00282283,0.00473287,0.00114024,0,0,0,0,0,0,0,-1.76983,-31.4516,-2.43498,26.1298,1.14959,2.26403,-0.050247,
0.0211725,-0.0967157,0.16002,-2.05427,0.179629,0.171398,0.0549454,0.0852322,0.00195143,0.0894838,-0.150188,0.013871,0.217506,0.00494145,0,0,0,0,0,0,0,7.34245,-1.39777,7.70157,-12.993,-0.0974807,2.80615,0.0482832,0.0172241,-0.0971185,0.15586,-2.04725,0.179765,0.163846,0.0547107,0.0550552,0.0282389,0.138167,-0.165638,-0.00282283,0.00473287,0.00114024,0,0,0,0,0,0,0,-1.76983,-31.4516,-2.43498,26.1298,1.14959,2.26403,-0.050247,
0.0217484,-0.0967177,0.160626,-2.05517,0.179678,0.172903,0.0549852,0.0825815,0.00150961,0.0867327,-0.142681,0.0123143,0.211628,0.00494802,0,0,0,0,0,0,0,7.17874,-1.46393,7.53643,-12.3188,-0.0885552,2.73479,0.0486607,0.0186187,-0.0966498,0.160623,-2.05259,0.179614,0.163952,0.0547081,0.0317016,0.0224018,0.135988,-0.140776,0.00236948,-0.00653889,1.95836e-05,-2.91921,-0.729631,-0.272417,3.10784,0.649039,-1.40897,-0.140082,-0.500302,-31.8007,-1.21306,28.8196,1.38763,2.64855,-0.0365141,
0.0215936,-0.0963558,0.163765,-2.05754,0.179857,0.168727,0.0549195,0.0799254,0.001634,0.0839847,-0.13502,0.0120462,0.199368,0.00514518,0,0,0,0,0,0,0,6.89255,-1.45703,7.22951,-11.0569,-0.022709,2.50201,0.0523375,0.0186187,-0.0966498,0.160623,-2.05259,0.179614,0.163952,0.0547081,0.0317016,0.0224018,0.135988,-0.140776,0.00236948,-0.00653889,1.95836e-05,0,0,0,0,0,0,0,-0.500302,-31.8007,-1.21306,28.8196,1.38763,2.64855,-0.0365141,
0.0221257,-0.096354,0.164325,-2.05831,0.179989,0.169969,0.0549738,0.077243,0.00135097,0.0811983,-0.127249,0.0129207,0.190536,0.00547366,0,0,0,0,0,0,0,6.73479,-1.44889,7.0592,-10.4325,0.059027,2.3569,0.0544042,0.0186187,-0.0966498,0.160623,-2.05259,0.179614,0.163952,0.0547081,0.0317016,0.0224018,0.135988,-0.140776,0.00236948,-0.00653889,1.95836e-05,0,0,0,0,0,0,0,-0.500302,-31.8007,-1.21306,28.8196,1.38763,2.64855,-0.0365141,
0.0226268,-0.0963688,0.164855,-2.05902,0.180222,0.171222,0.0550022,0.0743199,0.000711295,0.0781846,-0.119612,0.0161766,0.183757,0.00508861,0,0,0,0,0,0,0,6.549,-1.44924,6.86208,-9.8268,0.159698,2.20436,0.051297,0.0186187,-0.0966498,0.160623,-2.05259,0.179614,0.163952,0.0547081,0.0317016,0.0224018,0.135988,-0.140776,0.00236948,-0.00653889,1.95836e-05,0,0,0,0,0,0,0,-0.500302,-31.8007,-1.21306,28.8196,1.38763,2.64855,-0.0365141,
0.0221778,-0.0963401,0.1677,-2.06098,0.179691,0.168248,0.0548987,0.0713917,0.000283421,0.0751551,-0.11178,0.0125141,0.176874,0.00497183,0,0,0,0,0,0,0,6.23556,-1.46985,6.55091,-8.60401,0.14475,2.07589,0.060554,0.0196376,-0.0963846,0.165007,-2.05709,0.179427,0.163965,0.0547071,0.0219696,0.0038767,0.11886,-0.121993,-0.00287392,-0.0021259,-4.8669e-05,-1.2165,-2.31564,-2.141,2.34782,-0.655425,0.551624,-0.00853158,0.840641,-31.0033,0.0882092,28.2483,1.43066,2.44988,-0.0227812,
0.0226307,-0.0963627,0.168179,-2.06157,0.179739,0.169457,0.0549333,0.068437,-0.000336106,0.0720953,-0.10399,0.0112058,0.171709,0.00484252,0,0,0,0,0,0,0,5.93391,-1.44035,6.22816,-8.0192,0.247909,2.01571,0.0697802,0.0196376,-0.0963846,0.165007,-2.05709,0.179427,0.163965,0.0547071,0.0219696,0.0038767,0.11886,-0.121993,-0.00287392,-0.0021259,-4.8669e-05,0,0,0,0,0,0,0,0.840641,-31.0033,0.0882092,28.2483,1.43066,2.44988,-0.0227812,
0.0230599,-0.0963972,0.168634,-2.0621,0.179841,0.170645,0.0549555,0.0654792,-0.00113241,0.0690528,-0.0963842,0.0115325,0.16707,0.0044289,0,0,0,0,0,0,0,5.43314,-1.51244,5.70726,-7.47812,0.471094,1.93263,0.0372221,0.0196376,-0.0963846,0.165007,-2.05709,0.179427,0.163965,0.0547071,0.0219696,0.0038767,0.11886,-0.121993,-0.00287392,-0.0021259,-4.8669e-05,0,0,0,0,0,0,0,0.840641,-31.0033,0.0882092,28.2483,1.43066,2.44988,-0.0227812,
0.023481,-0.0964396,0.16908,-2.06257,0.179785,0.171836,0.0549755,0.0629097,-0.00196623,0.0663951,-0.0888827,0.00781009,0.163441,0.00404493,0,0,0,0,0,0,0,5.23433,-1.48608,5.5572,-6.86885,-0.243219,2.27538,0.0270472,0.0196376,-0.0963846,0.165007,-2.05709,0.179427,0.163965,0.0547071,0.0219696,0.0038767,0.11886,-0.121993,-0.00287392,-0.0021259,-4.8669e-05,0,0,0,0,0,0,0,0.840641,-31.0033,0.0882092,28.2483,1.43066,2.44988,-0.0227812,
0.021997,-0.0962248,0.167514,-2.06028,0.179233,0.167311,0.0548514,0.0610337,-0.00153825,0.0644397,-0.0832311,0.00377683,0.152984,0.00401035,0,0,0,0,0,0,0,5.22073,-1.52335,5.52202,-6.36258,-0.16706,2.14025,0.0452804,0.0205725,-0.0959331,0.169204,-2.06076,0.179307,0.164001,0.0547046,0.0150965,0.00798676,0.115696,-0.090662,0.000256096,0.000439799,-0.000762569,-0.85914,0.513758,-0.395559,3.91637,0.391252,0.320712,-0.0892375,0.463749,-31.1025,-0.33629,26.7288,1.35742,2.17797,-0.0227812,
0.0223964,-0.0962384,0.167937,-2.06071,0.179262,0.168187,0.0548795,0.0588127,-0.00156856,0.0621328,-0.0773365,0.00375565,0.14429,0.00391264,0,0,0,0,0,0,0,4.94199,-1.50273,5.20227,-5.90011,0.178326,1.8807,0.0452148,0.0205725,-0.0959331,0.169204,-2.06076,0.179307,0.164001,0.0547046,0.0150965,0.00798676,0.115696,-0.090662,0.000256096,0.000439799,-0.000762569,0,0,0,0,0,0,0,0.463749,-31.1025,-0.33629,26.7288,1.35742,2.17797,-0.0227812,
0.02277,-0.0962676,0.168335,-2.06109,0.179425,0.169046,0.0548981,0.0563896,-0.00198632,0.0596431,-0.071505,0.00706251,0.136907,0.00359492,0,0,0,0,0,0,0,4.69321,-1.52862,4.95723,-5.45085,0.220556,1.73475,0.0291504,0.0205725,-0.0959331,0.169204,-2.06076,0.179307,0.164001,0.0547046,0.0150965,0.00798676,0.115696,-0.090662,0.000256096,0.000439799,-0.000762569,0,0,0,0,0,0,0,0.463749,-31.1025,-0.33629,26.7288,1.35742,2.17797,-0.0227812,
0.0226648,-0.0958162,0.171435,-2.06311,0.179899,0.166564,0.0548141,0.0543089,-0.00195653,0.0574845,-0.0659804,0.0121669,0.126982,0.00332557,0,0,0,0,0,0,0,4.54977,-1.41741,4.81205,-4.48841,-0.199987,1.6282,0.0399761,0.0205725,-0.0959331,0.169204,-2.06076,0.179307,0.164001,0.0547046,0.0150965,0.00798676,0.115696,-0.090662,0.000256096,0.000439799,-0.000762569,0,0,0,0,0,0,0,0.463749,-31.1025,-0.33629,26.7288,1.35742,2.17797,-0.0227812,
0.0230052,-0.0958462,0.171798,-2.06341,0.180378,0.167219,0.0548293,0.0519586,-0.0023151,0.0550535,-0.0603509,0.0217025,0.117978,0.00304058,0,0,0,0,0,0,0,4.31445,-1.43788,4.54414,-4.05412,0.28643,1.39951,0.0381601,0.0212442,-0.0955704,0.172773,-2.06305,0.17927,0.164025,0.0547034,0.0133553,0.00401178,0.0899642,-0.0460686,0.00442669,0.00511544,-0.000114218,-0.217642,-0.496872,-3.21643,5.57417,0.521324,0.584455,0.0810439,-1.26202,-31.1263,-2.06206,26.3559,1.19171,2.02508,-0.0227812,
0.0233214,-0.0958912,0.172136,-2.06367,0.181079,0.167797,0.0548381,0.0494721,-0.00297624,0.0525014,-0.0547789,0.0348756,0.108827,0.00265237,0,0,0,0,0,0,0,4.135,-1.51027,4.37129,-3.67266,0.470028,1.32255,0.0256989,0.0212442,-0.0955704,0.172773,-2.06305,0.17927,0.164025,0.0547034,0.0133553,0.00401178,0.0899642,-0.0460686,0.00442669,0.00511544,-0.000114218,0,0,0,0,0,0,0,-1.26202,-31.1263,-2.06206,26.3559,1.19171,2.02508,-0.0227812,
0.022899,-0.0957246,0.174548,-2.06451,0.182229,0.166162,0.0547714,0.0468599,-0.00373078,0.0497983,-0.0488486,0.0518704,0.0966391,0.00253227,0,0,0,0,0,0,0,4.039,-1.53059,4.26153,-2.92099,0.515983,1.42505,0.0250973,0.0212442,-0.0955704,0.172773,-2.06305,0.17927,0.164025,0.0547034,0.0133553,0.00401178,0.0899642,-0.0460686,0.00442669,0.00511544,-0.000114218,0,0,0,0,0,0,0,-1.26202,-31.1263,-2.06206,26.3559,1.19171,2.02508,-0.0227812,
0.0231633,-0.0957876,0.174834,-2.06468,0.183498,0.166429,0.0547863,0.0440956,-0.00455876,0.0469697,-0.0432045,0.0732318,0.083988,0.00239923,0,0,0,0,0,0,0,3.90394,-1.53489,4.09903,-2.60765,1.04996,1.12184,0.0229477,0.0212442,-0.0955704,0.172773,-2.06305,0.17927,0.164025,0.0547034,0.0133553,0.00401178,0.0899642,-0.0460686,0.00442669,0.00511544,-0.000114218,0,0,0,0,0,0,0,-1.26202,-31.1263,-2.06206,26.3559,1.19171,2.02508,-0.0227812,
0.0234037,-0.0958618,0.175097,-2.06482,0.185052,0.166598,0.0547951,0.0412866,-0.00550169,0.0441519,-0.0380547,0.09743,0.0714163,0.00213967,0,0,0,0,0,0,0,3.76327,-1.60414,3.96828,-2.30533,1.34715,0.899487,0.0146091,0.0218684,-0.0952267,0.175652,-2.06419,0.179257,0.164015,0.0547107,0.0168318,0.00878131,0.0664514,-0.0248667,0.0126448,0.00144829,0.00087567,0.43456,0.596191,-2.93909,2.65024,1.02727,-0.458393,0.123736,-0.655026,-29.706,-1.28844,25.1855,1.22833,1.99212,-0.050247,
0.0236333,-0.0959423,0.175346,-2.06493,0.186726,0.166727,0.0547996,0.0387697,-0.00641367,0.041563,-0.033305,0.119789,0.0603465,0.00182464,0,0,0,0,0,0,0,3.62362,-1.58883,3.8451,-1.9672,1.18587,0.7575,0.0136731,0.0218684,-0.0952267,0.175652,-2.06419,0.179257,0.164015,0.0547107,0.0168318,0.00878131,0.0664514,-0.0248667,0.0126448,0.00144829,0.00087567,0,0,0,0,0,0,0,-0.655026,-29.706,-1.28844,25.1855,1.22833,1.99212,-0.050247,
0.0231369,-0.0953614,0.177041,-2.06525,0.18522,0.167033,0.0547641,0.0365166,-0.00639703,0.0392594,-0.0300506,0.139113,0.0652393,0.001637,0,0,0,0,0,0,0,3.68821,-1.60965,3.88719,-1.62826,1.58214,1.60521,0.0251518,0.0218684,-0.0952267,0.175652,-2.06419,0.179257,0.164015,0.0547107,0.0168318,0.00878131,0.0664514,-0.0248667,0.0126448,0.00144829,0.00087567,0,0,0,0,0,0,0,-0.655026,-29.706,-1.28844,25.1855,1.22833,1.99212,-0.050247,
0.0233325,-0.0954194,0.177257,-2.06535,0.187306,0.167632,0.0547666,0.0341032,-0.00656786,0.0368203,-0.0266071,0.163434,0.0671602,0.00137075,0,0,0,0,0,0,0,3.42084,-1.56948,3.6035,-1.34877,2.17682,1.30851,0.0245952,0.0218684,-0.0952267,0.175652,-2.06419,0.179257,0.164015,0.0547107,0.0168318,0.00878131,0.0664514,-0.0248667,0.0126448,0.00144829,0.00087567,0,0,0,0,0,0,0,-0.655026,-29.706,-1.28844,25.1855,1.22833,1.99212,-0.050247,
0.0235099,-0.0954864,0.177453,-2.06543,0.189688,0.168156,0.0547639,0.0317163,-0.00692836,0.0343563,-0.0232302,0.190303,0.0668305,0.00102968,0,0,0,0,0,0,0,3.18032,-1.6389,3.39269,-1.13569,2.45888,1.18515,0.0161927,0.0218684,-0.0952267,0.175652,-2.06419,0.179257,0.164015,0.0547107,0.0168318,0.00878131,0.0664514,-0.0248667,0.0126448,0.00144829,0.00087567,0,0,0,0,0,0,0,-0.655026,-29.706,-1.28844,25.1855,1.22833,1.99212,-0.050247,
0.0236732,-0.0952662,0.179003,-2.06613,0.19189,0.175312,0.0547174,0.0312936,-0.00566627,0.0339258,-0.0224976,0.23662,0.122073,0.000847499,0,0,0,0,0,0,0,4.55286,-1.66457,4.77578,-0.927309,4.43067,4.89658,0.0159319,0.0225258,-0.0951454,0.177725,-2.06479,0.179269,0.164004,0.0547058,0.0150449,0.00100615,0.0493161,-0.00977782,0.00593651,0.000455323,0.000308365,-0.223357,-0.971895,-2.14192,1.88611,-0.838537,-0.124121,-0.0709131,0.336795,-29.6028,-0.260912,25.4831,1.32629,1.9262,-0.0429228,
0.0238993,-0.0952733,0.179249,-2.06624,0.195653,0.178044,0.0547117,0.0306864,-0.00471212,0.033291,-0.020743,0.283384,0.165963,0.000533724,0,0,0,0,0,0,0,4.29425,-1.55697,4.50314,-0.73511,4.91839,4.52995,0.0111498,0.0225258,-0.0951454,0.177725,-2.06479,0.179269,0.164004,0.0547058,0.0150449,0.00100615,0.0493161,-0.00977782,0.00593651,0.000455323,0.000308365,0,0,0,0,0,0,0,0.336795,-29.6028,-0.260912,25.4831,1.32629,1.9262,-0.0429228,
0.0241213,-0.0952881,0.179487,-2.06632,0.1997,0.180763,0.0547015,0.0301005,-0.00413954,0.0325822,-0.0185471,0.327893,0.200759,0.000171881,0,0,0,0,0,0,0,4.07999,-1.54657,4.27581,-0.588904,5.03562,4.32512,0.00349414,0.0225258,-0.0951454,0.177725,-2.06479,0.179269,0.164004,0.0547058,0.0150449,0.00100615,0.0493161,-0.00977782,0.00593651,0.000455323,0.000308365,0,0,0,0,0,0,0,0.336795,-29.6028,-0.260912,25.4831,1.32629,1.9262,-0.0429228,
0.0248101,-0.094691,0.179977,-2.06846,0.205624,0.192939,0.054911,0.0386181,0.00241459,0.0406156,-0.0293068,0.429682,0.346142,0.000884442,0,0,0,0,0,0,0,11.1063,-0.787935,10.8021,-4.14172,10.4622,11.0253,0.0801867,0.0225258,-0.0951454,0.177725,-2.06479,0.179269,0.164004,0.0547058,0.0150449,0.00100615,0.0493161,-0.00977782,0.00593651,0.000455323,0.000308365,0,0,0,0,0,0,0,0.336795,-29.6028,-0.260912,25.4831,1.32629,1.9262,-0.0429228,
0.0254294,-0.0944297,0.1806,-2.06895,0.21252,0.2006,0.0549309,0.0463772,0.00846321,0.0480467,-0.0357222,0.516152,0.468453,0.00120527,0,0,0,0,0,0,0,10.4979,-0.276702,10.1478,-4.03508,10.4626,11.0267,0.0647078,0.0232475,-0.0950064,0.17957,-2.06491,0.179326,0.164026,0.0547073,0.0253433,0.00851179,0.0450747,0.00101458,0.00568225,0.000690383,-0.000787514,1.28729,0.938205,-0.530175,1.34905,-0.0317816,0.0293825,-0.136985,0.562931,-29.829,-0.0109729,25.8084,1.5039,1.85296,-0.0163725,
0.0260766,-0.0941464,0.181259,-2.06935,0.219402,0.208229,0.0549459,0.0532825,0.0138546,0.0549178,-0.0385117,0.584968,0.565476,0.001339,0,0,0,0,0,0,0,9.99773,0.200649,9.79438,-3.93587,10.4626,11.0267,0.0490724,0.0232475,-0.0950064,0.17957,-2.06491,0.179326,0.164026,0.0547073,0.0253433,0.00851179,0.0450747,0.00101458,0.00568225,0.000690383,-0.000787514,0,0,0,0,0,0,0,0.562931,-29.829,-0.0109729,25.8084,1.5039,1.85296,-0.0163725,
0.0267652,-0.0938498,0.181941,-2.06966,0.226004,0.215692,0.0549612,0.0598415,0.0184984,0.0609784,-0.0386868,0.633017,0.638968,0.00145318,0,0,0,0,0,0,0,9.57145,0.735312,9.51173,-3.79694,9.76837,11.0267,0.0383613,0.0232475,-0.0950064,0.17957,-2.06491,0.179326,0.164026,0.0547073,0.0253433,0.00851179,0.0450747,0.00101458,0.00568225,0.000690383,-0.000787514,0,0,0,0,0,0,0,0.562931,-29.829,-0.0109729,25.8084,1.5039,1.85296,-0.0163725,
0.0258851,-0.0954565,0.182465,-2.06981,0.205427,0.193733,0.0548973,0.0652792,0.0149467,0.0674574,-0.0522076,0.669392,0.698892,0.00198998,0,0,0,0,0,0,0,12.6805,-3.50367,13.2143,-7.5533,10.4626,11.0267,0.0714343,0.0232475,-0.0950064,0.17957,-2.06491,0.179326,0.164026,0.0547073,0.0253433,0.00851179,0.0450747,0.00101458,0.00568225,0.000690383,-0.000787514,0,0,0,0,0,0,0,0.562931,-29.829,-0.0109729,25.8084,1.5039,1.85296,-0.0163725,
0.0266351,-0.0954316,0.183267,-2.07056,0.211916,0.201399,0.0549205,0.0709745,0.0125785,0.0740077,-0.0605117,0.697741,0.750787,0.00217182,0,0,0,0,0,0,0,12.181,-3.09137,12.7093,-7.50783,10.4586,11.0282,0.0547853,0.0246643,-0.0944885,0.181405,-2.0648,0.180385,0.164823,0.0547059,0.0512678,0.0213306,0.0507416,-0.0030764,0.0609015,0.0690646,-0.000422955,3.24057,1.60236,0.708357,-0.511373,6.9024,8.54678,0.0455698,3.20118,-28.2817,2.71455,25.856,2.09625,2.25762,-0.0026396,
0.0274272,-0.0954048,0.184119,-2.07121,0.218082,0.208971,0.0549421,0.0765815,0.0107319,0.0805136,-0.0647099,0.712343,0.78992,0.00227888,0,0,0,0,0,0,0,11.8141,-2.69553,12.3402,-7.44923,10.4586,11.0282,0.0426083,0.0246643,-0.0944885,0.181405,-2.0648,0.180385,0.164823,0.0547059,0.0512678,0.0213306,0.0507416,-0.0030764,0.0609015,0.0690646,-0.000422955,0,0,0,0,0,0,0,3.20118,-28.2817,2.71455,25.856,2.09625,2.25762,-0.0026396,
0.0279899,-0.0948073,0.184814,-2.07097,0.207574,0.19615,0.0549072,0.081831,0.00950639,0.0854269,-0.080295,0.735991,0.823946,0.00253781,0,0,0,0,0,0,0,14.6228,-2.60198,14.6828,-11.7448,10.4586,11.0282,0.0847835,0.0246643,-0.0944885,0.181405,-2.0648,0.180385,0.164823,0.0547059,0.0512678,0.0213306,0.0507416,-0.0030764,0.0609015,0.0690646,-0.000422955,0,0,0,0,0,0,0,3.20118,-28.2817,2.71455,25.856,2.09625,2.25762,-0.0026396,
0.0288761,-0.0947461,0.185716,-2.07203,0.214036,0.204115,0.0549332,0.0876206,0.00913354,0.0909124,-0.0908994,0.750352,0.858276,0.00268099,0,0,0,0,0,0,0,13.8071,-2.24955,13.9239,-11.7203,10.4586,11.0282,0.0617318,0.0246643,-0.0944885,0.181405,-2.0648,0.180385,0.164823,0.0547059,0.0512678,0.0213306,0.0507416,-0.0030764,0.0609015,0.0690646,-0.000422955,0,0,0,0,0,0,0,3.20118,-28.2817,2.71455,25.856,2.09625,2.25762,-0.0026396,
0.0298126,-0.0946716,0.186669,-2.07304,0.220149,0.212278,0.054956,0.0935086,0.00917032,0.0965538,-0.0978927,0.753098,0.890708,0.00271482,0,0,0,0,0,0,0,13.2525,-1.8528,13.3683,-11.6841,10.4468,11.0165,0.0485142,0.0271941,-0.09374,0.183724,-2.06484,0.183113,0.169511,0.0547075,0.0809281,0.0292736,0.0835495,0.001644,0.083972,0.180922,-0.000261526,3.70753,0.992865,4.10098,0.59005,2.88382,13.9821,0.0201786,3.53046,-29.0038,2.91292,25.733,2.37091,2.29699,-0.0163725,
0.0307867,-0.0945902,0.18766,-2.074,0.225817,0.220562,0.0549765,0.0991588,0.00937235,0.102019,-0.102253,0.744198,0.919657,0.00268463,0,0,0,0,0,0,0,12.7191,-1.39327,12.9544,-11.5499,10.1188,11.0165,0.0353864,0.0271941,-0.09374,0.183724,-2.06484,0.183113,0.169511,0.0547075,0.0809281,0.0292736,0.0835495,0.001644,0.083972,0.180922,-0.000261526,0,0,0,0,0,0,0,3.53046,-29.0038,2.91292,25.733,2.37091,2.29699,-0.0163725,
0.031106,-0.0942724,0.187901,-2.07201,0.210982,0.202987,0.0548807,0.102196,0.00710696,0.105639,-0.116444,0.75972,0.932841,0.0029099,0,0,0,0,0,0,0,14.8633,-2.4325,15.3865,-15.4707,10.4468,11.0165,0.0723379,0.0271941,-0.09374,0.183724,-2.06484,0.183113,0.169511,0.0547075,0.0809281,0.0292736,0.0835495,0.001644,0.083972,0.180922,-0.000261526,0,0,0,0,0,0,0,3.53046,-29.0038,2.91292,25.733,2.37091,2.29699,-0.0163725,
0.0320763,-0.0942665,0.188915,-2.07333,0.217268,0.211098,0.0549083,0.106014,0.00583211,0.109857,-0.126216,0.76492,0.949043,0.00301743,0,0,0,0,0,0,0,14.2115,-2.18773,14.8034,-15.4279,10.4468,11.0165,0.0568437,0.0271941,-0.09374,0.183724,-2.06484,0.183113,0.169511,0.0547075,0.0809281,0.0292736,0.0835495,0.001644,0.083972,0.180922,-0.000261526,0,0,0,0,0,0,0,3.53046,-29.0038,2.91292,25.733,2.37091,2.29699,-0.0163725,
0.0330888,-0.0942475,0.18997,-2.0746,0.22312,0.219363,0.0549323,0.110124,0.00514197,0.11426,-0.132718,0.758234,0.965868,0.00301476,0,0,0,0,0,0,0,13.7103,-1.81582,14.3322,-15.3609,10.437,10.9959,0.0450029,0.0305651,-0.0923608,0.187427,-2.06508,0.186147,0.177042,0.0547082,0.096408,0.0469488,0.121724,-0.00739476,0.0897005,0.238152,0.000284768,1.93499,2.2094,4.7718,-1.12984,0.716056,7.15381,0.0682869,1.65393,-28.9562,1.11177,25.5823,2.32238,2.23748,-0.0227812,
0.0349553,-0.092787,0.192014,-2.07348,0.214401,0.211559,0.0548309,0.112405,0.00378064,0.116499,-0.147308,0.768314,0.971576,0.00300934,0,0,0,0,0,0,0,14.9101,-1.99279,15.1979,-19.1563,10.437,10.9959,0.0619689,0.0305651,-0.0923608,0.187427,-2.06508,0.186147,0.177042,0.0547082,0.096408,0.0469488,0.121724,-0.00739476,0.0897005,0.238152,0.000284768,0,0,0,0,0,0,0,1.65393,-28.9562,1.11177,25.5823,2.32238,2.23748,-0.0227812,
0.0359719,-0.0927827,0.193059,-2.07507,0.220515,0.21971,0.0548525,0.115338,0.00313275,0.11934,-0.157447,0.76751,0.981031,0.00294841,0,0,0,0,0,0,0,14.2554,-1.86577,14.6266,-19.0801,10.437,10.9959,0.0478303,0.0305651,-0.0923608,0.187427,-2.06508,0.186147,0.177042,0.0547082,0.096408,0.0469488,0.121724,-0.00739476,0.0897005,0.238152,0.000284768,0,0,0,0,0,0,0,1.65393,-28.9562,1.11177,25.5823,2.32238,2.23748,-0.0227812,
0.0370215,-0.0927677,0.194137,-2.0766,0.226155,0.227994,0.0548715,0.118511,0.0028806,0.122421,-0.164259,0.754997,0.991924,0.00283316,0,0,0,0,0,0,0,13.7558,-1.63783,14.1677,-18.9503,10.437,10.9959,0.0367656,0.0305651,-0.0923608,0.187427,-2.06508,0.186147,0.177042,0.0547082,0.096408,0.0469488,0.121724,-0.00739476,0.0897005,0.238152,0.000284768,0,0,0,0,0,0,0,1.65393,-28.9562,1.11177,25.5823,2.32238,2.23748,-0.0227812,
0.0380941,-0.0927455,0.195238,-2.07809,0.231264,0.236367,0.054889,0.121624,0.00285965,0.125454,-0.168617,0.731738,1.00287,0.00270519,0,0,0,0,0,0,0,13.371,-1.3213,13.8055,-18.8074,9.27289,10.9746,0.0309842,0.0338422,-0.0907227,0.192624,-2.06577,0.188905,0.185474,0.0547075,0.0998774,0.0504951,0.175901,-0.0372238,0.0686897,0.275908,0.000110296,0.433676,0.443286,6.77213,-3.72863,-2.62635,4.71947,-0.0218091,1.95942,-29.0791,1.28633,25.0864,2.21801,1.87951,-0.0163725,
0.0386956,-0.0910486,0.197734,-2.0753,0.216243,0.220313,0.0547893,0.122983,0.00236506,0.127009,-0.181416,0.735672,1.00109,0.00264801,0,0,0,0,0,0,0,14.5975,-1.60081,15.0239,-22.2407,10.4309,10.9746,0.0515571,0.0338422,-0.0907227,0.192624,-2.06577,0.188905,0.185474,0.0547075,0.0998774,0.0504951,0.175901,-0.0372238,0.0686897,0.275908,0.000110296,0,0,0,0,0,0,0,1.95942,-29.0791,1.28633,25.0864,2.21801,1.87951,-0.0163725,
0.0397543,-0.0910297,0.198828,-2.0771,0.221842,0.228452,0.0548071,0.124854,0.00236484,0.128967,-0.190144,0.728506,1.00432,0.0025651,0,0,0,0,0,0,0,14.013,-1.48023,14.4976,-22.1001,10.4309,10.9746,0.0401561,0.0338422,-0.0907227,0.192624,-2.06577,0.188905,0.185474,0.0547075,0.0998774,0.0504951,0.175901,-0.0372238,0.0686897,0.275908,0.000110296,0,0,0,0,0,0,0,1.95942,-29.0791,1.28633,25.0864,2.21801,1.87951,-0.0163725,
0.0408357,-0.091001,0.199944,-2.07885,0.226939,0.236717,0.0548233,0.126918,0.0026085,0.131071,-0.19583,0.710227,1.0101,0.00245546,0,0,0,0,0,0,0,13.5637,-1.27037,14.0722,-21.9104,9.54812,10.9746,0.0313604,0.0338422,-0.0907227,0.192624,-2.06577,0.188905,0.185474,0.0547075,0.0998774,0.0504951,0.175901,-0.0372238,0.0686897,0.275908,0.000110296,0,0,0,0,0,0,0,1.95942,-29.0791,1.28633,25.0864,2.21801,1.87951,-0.0163725,
0.0386836,-0.091187,0.197688,-2.07578,0.212957,0.220556,0.0547485,0.127106,0.0015607,0.131238,-0.205885,0.693055,1.00772,0.00230491,0,0,0,0,0,0,0,13.7412,-1.58238,14.1562,-24.1096,10.1544,10.9426,0.0338042,0.0374142,-0.0891611,0.198864,-2.0679,0.191334,0.197025,0.0547059,0.111193,0.0403394,0.190186,-0.0865639,0.0676283,0.378878,-0.00069223,1.41449,-1.26946,1.78564,-6.16751,-0.132679,12.8712,-0.100316,2.0586,-28.4563,1.46089,24.6103,2.1878,1.77971,-0.0026396,
0.0397307,-0.0911895,0.198765,-2.07769,0.217556,0.228721,0.0547618,0.127864,0.00118672,0.131937,-0.212528,0.669419,1.01029,0.0021754,0,0,0,0,0,0,0,13.3283,-1.43761,13.7706,-23.8977,8.83245,10.9426,0.0273393,0.0374142,-0.0891611,0.198864,-2.0679,0.191334,0.197025,0.0547059,0.111193,0.0403394,0.190186,-0.0865639,0.0676283,0.378878,-0.00069223,0,0,0,0,0,0,0,2.0586,-28.4563,1.46089,24.6103,2.1878,1.77971,-0.0026396,
0.0407946,-0.0911804,0.199859,-2.07956,0.221708,0.237006,0.0547743,0.128888,0.00117789,0.132899,-0.216627,0.639316,1.01536,0.00205411,0,0,0,0,0,0,0,13.0007,-1.23311,13.4523,-23.6503,7.69986,10.9426,0.0197779,0.0374142,-0.0891611,0.198864,-2.0679,0.191334,0.197025,0.0547059,0.111193,0.0403394,0.190186,-0.0865639,0.0676283,0.378878,-0.00069223,0,0,0,0,0,0,0,2.0586,-28.4563,1.46089,24.6103,2.1878,1.77971,-0.0026396,
0.0418652,-0.0911624,0.20096,-2.08136,0.225395,0.245199,0.0547866,0.129875,0.00139072,0.133842,-0.218242,0.603636,1.01713,0.00194968,0,0,0,0,0,0,0,12.7664,-1.01475,13.2186,-23.3822,6.67571,10.9426,0.0152249,0.0374142,-0.0891611,0.198864,-2.0679,0.191334,0.197025,0.0547059,0.111193,0.0403394,0.190186,-0.0865639,0.0676283,0.378878,-0.00069223,0,0,0,0,0,0,0,2.0586,-28.4563,1.46089,24.6103,2.1878,1.77971,-0.0026396,
0.0424759,-0.0895789,0.204148,-2.07851,0.213632,0.232894,0.0547234,0.129787,0.000676524,0.133754,-0.226526,0.599434,1.01407,0.0018253,0,0,0,0,0,0,0,13.4445,-1.418,13.8575,-25.6403,9.15224,10.9426,0.0278057,0.0374142,-0.0891611,0.198864,-2.0679,0.191334,0.197025,0.0547059,0.111193,0.0403394,0.190186,-0.0865639,0.0676283,0.378878,-0.00069223,0,0,0,0,0,0,0,2.0586,-28.4563,1.46089,24.6103,2.1878,1.77971,-0.0026396,
0.0435263,-0.0895794,0.205229,-2.08054,0.217949,0.241065,0.0547344,0.130089,0.000530079,0.13402,-0.23175,0.587479,1.01553,0.00173384,0,0,0,0,0,0,0,13.0817,-1.31915,13.5089,-25.3832,8.04592,10.9426,0.0207144,0.0374142,-0.0891611,0.198864,-2.0679,0.191334,0.197025,0.0547059,0.111193,0.0403394,0.190186,-0.0865639,0.0676283,0.378878,-0.00069223,0,0,0,0,0,0,0,2.0586,-28.4563,1.46089,24.6103,2.1878,1.77971,-0.0026396,
0.0445864,-0.0895693,0.206319,-2.08251,0.221875,0.249341,0.0547451,0.130574,0.00067559,0.134461,-0.234702,0.568145,1.01932,0.00165561,0,0,0,0,0,0,0,12.8119,-1.16692,13.2415,-25.0979,7.06524,10.9426,0.014772,0.0374142,-0.0891611,0.198864,-2.0679,0.191334,0.197025,0.0547059,0.111193,0.0403394,0.190186,-0.0865639,0.0676283,0.378878,-0.00069223,0,0,0,0,0,0,0,2.0586,-28.4563,1.46089,24.6103,2.1878,1.77971,-0.0026396,
0.0456484,-0.0895518,0.207411,-2.08441,0.225396,0.257533,0.0547558,0.131009,0.000978058,0.134863,-0.235443,0.542525,1.02026,0.00159204,0,0,0,0,0,0,0,12.6208,-0.996861,13.0399,-24.7982,6.17536,10.9426,0.0116186,0.0374142,-0.0891611,0.198864,-2.0679,0.191334,0.197025,0.0547059,0.111193,0.0403394,0.190186,-0.0865639,0.0676283,0.378878,-0.00069223,0,0,0,0,0,0,0,2.0586,-28.4563,1.46089,24.6103,2.1878,1.77971,-0.0026396,
0.042453,-0.0897453,0.204115,-2.07926,0.215267,0.233276,0.0547179,0.130676,-0.00029707,0.134497,-0.244305,0.560103,1.01775,0.00152164,0,0,0,0,0,0,0,13.6445,-1.51325,14.0175,-27.9078,9.77899,10.9426,0.0279349,0.0374142,-0.0891611,0.198864,-2.0679,0.191334,0.197025,0.0547059,0.111193,0.0403394,0.190186,-0.0865639,0.0676283,0.378878,-0.00069223,0,0,0,0,0,0,0,2.0586,-28.4563,1.46089,24.6103,2.1878,1.77971,-0.0026396,
0.0435044,-0.0897678,0.205194,-2.08144,0.219959,0.241482,0.054728,0.130824,-0.000798579,0.134586,-0.249966,0.565369,1.01934,0.00146915,0,0,0,0,0,0,0,13.2409,-1.40702,13.6431,-27.6624,8.63448,10.8945,0.0215275,0.0416466,-0.0879052,0.204746,-2.07163,0.193331,0.212106,0.0547075,0.130021,0.0340141,0.172517,-0.129279,0.0396401,0.489483,0.000429269,2.35352,-0.790662,-2.20857,-5.33939,-3.49852,13.8257,0.140187,-0.29797,-28.3571,-1.23686,23.8129,1.94336,1.67351,-0.0163725,
0.0445668,-0.089776,0.206284,-2.08357,0.224243,0.249783,0.0547378,0.13122,-0.000843784,0.134922,-0.253215,0.559401,1.023,0.00142091,0,0,0,0,0,0,0,12.9301,-1.28545,13.3397,-27.3463,7.62171,10.8945,0.015275,0.0416466,-0.0879052,0.204746,-2.07163,0.193331,0.212106,0.0547075,0.130021,0.0340141,0.172517,-0.129279,0.0396401,0.489483,0.000429269,0,0,0,0,0,0,0,-0.29797,-28.3571,-1.23686,23.8129,1.94336,1.67351,-0.0163725,
0.0466223,-0.0884533,0.209943,-2.08376,0.217421,0.249489,0.0547142,0.130522,-0.00174298,0.134267,-0.262086,0.575571,1.02158,0.00137724,0,0,0,0,0,0,0,13.6446,-1.37405,14.035,-29.9749,10.0106,10.8945,0.0287557,0.0416466,-0.0879052,0.204746,-2.07163,0.193331,0.212106,0.0547075,0.130021,0.0340141,0.172517,-0.129279,0.0396401,0.489483,0.000429269,0,0,0,0,0,0,0,-0.29797,-28.3571,-1.23686,23.8129,1.94336,1.67351,-0.0163725,
0.0476629,-0.0884796,0.211013,-2.08608,0.222178,0.257728,0.0547242,0.130434,-0.00205214,0.134162,-0.26777,0.579396,1.02323,0.00135188,0,0,0,0,0,0,0,13.2242,-1.36614,13.6378,-29.646,8.82295,10.8945,0.0225503,0.0416466,-0.0879052,0.204746,-2.07163,0.193331,0.212106,0.0547075,0.130021,0.0340141,0.172517,-0.129279,0.0396401,0.489483,0.000429269,0,0,0,0,0,0,0,-0.29797,-28.3571,-1.23686,23.8129,1.94336,1.67351,-0.0163725,
0.0487168,-0.0884947,0.212095,-2.08835,0.22651,0.266039,0.0547343,0.130694,-0.00201861,0.134387,-0.271027,0.571802,1.02638,0.00133291,0,0,0,0,0,0,0,12.8919,-1.2566,13.3193,-29.3324,7.79936,10.8379,0.0158538,0.0455289,-0.086849,0.210546,-2.07669,0.194311,0.229383,0.0547075,0.100447,0.0319099,0.173092,-0.161507,0.0195244,0.532815,0.000281607,-3.6968,-0.26302,0.0718287,-4.02854,-2.51446,5.41651,-0.0184578,0.209842,-28.5079,-0.411669,23.8406,1.80236,1.74676,-0.0163725,
0.0497784,-0.088501,0.213185,-2.09058,0.230395,0.274397,0.0547448,0.131095,-0.00177297,0.134752,-0.272458,0.554587,1.03004,0.00133112,0,0,0,0,0,0,0,12.6443,-1.14229,13.071,-28.9602,6.8492,10.8379,0.0114923,0.0455289,-0.086849,0.210546,-2.07669,0.194311,0.229383,0.0547075,0.100447,0.0319099,0.173092,-0.161507,0.0195244,0.532815,0.000281607,0,0,0,0,0,0,0,0.209842,-28.5079,-0.411669,23.8406,1.80236,1.74676,-0.0163725,
0.0502731,-0.087263,0.215494,-2.08944,0.216365,0.267091,0.0547193,0.129756,-0.00191764,0.133411,-0.280366,0.560665,1.02727,0.00131212,0,0,0,0,0,0,0,13.5673,-1.15789,13.9169,-31.6072,9.38798,10.8379,0.0294423,0.0455289,-0.086849,0.210546,-2.07669,0.194311,0.229383,0.0547075,0.100447,0.0319099,0.173092,-0.161507,0.0195244,0.532815,0.000281607,0,0,0,0,0,0,0,0.209842,-28.5079,-0.411669,23.8406,1.80236,1.74676,-0.0163725,
0.0512925,-0.0872685,0.21654,-2.09188,0.220685,0.275319,0.0547297,0.129289,-0.0016721,0.132884,-0.28525,0.556527,1.02752,0.00130971,0,0,0,0,0,0,0,13.1393,-1.16533,13.5196,-31.2456,8.24114,10.8379,0.021946,0.0455289,-0.086849,0.210546,-2.07669,0.194311,0.229383,0.0547075,0.100447,0.0319099,0.173092,-0.161507,0.0195244,0.532815,0.000281607,0,0,0,0,0,0,0,0.209842,-28.5079,-0.411669,23.8406,1.80236,1.74676,-0.0163725,
0.0523292,-0.0872641,0.217603,-2.09427,0.224587,0.283611,0.0547404,0.12935,-0.00122591,0.132875,-0.287828,0.542773,1.02931,0.00131472,0,0,0,0,0,0,0,12.8184,-1.07089,13.2167,-30.8849,7.24633,10.7807,0.0152307,0.0486471,-0.0861981,0.215627,-2.08231,0.194798,0.247623,0.0547097,0.0985468,0.0341838,0.161441,-0.176922,0.0211552,0.514731,0.00121492,-0.237537,0.284238,-1.45638,-1.92685,0.203841,-2.26047,0.116664,1.24927,-28.9562,0.338148,25.1102,1.67419,2.04522,-0.0365141,
0.053284,-0.086652,0.220459,-2.0957,0.215927,0.284958,0.0547151,0.128016,-0.00182651,0.131536,-0.295686,0.545868,1.0251,0.00127793,0,0,0,0,0,0,0,13.4305,-1.53039,13.7737,-33.1738,8.93176,10.7807,0.0278929,0.0486471,-0.0861981,0.215627,-2.08231,0.194798,0.247623,0.0547097,0.0985468,0.0341838,0.161441,-0.176922,0.0211552,0.514731,0.00121492,0,0,0,0,0,0,0,1.24927,-28.9562,0.338148,25.1102,1.67419,2.04522,-0.0365141,
0.05429,-0.0866702,0.221492,-2.09826,0.220051,0.293124,0.054725,0.127564,-0.00191561,0.131044,-0.300386,0.539797,1.02423,0.00126963,0,0,0,0,0,0,0,13.0046,-1.531,13.3795,-32.7755,7.86845,10.7807,0.0190918,0.0486471,-0.0861981,0.215627,-2.08231,0.194798,0.247623,0.0547097,0.0985468,0.0341838,0.161441,-0.176922,0.0211552,0.514731,0.00121492,0,0,0,0,0,0,0,1.24927,-28.9562,0.338148,25.1102,1.67419,2.04522,-0.0365141,
0.0553135,-0.086677,0.222542,-2.10075,0.223784,0.301355,0.0547353,0.127638,-0.00170349,0.131075,-0.302686,0.525151,1.02514,0.00127316,0,0,0,0,0,0,0,12.695,-1.4385,13.0821,-32.3409,6.91443,10.7807,0.0115763,0.0486471,-0.0861981,0.215627,-2.08231,0.194798,0.247623,0.0547097,0.0985468,0.0341838,0.161441,-0.176922,0.0211552,0.514731,0.00121492,0,0,0,0,0,0,0,1.24927,-28.9562,0.338148,25.1102,1.67419,2.04522,-0.0365141,
0.0565567,-0.0858185,0.225494,-2.10196,0.215578,0.30116,0.0547057,0.126704,-0.00182796,0.130065,-0.309107,0.524364,1.02033,0.00124614,0,0,0,0,0,0,0,13.402,-1.33226,13.7123,-34.1845,8.34175,10.7322,0.0255187,0.0519264,-0.085335,0.220696,-2.08828,0.195764,0.264402,0.0547045,0.109972,0.0301655,0.142134,-0.174927,0.0134435,0.463646,-0.000949907,1.42813,-0.502289,-2.41334,0.249347,-0.963964,-6.38561,-0.270603,0.717655,-29.8805,0.0366345,26.6296,1.87011,2.13128,0.0101778,
0.057563,-0.0858151,0.226524,-2.10457,0.219423,0.309231,0.0547156,0.126519,-0.00137611,0.129803,-0.312436,0.515628,1.01802,0.00124566,0,0,0,0,0,0,0,12.996,-1.27967,13.333,-33.7311,7.35722,10.7322,0.0162695,0.0519264,-0.085335,0.220696,-2.08828,0.195764,0.264402,0.0547045,0.109972,0.0301655,0.142134,-0.174927,0.0134435,0.463646,-0.000949907,0,0,0,0,0,0,0,0.717655,-29.8805,0.0366345,26.6296,1.87011,2.13128,0.0101778,
0.0585798,-0.0857972,0.227565,-2.10708,0.222894,0.317074,0.0547257,0.126636,-0.000654353,0.129867,-0.312592,0.49927,1.01048,0.00124789,0,0,0,0,0,0,0,12.7139,-1.14986,13.0605,-33.2471,6.45114,10.7322,0.010313,0.0519264,-0.085335,0.220696,-2.08828,0.195764,0.264402,0.0547045,0.109972,0.0301655,0.142134,-0.174927,0.0134435,0.463646,-0.000949907,0,0,0,0,0,0,0,0.717655,-29.8805,0.0366345,26.6296,1.87011,2.13128,0.0101778,
0.0595998,-0.0857764,0.228609,-2.10949,0.225976,0.324554,0.054737,0.126809,-3.92365e-06,0.129995,-0.310425,0.476473,0.995389,0.00128265,0,0,0,0,0,0,0,12.5218,-0.980577,12.8565,-32.7471,5.6226,10.7322,0.00736978,0.0519264,-0.085335,0.220696,-2.08828,0.195764,0.264402,0.0547045,0.109972,0.0301655,0.142134,-0.174927,0.0134435,0.463646,-0.000949907,0,0,0,0,0,0,0,0.717655,-29.8805,0.0366345,26.6296,1.87011,2.13128,0.0101778,
0.0565378,-0.0859372,0.225476,-2.10223,0.214971,0.301263,0.0546967,0.125818,-0.00099688,0.129004,-0.316616,0.482478,0.996258,0.00123156,0,0,0,0,0,0,0,13.2157,-1.56053,13.5487,-35.1261,8.02622,10.6893,0.021011,0.0555325,-0.0845239,0.225519,-2.09449,0.195926,0.280629,0.0547075,0.116607,0.0149229,0.15125,-0.191223,-0.00108242,0.469982,-3.09013e-05,0.829425,-1.90533,1.13951,-2.037,-1.81573,0.791956,0.114876,0.614505,-29.5036,-0.0863513,26.4789,1.80236,2.14501,-0.0163725,
0.0575283,-0.0859539,0.226492,-2.10486,0.21872,0.309087,0.0547055,0.125415,-0.00121435,0.128604,-0.318921,0.479705,0.992598,0.00120425,0,0,0,0,0,0,0,12.8474,-1.52126,13.1977,-34.6367,7.08696,10.6893,0.0136061,0.0555325,-0.0845239,0.225519,-2.09449,0.195926,0.280629,0.0547075,0.116607,0.0149229,0.15125,-0.191223,-0.00108242,0.469982,-3.09013e-05,0,0,0,0,0,0,0,0.614505,-29.5036,-0.0863513,26.4789,1.80236,2.14501,-0.0163725,
0.0585265,-0.0859627,0.227515,-2.10738,0.222121,0.316591,0.0547153,0.125289,-0.00119138,0.128473,-0.31834,0.468775,0.981693,0.00120807,0,0,0,0,0,0,0,12.586,-1.38477,12.9296,-34.1102,6.2379,10.6893,0.00861956,0.0555325,-0.0845239,0.225519,-2.09449,0.195926,0.280629,0.0547075,0.116607,0.0149229,0.15125,-0.191223,-0.00108242,0.469982,-3.09013e-05,0,0,0,0,0,0,0,0.614505,-29.5036,-0.0863513,26.4789,1.80236,2.14501,-0.0163725,
0.0602927,-0.0851696,0.230439,-2.10858,0.215041,0.317253,0.0547007,0.124921,-0.00155888,0.128072,-0.323245,0.476821,0.982608,0.00120282,0,0,0,0,0,0,0,13.2354,-1.19135,13.5374,-35.631,7.90986,10.6893,0.0220588,0.0555325,-0.0845239,0.225519,-2.09449,0.195926,0.280629,0.0547075,0.116607,0.0149229,0.15125,-0.191223,-0.00108242,0.469982,-3.09013e-05,0,0,0,0,0,0,0,0.614505,-29.5036,-0.0863513,26.4789,1.80236,2.14501,-0.0163725,
0.0612913,-0.0851698,0.231461,-2.11122,0.218819,0.324952,0.0547113,0.124901,-0.00125271,0.12802,-0.324581,0.475923,0.978562,0.00122643,0,0,0,0,0,0,0,12.8749,-1.14791,13.1859,-35.1093,7.03365,10.6487,0.0151723,0.0589273,-0.0836734,0.231078,-2.10177,0.195951,0.297565,0.0547075,0.0886521,0.00549606,0.171988,-0.231019,-0.00396246,0.488474,0.00044532,-3.49439,-1.17835,2.59221,-4.97439,-0.360006,2.31143,0.0595277,-0.274166,-28.6546,-0.93535,24.9356,1.73553,1.91887,-0.0163725,
0.0622945,-0.0851618,0.232488,-2.11377,0.222256,0.332339,0.0547232,0.125001,-0.00080273,0.128084,-0.323319,0.466666,0.967523,0.0012793,0,0,0,0,0,0,0,12.5984,-0.989317,12.9127,-34.5215,6.22147,10.6487,0.0106498,0.0589273,-0.0836734,0.231078,-2.10177,0.195951,0.297565,0.0547075,0.0886521,0.00549606,0.171988,-0.231019,-0.00396246,0.488474,0.00044532,0,0,0,0,0,0,0,-0.274166,-28.6546,-0.93535,24.9356,1.73553,1.91887,-0.0163725,
0.0632977,-0.085155,0.233514,-2.11623,0.225336,0.339357,0.054737,0.12508,-0.000471231,0.128121,-0.320316,0.45033,0.949472,0.00136806,0,0,0,0,0,0,0,12.3891,-0.789368,12.7047,-33.9013,5.48135,10.6487,0.00873151,0.0589273,-0.0836734,0.231078,-2.10177,0.195951,0.297565,0.0547075,0.0886521,0.00549606,0.171988,-0.231019,-0.00396246,0.488474,0.00044532,0,0,0,0,0,0,0,-0.274166,-28.6546,-0.93535,24.9356,1.73553,1.91887,-0.0163725,
0.0636218,-0.0842199,0.235945,-2.11612,0.214146,0.333403,0.0547056,0.124359,-0.00070054,0.127443,-0.324793,0.45715,0.947734,0.00136114,0,0,0,0,0,0,0,13.0691,-1.13584,13.3802,-35.9337,7.61356,10.6487,0.0209374,0.0589273,-0.0836734,0.231078,-2.10177,0.195951,0.297565,0.0547075,0.0886521,0.00549606,0.171988,-0.231019,-0.00396246,0.488474,0.00044532,0,0,0,0,0,0,0,-0.274166,-28.6546,-0.93535,24.9356,1.73553,1.91887,-0.0163725,
0.0646037,-0.0842201,0.236952,-2.11876,0.217733,0.340652,0.0547184,0.124033,-0.000566694,0.12713,-0.325753,0.455399,0.93942,0.00140728,0,0,0,0,0,0,0,12.7208,-1.13955,13.039,-35.3705,6.74009,10.6487,0.0147951,0.0589273,-0.0836734,0.231078,-2.10177,0.195951,0.297565,0.0547075,0.0886521,0.00549606,0.171988,-0.231019,-0.00396246,0.488474,0.00044532,0,0,0,0,0,0,0,-0.274166,-28.6546,-0.93535,24.9356,1.73553,1.91887,-0.0163725,
0.0655903,-0.0842198,0.237963,-2.12131,0.220985,0.347554,0.0547331,0.123894,-0.000445002,0.126982,-0.324277,0.445633,0.924077,0.00149282,0,0,0,0,0,0,0,12.4574,-1.03789,12.7859,-34.7732,5.96683,10.6037,0.0112628,0.0613872,-0.0830337,0.236412,-2.10942,0.19592,0.31474,0.054709,0.0635479,0.0172717,0.160314,-0.228621,-0.0106215,0.493864,0.000759493,-3.13802,1.47196,-1.45922,0.299691,-0.832376,0.673864,0.0392717,1.32465,-28.7538,0.488905,24.1382,1.93145,1.90606,-0.0301054,
0.0648276,-0.0841638,0.23709,-2.11997,0.228571,0.342503,0.0548177,0.125173,-0.000712934,0.128146,-0.332575,0.499157,0.940737,0.0016251,0,0,0,0,0,0,0,12.9448,-1.28002,13.1992,-36.027,7.37755,10.6037,0.0209305,0.0613872,-0.0830337,0.236412,-2.10942,0.19592,0.31474,0.054709,0.0635479,0.0172717,0.160314,-0.228621,-0.0106215,0.493864,0.000759493,0,0,0,0,0,0,0,1.32465,-28.7538,0.488905,24.1382,1.93145,1.90606,-0.0301054,
0.0666732,-0.0834121,0.241868,-2.12635,0.216812,0.357027,0.0547341,0.123706,-0.000418868,0.126619,-0.331397,0.485808,0.925192,0.00169885,0,0,0,0,0,0,0,12.6014,-1.19238,12.8719,-35.3997,6.54939,10.6037,0.0156556,0.0613872,-0.0830337,0.236412,-2.10942,0.19592,0.31474,0.054709,0.0635479,0.0172717,0.160314,-0.228621,-0.0106215,0.493864,0.000759493,0,0,0,0,0,0,0,1.32465,-28.7538,0.488905,24.1382,1.93145,1.90606,-0.0301054,
0.0676265,-0.0834088,0.242842,-2.12888,0.219957,0.363575,0.0547522,0.122798,-0.000252208,0.125646,-0.328317,0.467286,0.903878,0.00181167,0,0,0,0,0,0,0,12.3432,-1.02537,12.6219,-34.7303,5.80102,10.5033,0.0124485,0.0613872,-0.0830337,0.236412,-2.10942,0.19592,0.31474,0.054709,0.0635479,0.0172717,0.160314,-0.228621,-0.0106215,0.493864,0.000759493,0,0,0,0,0,0,0,1.32465,-28.7538,0.488905,24.1382,1.93145,1.90606,-0.0301054,
0.0685851,-0.083412,0.243821,-2.13133,0.222776,0.369756,0.0547726,0.122201,-0.000283924,0.124983,-0.324012,0.444287,0.877607,0.00195763,0,0,0,0,0,0,0,12.143,-0.847353,12.4273,-34.0428,5.1335,9.58563,0.0117044,0.0634629,-0.0820603,0.241835,-2.11713,0.19593,0.331482,0.054703,0.0665322,0.0417288,0.159326,-0.216463,-0.00472558,0.481322,-0.00214647,0.373036,3.05713,-0.123592,1.5197,0.736986,-1.56786,-0.363246,0.840641,-28.7816,0.163588,23.067,1.80236,1.74035,0.0239107,
0.0678034,-0.0821863,0.24633,-2.13129,0.21307,0.365253,0.0547287,0.120725,4.90262e-05,0.123532,-0.325969,0.446492,0.868095,0.00202061,0,0,0,0,0,0,0,12.96,-1.33646,13.2216,-35.8098,7.11988,10.5676,0.0260683,0.0634629,-0.0820603,0.241835,-2.11713,0.19593,0.331482,0.054703,0.0665322,0.0417288,0.159326,-0.216463,-0.00472558,0.481322,-0.00214647,0,0,0,0,0,0,0,0.840641,-28.7816,0.163588,23.067,1.80236,1.74035,0.0239107,
0.0687379,-0.0821767,0.247287,-2.13387,0.21645,0.371563,0.0547495,0.119943,0.000278192,0.122743,-0.325155,0.441671,0.85222,0.00213802,0,0,0,0,0,0,0,12.5922,-1.1984,12.8726,-35.1313,6.35566,10.3166,0.0204313,0.0634629,-0.0820603,0.241835,-2.11713,0.19593,0.331482,0.054703,0.0665322,0.0417288,0.159326,-0.216463,-0.00472558,0.481322,-0.00214647,0,0,0,0,0,0,0,0.840641,-28.7816,0.163588,23.067,1.80236,1.74035,0.0239107,
0.0696822,-0.0821738,0.248253,-2.13636,0.219523,0.377524,0.0547727,0.119563,0.000296197,0.122341,-0.322463,0.43017,0.830799,0.00228903,0,0,0,0,0,0,0,12.3164,-1.01502,12.606,-34.4213,5.6516,9.42317,0.0173191,0.0634629,-0.0820603,0.241835,-2.11713,0.19593,0.331482,0.054703,0.0665322,0.0417288,0.159326,-0.216463,-0.00472558,0.481322,-0.00214647,0,0,0,0,0,0,0,0.840641,-28.7816,0.163588,23.067,1.80236,1.74035,0.0239107,
0.0701919,-0.0815057,0.251373,-2.13841,0.212991,0.37682,0.0547522,0.118683,0.000240729,0.12143,-0.32378,0.434547,0.816865,0.00240597,0,0,0,0,0,0,0,12.8543,-1.53322,13.0823,-35.3771,7.00115,10.3022,0.0289348,0.0657777,-0.0813154,0.246815,-2.1244,0.195942,0.345847,0.0547104,0.0805289,0.0363857,0.154704,-0.220309,-0.00492674,0.412576,0.000762185,1.7496,-0.66788,-0.577748,-0.480747,-0.0251439,-8.59323,0.363582,1.85627,-28.8292,0.988783,24.2889,1.72912,1.98571,-0.0429228,
0.0711257,-0.0815063,0.252326,-2.14095,0.216343,0.382626,0.0547783,0.118293,0.000177072,0.120991,-0.322494,0.43145,0.798639,0.00257588,0,0,0,0,0,0,0,12.4822,-1.33662,12.73,-34.6445,6.27053,9.40098,0.0241405,0.0657777,-0.0813154,0.246815,-2.1244,0.195942,0.345847,0.0547104,0.0805289,0.0363857,0.154704,-0.220309,-0.00492674,0.412576,0.000762185,0,0,0,0,0,0,0,1.85627,-28.8292,0.988783,24.2889,1.72912,1.98571,-0.0429228,
0.0720668,-0.0815126,0.253287,-2.1434,0.219389,0.388134,0.054807,0.118162,-1.64726e-05,0.120801,-0.319437,0.421295,0.776616,0.0027776,0,0,0,0,0,0,0,12.202,-1.13407,12.4591,-33.8911,5.57713,8.63429,0.022395,0.0657777,-0.0813154,0.246815,-2.1244,0.195942,0.345847,0.0547104,0.0805289,0.0363857,0.154704,-0.220309,-0.00492674,0.412576,0.000762185,0,0,0,0,0,0,0,1.85627,-28.8292,0.988783,24.2889,1.72912,1.98571,-0.0429228,
0.0730104,-0.0815263,0.254249,-2.14579,0.222112,0.393346,0.0548383,0.11812,-0.000355674,0.1207,-0.315196,0.405109,0.751582,0.00300669,0,0,0,0,0,0,0,11.9797,-0.956937,12.2393,-33.1309,4.92557,7.96946,0.0230848,0.0657777,-0.0813154,0.246815,-2.1244,0.195942,0.345847,0.0547104,0.0805289,0.0363857,0.154704,-0.220309,-0.00492674,0.412576,0.000762185,0,0,0,0,0,0,0,1.85627,-28.8292,0.988783,24.2889,1.72912,1.98571,-0.0429228,
0.070141,-0.0814865,0.251321,-2.13807,0.212563,0.375387,0.0547775,0.117205,-0.00031678,0.119784,-0.316393,0.411734,0.746356,0.00314279,0,0,0,0,0,0,0,12.6283,-1.50978,12.8594,-34.6164,6.88489,9.62656,0.0327794,0.0687625,-0.0806793,0.251776,-2.13241,0.195938,0.360231,0.054709,0.0922149,0.0235509,0.14694,-0.244196,-0.00428784,0.424437,7.09856e-05,1.46075,-1.60436,-0.970414,-2.98582,0.0798619,1.48261,-0.0863999,0.511356,-28.7538,-0.288683,25.7568,1.71722,2.19811,-0.0301054,
0.0710616,-0.0814885,0.252261,-2.14055,0.215796,0.380936,0.0548105,0.11678,-0.000302611,0.119332,-0.315055,0.41021,0.73582,0.00333994,0,0,0,0,0,0,0,12.2709,-1.33623,12.5208,-33.8592,6.1427,8.83363,0.0297467,0.0687625,-0.0806793,0.251776,-2.13241,0.195938,0.360231,0.054709,0.0922149,0.0235509,0.14694,-0.244196,-0.00428784,0.424437,7.09856e-05,0,0,0,0,0,0,0,0.511356,-28.7538,-0.288683,25.7568,1.71722,2.19811,-0.0301054,
0.0719892,-0.0814955,0.253208,-2.14294,0.218714,0.386219,0.0548467,0.116615,-0.000418811,0.119129,-0.31197,0.401114,0.720715,0.00357605,0,0,0,0,0,0,0,11.9934,-1.15671,12.2518,-33.0852,5.44379,8.15842,0.0291106,0.0687625,-0.0806793,0.251776,-2.13241,0.195938,0.360231,0.054709,0.0922149,0.0235509,0.14694,-0.244196,-0.00428784,0.424437,7.09856e-05,0,0,0,0,0,0,0,0.511356,-28.7538,-0.288683,25.7568,1.71722,2.19811,-0.0301054,
0.0731447,-0.0808791,0.256305,-2.14595,0.212522,0.389282,0.0548141,0.115947,-0.000420842,0.118497,-0.312627,0.408321,0.720142,0.00381365,0,0,0,0,0,0,0,12.4824,-1.58495,12.7182,-33.9027,6.86832,9.53096,0.0413016,0.0687625,-0.0806793,0.251776,-2.13241,0.195938,0.360231,0.054709,0.0922149,0.0235509,0.14694,-0.244196,-0.00428784,0.424437,7.09856e-05,0,0,0,0,0,0,0,0.511356,-28.7538,-0.288683,25.7568,1.71722,2.19811,-0.0301054,
0.0740617,-0.0808844,0.257243,-2.14838,0.215748,0.394791,0.0548562,0.115683,-0.000470019,0.118233,-0.310779,0.407328,0.713828,0.00410316,0,0,0,0,0,0,0,12.1312,-1.46301,12.3891,-33.1014,6.1353,8.77266,0.0390363,0.0716773,-0.0799796,0.256825,-2.1412,0.195943,0.374145,0.0547094,0.0890617,0.0196306,0.155369,-0.257932,-0.0110772,0.380833,0.000395431,-0.394158,-0.49004,1.05361,-1.71695,-0.848666,-5.45048,0.0405556,0.209842,-30.3288,-0.510851,26.7764,1.64398,2.41692,-0.0301054,
0.0749847,-0.0808959,0.258186,-2.15072,0.218672,0.400046,0.0549021,0.115621,-0.000663278,0.118152,-0.307211,0.398946,0.702452,0.0044304,0,0,0,0,0,0,0,11.8547,-1.29686,12.1206,-32.3109,5.42831,8.13938,0.0390502,0.0716773,-0.0799796,0.256825,-2.1412,0.195943,0.374145,0.0547094,0.0890617,0.0196306,0.155369,-0.257932,-0.0110772,0.380833,0.000395431,0,0,0,0,0,0,0,0.209842,-30.3288,-0.510851,26.7764,1.64398,2.41692,-0.0301054,
0.075909,-0.080915,0.259129,-2.15299,0.221296,0.40504,0.0549501,0.115604,-0.00100662,0.118106,-0.302481,0.384761,0.686805,0.0047437,0,0,0,0,0,0,0,11.6351,-1.14888,11.9023,-31.5167,4.77112,7.58187,0.0407484,0.0716773,-0.0799796,0.256825,-2.1412,0.195943,0.374145,0.0547094,0.0890617,0.0196306,0.155369,-0.257932,-0.0110772,0.380833,0.000395431,0,0,0,0,0,0,0,0.209842,-30.3288,-0.510851,26.7764,1.64398,2.41692,-0.0301054,
0.0761187,-0.0800704,0.261406,-2.15446,0.211704,0.400898,0.0548588,0.115236,-0.000412129,0.117728,-0.303225,0.391713,0.682189,0.00493473,0,0,0,0,0,0,0,12.3554,-1.53756,12.5594,-32.8408,6.55082,9.02267,0.0511956,0.0716773,-0.0799796,0.256825,-2.1412,0.195943,0.374145,0.0547094,0.0890617,0.0196306,0.155369,-0.257932,-0.0110772,0.380833,0.000395431,0,0,0,0,0,0,0,0.209842,-30.3288,-0.510851,26.7764,1.64398,2.41692,-0.0301054,
0.0770381,-0.0800581,0.262344,-2.15681,0.214823,0.40599,0.0549101,0.115173,-2.18025e-05,0.117629,-0.30137,0.391359,0.673044,0.0052321,0,0,0,0,0,0,0,12.027,-1.42011,12.2517,-32.0384,5.82453,8.29025,0.050009,0.0741214,-0.0792169,0.261498,-2.14864,0.195957,0.385845,0.0547103,0.0657202,0.0190703,0.1421,-0.20245,-0.00232253,0.320844,-0.0010284,-2.91769,-0.0700315,-1.65867,6.93517,1.09433,-7.49859,-0.177979,0.995365,-29.1307,0.139784,24.7095,1.5039,2.22375,-0.0026396,
0.0779619,-0.0800528,0.263285,-2.15908,0.217682,0.410841,0.0549659,0.115232,0.000115052,0.117639,-0.297722,0.384544,0.659705,0.00558095,0,0,0,0,0,0,0,11.7874,-1.23788,12.0201,-31.234,5.15236,7.67304,0.0514862,0.0741214,-0.0792169,0.261498,-2.14864,0.195957,0.385845,0.0547103,0.0657202,0.0190703,0.1421,-0.20245,-0.00232253,0.320844,-0.0010284,0,0,0,0,0,0,0,0.995365,-29.1307,0.139784,24.7095,1.5039,2.22375,-0.0026396,
0.0782171,-0.0795775,0.265716,-2.16085,0.210311,0.410662,0.0548907,0.113692,-0.000618586,0.116074,-0.29531,0.384986,0.650478,0.00542629,0,0,0,0,0,0,0,11.9593,-1.67297,12.169,-31.1379,5.82182,8.1353,0.0565137,0.0741214,-0.0792169,0.261498,-2.14864,0.195957,0.385845,0.0547103,0.0657202,0.0190703,0.1421,-0.20245,-0.00232253,0.320844,-0.0010284,0,0,0,0,0,0,0,0.995365,-29.1307,0.139784,24.7095,1.5039,2.22375,-0.0026396,
0.0790999,-0.0796019,0.266617,-2.16305,0.21308,0.415405,0.0549714,0.113023,-0.00110543,0.115367,-0.291217,0.377219,0.638953,0.00635767,0,0,0,0,0,0,0,11.7541,-1.50131,11.9769,-30.3349,5.19477,7.54126,0.0593451,0.0741214,-0.0792169,0.261498,-2.14864,0.195957,0.385845,0.0547103,0.0657202,0.0190703,0.1421,-0.20245,-0.00232253,0.320844,-0.0010284,0,0,0,0,0,0,0,0.995365,-29.1307,0.139784,24.7095,1.5039,2.22375,-0.0026396,
0.0799833,-0.0796282,0.267517,-2.16517,0.215625,0.419916,0.0550376,0.112505,-0.00154264,0.114803,-0.285939,0.36539,0.623935,0.006741,0,0,0,0,0,0,0,11.563,-1.37456,11.7896,-29.4932,4.66774,6.99797,0.0632135,0.0763651,-0.0784852,0.266072,-2.15558,0.195971,0.395872,0.0547057,0.0692183,0.0194209,0.123542,-0.203427,0.000528634,0.259923,-0.0010179,0.437273,0.043821,-2.31972,-0.122115,0.356395,-7.61512,0.00131201,0.892215,-28.3809,0.238966,23.0908,1.38763,2.03148,0.00376909,
0.0803326,-0.0786648,0.270154,-2.16754,0.211184,0.420137,0.054936,0.111242,-0.00112154,0.113507,-0.284124,0.370152,0.623018,0.00681925,0,0,0,0,0,0,0,12.0484,-1.48008,12.22,-29.806,6.54606,8.24989,0.0504918,0.0763651,-0.0784852,0.266072,-2.15558,0.195971,0.395872,0.0547057,0.0692183,0.0194209,0.123542,-0.203427,0.000528634,0.259923,-0.0010179,0,0,0,0,0,0,0,0.892215,-28.3809,0.238966,23.0908,1.38763,2.03148,0.00376909,
0.0812017,-0.0786617,0.271039,-2.16966,0.214017,0.424928,0.0550122,0.110719,-0.000820394,0.112937,-0.280355,0.366944,0.618178,0.00736142,0,0,0,0,0,0,0,11.9316,-1.39137,12.152,-29.046,5.46343,7.81531,0.0976599,0.0763651,-0.0784852,0.266072,-2.15558,0.195971,0.395872,0.0547057,0.0692183,0.0194209,0.123542,-0.203427,0.000528634,0.259923,-0.0010179,0,0,0,0,0,0,0,0.892215,-28.3809,0.238966,23.0908,1.38763,2.03148,0.00376909,
0.0820764,-0.0786652,0.271929,-2.1717,0.21663,0.429504,0.0550831,0.110443,-0.000742083,0.112605,-0.275273,0.358859,0.608937,0.00766135,0,0,0,0,0,0,0,11.3429,-1.2162,11.539,-28.224,5.09447,7.15712,0.0788531,0.0763651,-0.0784852,0.266072,-2.15558,0.195971,0.395872,0.0547057,0.0692183,0.0194209,0.123542,-0.203427,0.000528634,0.259923,-0.0010179,0,0,0,0,0,0,0,0.892215,-28.3809,0.238966,23.0908,1.38763,2.03148,0.00376909,
0.0829519,-0.0786772,0.27282,-2.17367,0.218991,0.433872,0.0551392,0.110243,-0.000894882,0.11235,-0.269409,0.346132,0.596358,0.00753244,0,0,0,0,0,0,0,10.9396,-1.18151,11.1533,-27.3851,4.24192,6.73014,0.0524391,0.0792059,-0.0778814,0.270268,-2.16253,0.195965,0.403604,0.0547106,0.0898069,0.0276462,0.12755,-0.211854,-0.00261905,0.204358,0.00065926,2.57357,1.02817,0.501033,-1.05331,-0.393461,-6.94565,0.209645,0.285221,-29.3807,-0.463243,25.5823,1.43615,2.41692,-0.0429228,
0.0833953,-0.0778834,0.274581,-2.17431,0.210649,0.426292,0.054963,0.109911,-0.000185604,0.112061,-0.269352,0.355399,0.594711,0.00736695,0,0,0,0,0,0,0,11.8852,-1.85565,12.0803,-28.4749,5.96002,8.27699,0.0729042,0.0792059,-0.0778814,0.270268,-2.16253,0.195965,0.403604,0.0547106,0.0898069,0.0276462,0.12755,-0.211854,-0.00261905,0.204358,0.00065926,0,0,0,0,0,0,0,0.285221,-29.3807,-0.463243,25.5823,1.43615,2.41692,-0.0429228,
0.0842803,-0.077868,0.275484,-2.17636,0.213518,0.430875,0.0550467,0.110055,0.00023732,0.112214,-0.266878,0.356039,0.590345,0.00798572,0,0,0,0,0,0,0,11.7177,-1.65023,11.9308,-27.7178,5.2613,7.66501,0.0926132,0.0792059,-0.0778814,0.270268,-2.16253,0.195965,0.403604,0.0547106,0.0898069,0.0276462,0.12755,-0.211854,-0.00261905,0.204358,0.00065926,0,0,0,0,0,0,0,0.285221,-29.3807,-0.463243,25.5823,1.43615,2.41692,-0.0429228,
0.0851638,-0.0778625,0.276384,-2.17833,0.216198,0.435259,0.0551176,0.110131,0.000328173,0.112275,-0.2627,0.351848,0.581862,0.00816088,0,0,0,0,0,0,0,11.3796,-1.43485,11.5827,-26.9228,4.84825,7.04228,0.0853861,0.0792059,-0.0778814,0.270268,-2.16253,0.195965,0.403604,0.0547106,0.0898069,0.0276462,0.12755,-0.211854,-0.00261905,0.204358,0.00065926,0,0,0,0,0,0,0,0.285221,-29.3807,-0.463243,25.5823,1.43615,2.41692,-0.0429228,
0.0833498,-0.0778253,0.274526,-2.1737,0.209231,0.425109,0.0549594,0.1094,0.000873458,0.111534,-0.260903,0.350853,0.577537,0.00785261,0,0,0,0,0,0,0,11.5161,-1.95446,11.6812,-26.7332,5.52071,7.81494,0.0644558,0.0792059,-0.0778814,0.270268,-2.16253,0.195965,0.403604,0.0547106,0.0898069,0.0276462,0.12755,-0.211854,-0.00261905,0.204358,0.00065926,0,0,0,0,0,0,0,0.285221,-29.3807,-0.463243,25.5823,1.43615,2.41692,-0.0429228,
0.0842159,-0.0778079,0.275408,-2.17564,0.211733,0.429486,0.0550448,0.109172,0.00113388,0.111273,-0.257112,0.343224,0.571448,0.0084165,0,0,0,0,0,0,0,11.4575,-1.77831,11.6525,-25.9735,4.74874,7.36794,0.0989985,0.0821839,-0.0772413,0.274768,-2.16972,0.195968,0.410231,0.0547112,0.0812106,0.014814,0.139121,-0.20532,-0.00152716,0.190118,0.000683604,-1.07454,-1.60403,1.44638,0.81667,0.136487,-1.78002,0.00304299,0.384403,-30.1543,-0.33629,27.3279,1.40594,2.7813,-0.050247,
0.0850779,-0.0778011,0.276285,-2.17749,0.214073,0.433672,0.0551137,0.108888,0.00107714,0.11094,-0.251951,0.333095,0.561825,0.00845472,0,0,0,0,0,0,0,11.0035,-1.52862,11.1786,-25.2082,4.45912,6.75928,0.0837817,0.0821839,-0.0772413,0.274768,-2.16972,0.195968,0.410231,0.0547112,0.0812106,0.014814,0.139121,-0.20532,-0.00152716,0.190118,0.000683604,0,0,0,0,0,0,0,0.384403,-30.1543,-0.33629,27.3279,1.40594,2.7813,-0.050247,
0.0863473,-0.0773279,0.279048,-2.18028,0.208562,0.431026,0.0549616,0.108319,0.00109591,0.110392,-0.249354,0.332753,0.55854,0.00806984,0,0,0,0,0,0,0,11.2756,-2.03837,11.4504,-25.1589,5.1823,7.65504,0.0637467,0.0821839,-0.0772413,0.274768,-2.16972,0.195968,0.410231,0.0547112,0.0812106,0.014814,0.139121,-0.20532,-0.00152716,0.190118,0.000683604,0,0,0,0,0,0,0,0.384403,-30.1543,-0.33629,27.3279,1.40594,2.7813,-0.050247,
0.0872063,-0.077323,0.279924,-2.1821,0.210973,0.4353,0.0550437,0.108131,0.00099958,0.110196,-0.245059,0.326474,0.553665,0.00850798,0,0,0,0,0,0,0,11.2626,-1.76592,11.4619,-24.4845,4.44647,7.21154,0.102087,0.0821839,-0.0772413,0.274768,-2.16972,0.195968,0.410231,0.0547112,0.0812106,0.014814,0.139121,-0.20532,-0.00152716,0.190118,0.000683604,0,0,0,0,0,0,0,0.384403,-30.1543,-0.33629,27.3279,1.40594,2.7813,-0.050247,
0.088059,-0.077327,0.280792,-2.18384,0.213249,0.439403,0.0551097,0.107822,0.000700587,0.109859,-0.239633,0.318086,0.545528,0.00845517,0,0,0,0,0,0,0,10.8321,-1.57558,11.0102,-23.7126,4.25548,6.59681,0.0824022,0.0845654,-0.0765581,0.279814,-2.17618,0.195958,0.415222,0.0547136,0.0619915,0.0134513,0.146322,-0.184602,-0.00182412,0.123757,0.000696821,-2.40239,-0.170336,0.900115,2.58978,-0.0371203,-8.29503,0.00165217,-1.46435,-30.5034,-2.21282,26.7764,1.45446,2.80144,-0.0429228,
0.0889064,-0.0773411,0.281654,-2.18552,0.215269,0.443344,0.0551593,0.107444,0.00020835,0.109447,-0.233537,0.304973,0.534949,0.008006,0,0,0,0,0,0,0,10.5053,-1.42961,10.6971,-23.022,3.57742,6.18053,0.057014,0.0845654,-0.0765581,0.279814,-2.17618,0.195958,0.415222,0.0547136,0.0619915,0.0134513,0.146322,-0.184602,-0.00182412,0.123757,0.000696821,0,0,0,0,0,0,0,-1.46435,-30.5034,-2.21282,26.7764,1.45446,2.80144,-0.0429228,
0.0886216,-0.0766383,0.28398,-2.18625,0.208305,0.435557,0.0549589,0.106782,0.000552087,0.108785,-0.232343,0.308913,0.537996,0.0077136,0,0,0,0,0,0,0,11.1033,-1.96672,11.2625,-23.64,5.04487,7.74771,0.0625271,0.0845654,-0.0765581,0.279814,-2.17618,0.195958,0.415222,0.0547136,0.0619915,0.0134513,0.146322,-0.184602,-0.00182412,0.123757,0.000696821,0,0,0,0,0,0,0,-1.46435,-30.5034,-2.21282,26.7764,1.45446,2.80144,-0.0429228,
0.0894641,-0.0766281,0.284838,-2.18798,0.210676,0.439884,0.0550342,0.10649,0.000696891,0.10847,-0.229143,0.306394,0.538571,0.00805537,0,0,0,0,0,0,0,11.0787,-1.71976,11.2592,-23.0093,4.37462,7.30714,0.0982538,0.0845654,-0.0765581,0.279814,-2.17618,0.195958,0.415222,0.0547136,0.0619915,0.0134513,0.146322,-0.184602,-0.00182412,0.123757,0.000696821,0,0,0,0,0,0,0,-1.46435,-30.5034,-2.21282,26.7764,1.45446,2.80144,-0.0429228,
0.0903007,-0.076628,0.285689,-2.18963,0.212899,0.444055,0.0550935,0.106105,0.000558651,0.108047,-0.224588,0.3007,0.535128,0.00792487,0,0,0,0,0,0,0,10.6488,-1.56257,10.8114,-22.2907,4.20201,6.71617,0.0790884,0.0863135,-0.0761741,0.284566,-2.18214,0.195967,0.419228,0.0547146,0.0485474,0.0126327,0.141704,-0.166923,0.00390083,0.110755,7.47951e-05,-1.68051,-0.102324,-0.577272,2.20994,0.715619,-1.62526,-0.0777533,-0.476498,-29.3053,-1.16149,25.1855,1.28326,2.60186,-0.0429228,
0.0901948,-0.0762791,0.288553,-2.19172,0.207959,0.440314,0.0549444,0.105123,0.000771743,0.107065,-0.222751,0.302183,0.542875,0.0075395,0,0,0,0,0,0,0,10.9025,-2.07892,11.0572,-22.2753,4.94114,8.11759,0.0625732,0.0863135,-0.0761741,0.284566,-2.18214,0.195967,0.419228,0.0547146,0.0485474,0.0126327,0.141704,-0.166923,0.00390083,0.110755,7.47951e-05,0,0,0,0,0,0,0,-0.476498,-29.3053,-1.16149,25.1855,1.28326,2.60186,-0.0429228,
0.0910139,-0.0762717,0.289386,-2.19336,0.210208,0.444817,0.0550053,0.104578,0.000800693,0.106497,-0.21901,0.297992,0.546853,0.00755483,0,0,0,0,0,0,0,10.8295,-1.81819,11.0009,-21.6862,4.31926,7.61662,0.0902045,0.0863135,-0.0761741,0.284566,-2.18214,0.195967,0.419228,0.0547146,0.0485474,0.0126327,0.141704,-0.166923,0.00390083,0.110755,7.47951e-05,0,0,0,0,0,0,0,-0.476498,-29.3053,-1.16149,25.1855,1.28326,2.60186,-0.0429228,
0.091831,-0.0762746,0.290217,-2.19491,0.212292,0.449159,0.0550588,0.104089,0.000568144,0.105973,-0.21403,0.290485,0.546045,0.00738057,0,0,0,0,0,0,0,10.411,-1.57303,10.5649,-21.0586,4.08628,7.00179,0.0703492,0.0863135,-0.0761741,0.284566,-2.18214,0.195967,0.419228,0.0547146,0.0485474,0.0126327,0.141704,-0.166923,0.00390083,0.110755,7.47951e-05,0,0,0,0,0,0,0,-0.476498,-29.3053,-1.16149,25.1855,1.28326,2.60186,-0.0429228,
0.0917882,-0.0760218,0.293438,-2.19691,0.207469,0.443289,0.0549117,0.103417,0.000908442,0.105306,-0.212172,0.292468,0.553954,0.00705533,0,0,0,0,0,0,0,10.7037,-2.09808,10.853,-20.9795,4.69435,8.48546,0.0575087,0.0879072,-0.0758943,0.289455,-2.18771,0.195953,0.422131,0.0547071,0.0414643,0.00638672,0.147591,-0.157225,0.00303607,0.0654728,-0.000803213,-0.885395,-0.78075,0.735829,1.21224,-0.108095,-5.66032,-0.109751,1.4516,-29.2299,0.663466,26.3559,1.38122,2.90032,-0.00996382,
0.092603,-0.0760092,0.294267,-2.19845,0.209673,0.447888,0.0549753,0.103103,0.00104267,0.104974,-0.208352,0.289069,0.558139,0.0072345,0,0,0,0,0,0,0,10.6085,-1.83092,10.7691,-20.4034,4.15213,7.9041,0.0722169,0.0879072,-0.0758943,0.289455,-2.18771,0.195953,0.422131,0.0547071,0.0414643,0.00638672,0.147591,-0.157225,0.00303607,0.0654728,-0.000803213,0,0,0,0,0,0,0,1.4516,-29.2299,0.663466,26.3559,1.38122,2.90032,-0.00996382,
0.0934134,-0.0760073,0.295091,-2.19991,0.211748,0.452311,0.055028,0.102744,0.000882273,0.104581,-0.203237,0.283118,0.557085,0.00710663,0,0,0,0,0,0,0,10.3046,-1.58223,10.4554,-19.7997,3.84915,7.28826,0.0633547,0.0879072,-0.0758943,0.289455,-2.18771,0.195953,0.422131,0.0547071,0.0414643,0.00638672,0.147591,-0.157225,0.00303607,0.0654728,-0.000803213,0,0,0,0,0,0,0,1.4516,-29.2299,0.663466,26.3559,1.38122,2.90032,-0.00996382,
0.0942183,-0.0760178,0.295909,-2.2013,0.213622,0.456535,0.0550673,0.102316,0.000443461,0.104114,-0.197351,0.273344,0.551273,0.0066659,0,0,0,0,0,0,0,10.0609,-1.41308,10.2212,-19.2211,3.28078,6.81671,0.0482722,0.0879072,-0.0758943,0.289455,-2.18771,0.195953,0.422131,0.0547071,0.0414643,0.00638672,0.147591,-0.157225,0.00303607,0.0654728,-0.000803213,0,0,0,0,0,0,0,1.4516,-29.2299,0.663466,26.3559,1.38122,2.90032,-0.00996382,
0.0917727,-0.0759276,0.293419,-2.1966,0.207481,0.443932,0.0549083,0.101822,0.00120542,0.103624,-0.196893,0.279653,0.56174,0.00647889,0,0,0,0,0,0,0,10.5541,-2.18222,10.6884,-19.7258,4.67674,8.93991,0.0546524,0.0895707,-0.0753786,0.294321,-2.19287,0.195945,0.423977,0.0547107,0.0577898,0.0173079,0.144561,-0.141937,0.0012284,0.0550521,-0.00114288,2.04069,1.36515,-0.378738,1.9109,-0.225959,-1.30258,-0.042459,0.0828892,-29.5274,-0.685411,25.983,1.39953,2.87377,-0.0163725,
0.0925795,-0.0759013,0.294239,-2.19807,0.209726,0.448673,0.0549748,0.101628,0.00162262,0.103409,-0.194141,0.27985,0.567904,0.00684704,0,0,0,0,0,0,0,10.5054,-1.9002,10.6547,-19.1844,4.12335,8.31814,0.0751961,0.0895707,-0.0753786,0.294321,-2.19287,0.195945,0.423977,0.0547107,0.0577898,0.0173079,0.144561,-0.141937,0.0012284,0.0550521,-0.00114288,0,0,0,0,0,0,0,0.0828892,-29.5274,-0.685411,25.983,1.39953,2.87377,-0.0163725,
0.0933793,-0.0758879,0.295052,-2.19945,0.211854,0.453227,0.0550267,0.101297,0.00163224,0.103041,-0.189854,0.277077,0.568193,0.00677517,0,0,0,0,0,0,0,10.1923,-1.6231,10.3284,-18.597,3.89523,7.61551,0.0629517,0.0895707,-0.0753786,0.294321,-2.19287,0.195945,0.423977,0.0547107,0.0577898,0.0173079,0.144561,-0.141937,0.0012284,0.0550521,-0.00114288,0,0,0,0,0,0,0,0.0828892,-29.5274,-0.685411,25.983,1.39953,2.87377,-0.0163725,
0.0935284,-0.0753197,0.298383,-2.20138,0.207486,0.445608,0.054908,0.101158,0.0022825,0.102944,-0.188937,0.28125,0.574422,0.00651499,0,0,0,0,0,0,0,10.5289,-2.22104,10.6669,-18.6481,4.66601,8.94935,0.055255,0.0895707,-0.0753786,0.294321,-2.19287,0.195945,0.423977,0.0547107,0.0577898,0.0173079,0.144561,-0.141937,0.0012284,0.0550521,-0.00114288,0,0,0,0,0,0,0,0.0828892,-29.5274,-0.685411,25.983,1.39953,2.87377,-0.0163725,
0.094338,-0.0752904,0.299207,-2.20277,0.209652,0.450313,0.0549731,0.101168,0.00255889,0.102962,-0.185808,0.279149,0.577167,0.00684056,0,0,0,0,0,0,0,10.4634,-1.96944,10.6197,-18.0896,4.11124,8.33016,0.0800839,0.0917814,-0.0747416,0.299103,-2.19748,0.195934,0.425427,0.0547108,0.065477,0.0112848,0.119705,-0.120235,0.00119098,0.039121,0.000239334,0.960898,-0.752888,-3.10699,2.71278,-0.00467667,-1.99139,0.172777,-0.881161,-29.8528,-1.71294,26.4789,1.36932,3.07244,-0.0429228,
0.0951378,-0.0752756,0.300021,-2.20407,0.211692,0.454829,0.0550218,0.100929,0.00241853,0.102707,-0.181232,0.27432,0.574612,0.00668889,0,0,0,0,0,0,0,10.0696,-1.66544,10.2112,-17.5269,3.90654,7.59533,0.0629401,0.0917814,-0.0747416,0.299103,-2.19748,0.195934,0.425427,0.0547108,0.065477,0.0112848,0.119705,-0.120235,0.00119098,0.039121,0.000239334,0,0,0,0,0,0,0,-0.881161,-29.8528,-1.71294,26.4789,1.36932,3.07244,-0.0429228,
0.0955712,-0.0748213,0.302983,-2.20557,0.207211,0.44817,0.0548965,0.10032,0.00257914,0.102102,-0.180096,0.277223,0.586419,0.00641985,0,0,0,0,0,0,0,10.2583,-2.36998,10.3849,-17.6278,4.57545,9.39882,0.0503718,0.0917814,-0.0747416,0.299103,-2.19748,0.195934,0.425427,0.0547108,0.065477,0.0112848,0.119705,-0.120235,0.00119098,0.039121,0.000239334,0,0,0,0,0,0,0,-0.881161,-29.8528,-1.71294,26.4789,1.36932,3.07244,-0.0429228,
0.0963605,-0.0748029,0.303786,-2.20688,0.209326,0.453136,0.0549553,0.0999883,0.00252298,0.10175,-0.176814,0.274649,0.593295,0.00660752,0,0,0,0,0,0,0,10.2315,-2.00506,10.3739,-17.1391,4.0118,8.73188,0.0766394,0.0917814,-0.0747416,0.299103,-2.19748,0.195934,0.425427,0.0547108,0.065477,0.0112848,0.119705,-0.120235,0.00119098,0.039121,0.000239334,0,0,0,0,0,0,0,-0.881161,-29.8528,-1.71294,26.4789,1.36932,3.07244,-0.0429228,
0.0971421,-0.0747977,0.30458,-2.20811,0.211322,0.457899,0.0549995,0.0995309,0.00214872,0.101256,-0.172152,0.269618,0.593712,0.00639027,0,0,0,0,0,0,0,9.85818,-1.73294,9.98509,-16.5643,3.8305,7.97209,0.057519,0.0941233,-0.0741187,0.302983,-2.20122,0.195936,0.427109,0.0547082,0.0793189,0.0203901,0.10882,-0.108521,0.00355593,0.0508865,-0.000545964,1.73024,1.13817,-1.36057,1.46431,0.295619,1.47068,-0.0981622,-0.730404,-28.5079,-1.38762,24.5627,1.25946,2.74102,-0.0227812,
0.0979181,-0.0748069,0.305368,-2.20926,0.213067,0.462438,0.0550302,0.0990247,0.00148966,0.100708,-0.166658,0.259326,0.588444,0.00588068,0,0,0,0,0,0,0,9.59914,-1.5376,9.74504,-16.0677,3.15455,7.41735,0.0354637,0.0941233,-0.0741187,0.302983,-2.20122,0.195936,0.427109,0.0547082,0.0793189,0.0203901,0.10882,-0.108521,0.00355593,0.0508865,-0.000545964,0,0,0,0,0,0,0,-0.730404,-28.5079,-1.38762,24.5627,1.25946,2.74102,-0.0227812,
0.0979253,-0.0740541,0.306871,-2.20899,0.206908,0.451038,0.0548797,0.09872,0.00226152,0.100416,-0.166757,0.263215,0.603267,0.00571441,0,0,0,0,0,0,0,10.1221,-2.2662,10.2426,-16.6089,4.37623,9.91487,0.0504432,0.0941233,-0.0741187,0.302983,-2.20122,0.195936,0.427109,0.0547082,0.0793189,0.0203901,0.10882,-0.108521,0.00355593,0.0508865,-0.000545964,0,0,0,0,0,0,0,-0.730404,-28.5079,-1.38762,24.5627,1.25946,2.74102,-0.0227812,
0.0987095,-0.0740219,0.307668,-2.21023,0.208947,0.45622,0.0549384,0.0985829,0.00261521,0.100263,-0.164427,0.261567,0.61215,0.00603953,0,0,0,0,0,0,0,10.077,-1.90387,10.2086,-16.1518,3.89517,9.16036,0.0699613,0.0941233,-0.0741187,0.302983,-2.20122,0.195936,0.427109,0.0547082,0.0793189,0.0203901,0.10882,-0.108521,0.00355593,0.0508865,-0.000545964,0,0,0,0,0,0,0,-0.730404,-28.5079,-1.38762,24.5627,1.25946,2.74102,-0.0227812,
