xiao-wang007/linearmpc_panda/paper_data/panda_inverse_dynamics_controller_error_match_to_start/1/trajectory.csv
Commanded Joint 0 Position,Commanded Joint 1 Position,Commanded Joint 2 Position,Commanded Joint 3 Position,Commanded Joint 4 Position,Commanded Joint 5 Position,Commanded Joint 6 Position,Commanded Joint 0 Velocity,Commanded Joint 1 Velocity,Commanded Joint 2 Velocity,Commanded Joint 3 Velocity,Commanded Joint 4 Velocity,Commanded Joint 5 Velocity,Commanded Joint 6 Velocity,Commanded Joint 0 Acceleration,Commanded Joint 1 Acceleration,Commanded Joint 2 Acceleration,Commanded Joint 3 Acceleration,Commanded Joint 4 Acceleration,Commanded Joint 5 Acceleration,Commanded Joint 6 Acceleration,Commanded Joint 0 Torque,Commanded Joint 1 Torque,Commanded Joint 2 Torque,Commanded Joint 3 Torque,Commanded Joint 4 Torque,Commanded Joint 5 Torque,Commanded Joint 6 Torque,Actual Joint 0 Position,Actual Joint 1 Position,Actual Joint 2 Position,Actual Joint 3 Position,Actual Joint 4 Position,Actual Joint 5 Position,Actual Joint 6 Position,Actual Joint 0 Velocity,Actual Joint 1 Velocity,Actual Joint 2 Velocity,Actual Joint 3 Velocity,Actual Joint 4 Velocity,Actual Joint 5 Velocity,Actual Joint 6 Velocity,Actual Joint 0 Acceleration,Actual Joint 1 Acceleration,Actual Joint 2 Acceleration,Actual Joint 3 Acceleration,Actual Joint 4 Acceleration,Actual Joint 5 Acceleration,Actual Joint 6 Acceleration,Actual Joint 0 Torque,Actual Joint 1 Torque,Actual Joint 2 Torque,Actual Joint 3 Torque,Actual Joint 4 Torque,Actual Joint 5 Torque,Actual Joint 6 Torque,
0.0249907,0.0080129,-0.048086,-1.70881,-0.0716864,0.224745,0.0583126,-0.000160636,0.0218313,-0.000187997,-0.0325986,-0.00109639,0.0501322,-0.00033313,-0.100398,13.6446,-0.117498,-20.3741,-0.685245,31.3326,-0.208206,0.064416,24.8389,0.0677334,-24.4274,-0.241797,1.69768,-0.0235627,0.0250352,0.00672188,-0.0480315,-1.70589,-0.0716978,0.219358,0.0583128,0.000128627,-0.000893964,0.00166928,-8.2857e-06,-0.00272576,0.00155117,0.000124618,0,0,0,0,0,0,0,0.0551182,-35.5934,-0.110155,27.1771,0.507809,3.20519,0.0980684,
0.0250375,0.00676949,-0.0480307,-1.70602,-0.0717165,0.219339,0.0583127,-0.000116253,0.017577,-0.000137862,-0.0261433,-0.000952988,0.0400198,-0.00026841,0.0277397,-2.65896,0.0313344,4.03455,0.0896274,-6.32027,0.0404499,0.0585273,25.2802,0.0572709,-24.3435,-0.242889,1.44808,-0.02205,0.0250347,0.00675524,-0.0480336,-1.70601,-0.0716975,0.219351,0.0583129,-0.000124937,-3.14062e-05,0.000758421,-0.00256628,-0.00227976,0.00114303,0.000466705,-0.0316955,0.10782,-0.113857,-0.31975,0.0557507,-0.0510175,0.0427609,0.106693,-35.2443,-0.0387439,27.0779,0.502316,3.27843,0.0641939,
0.0250378,0.00677337,-0.0480304,-1.70602,-0.0717181,0.219337,0.0583127,-8.60131e-05,0.0141586,-0.000102865,-0.0209649,-0.000802302,0.0319593,-0.000216067,0.0188998,-2.13648,0.0218734,3.2365,0.0941784,-5.03781,0.0327141,0.0511745,25.8516,0.0454067,-24.2354,-0.243163,1.10111,-0.0200817,0.0250347,0.00675524,-0.0480336,-1.70601,-0.0716975,0.219351,0.0583129,-0.000124937,-3.14062e-05,0.000758421,-0.00256628,-0.00227976,0.00114303,0.000466705,0,0,0,0,0,0,0,0.106693,-35.2443,-0.0387439,27.0779,0.502316,3.27843,0.0641939,
0.025038,0.00677673,-0.0480303,-1.70603,-0.0717189,0.219336,0.0583127,-6.48243e-05,0.0114109,-7.77895e-05,-0.016812,-0.000662192,0.0255365,-0.000173859,0.013243,-1.71733,0.0156721,2.59553,0.087569,-4.01424,0.0263805,0.0451133,26.3755,0.0358588,-24.0676,-0.241942,0.716533,-0.0180812,0.0250347,0.00675524,-0.0480336,-1.70601,-0.0716975,0.219351,0.0583129,-0.000124937,-3.14062e-05,0.000758421,-0.00256628,-0.00227976,0.00114303,0.000466705,0,0,0,0,0,0,0,0.106693,-35.2443,-0.0387439,27.0779,0.502316,3.27843,0.0641939,
0.0250464,0.00716772,-0.0480229,-1.70656,-0.0718511,0.21954,0.0583209,0.000239438,0.0194407,0.000205813,-0.0271301,-0.00437085,0.0251606,6.06066e-05,0.190164,5.0186,0.177252,-6.44879,-2.31791,-0.234961,0.146541,-1.03055e-06,30.9939,0.00504611,-23.3263,-0.728656,-2.46384,0.00187662,0.0250347,0.00675524,-0.0480336,-1.70601,-0.0716975,0.219351,0.0583129,-0.000124937,-3.14062e-05,0.000758421,-0.00256628,-0.00227976,0.00114303,0.000466705,0,0,0,0,0,0,0,0.106693,-35.2443,-0.0387439,27.0779,0.502316,3.27843,0.0641939,
0.0249975,0.00757723,-0.0480742,-1.70677,-0.0708789,0.218861,0.0583035,-0.00103089,0.0257904,-0.00111744,-0.0270755,0.0208098,0.00315085,-0.000387325,-0.793958,3.96857,-0.827033,0.0341109,15.7379,-13.7561,-0.279957,0.554248,0.175718,0.555076,-0.297024,3.56748,-2.00116,-0.00189595,0.0250402,0.00677558,-0.0480369,-1.70613,-0.0716936,0.219337,0.0583052,-0.000752509,0.00239219,0.0062994,-0.0084978,0.000151919,-0.0114121,-0.00122658,-0.0784466,0.30295,0.692622,-0.74144,0.30396,-1.56939,-0.21166,0.0828892,-35.0697,0.0366345,26.4551,0.429074,2.95983,0.104477,
0.0249276,0.00790608,-0.0481446,-1.70691,-0.0692479,0.217788,0.0582926,-0.00257148,0.0288536,-0.0026536,-0.025089,0.0574222,-0.0243023,-0.000581765,-0.962868,1.91451,-0.960098,1.24158,22.8827,-17.1582,-0.121525,0.548365,0.173588,0.549201,-0.293978,3.53575,-1.98329,-0.00186055,0.0250402,0.00677558,-0.0480369,-1.70613,-0.0716936,0.219337,0.0583052,-0.000752509,0.00239219,0.0062994,-0.0084978,0.000151919,-0.0114121,-0.00122658,0,0,0,0,0,0,0,0.0828892,-35.0697,0.0366345,26.4551,0.429074,2.95983,0.104477,
0.0248581,0.00816113,-0.0482137,-1.70702,-0.0672322,0.216498,0.0582864,-0.00379352,0.029459,-0.0038505,-0.0228359,0.0963302,-0.0517004,-0.000620375,-0.763772,0.378395,-0.748066,1.40817,24.3175,-17.1238,-0.0241314,0.542536,0.171363,0.543375,-0.291049,3.50393,-1.96538,-0.00182782,0.0250402,0.00677558,-0.0480369,-1.70613,-0.0716936,0.219337,0.0583052,-0.000752509,0.00239219,0.0062994,-0.0084978,0.000151919,-0.0114121,-0.00122658,0,0,0,0,0,0,0,0.0828892,-35.0697,0.0366345,26.4551,0.429074,2.95983,0.104477,
0.0250667,0.00721134,-0.0480109,-1.7067,-0.0718263,0.219438,0.0583124,-0.00237204,0.0344612,-0.00243123,-0.0326168,0.0737486,-0.0388362,-0.000317082,0.888426,3.12636,0.887043,-6.11307,-14.1135,8.04013,0.189559,4.96841e-05,30.9945,0.00511268,-23.3261,-0.728613,-2.46315,0.00187286,0.0250402,0.00677558,-0.0480369,-1.70613,-0.0716936,0.219337,0.0583052,-0.000752509,0.00239219,0.0062994,-0.0084978,0.000151919,-0.0114121,-0.00122658,0,0,0,0,0,0,0,0.0828892,-35.0697,0.0366345,26.4551,0.429074,2.95983,0.104477,
0.024958,0.00766582,-0.0481256,-1.70671,-0.068598,0.216711,0.0582598,-0.00461681,0.038931,-0.00481086,-0.0263717,0.139705,-0.0992489,-0.00156797,-1.40298,2.79363,-1.48726,3.90323,41.2229,-37.7579,-0.781805,3.98359,1.01194,3.98482,-1.96636,11.2714,-9.38711,-0.00972972,0.0250402,0.00677558,-0.0480369,-1.70613,-0.0716936,0.219337,0.0583052,-0.000752509,0.00239219,0.0062994,-0.0084978,0.000151919,-0.0114121,-0.00122658,0,0,0,0,0,0,0,0.0828892,-35.0697,0.0366345,26.4551,0.429074,2.95983,0.104477,
0.024818,0.0079958,-0.0482668,-1.70667,-0.0633663,0.212457,0.0582277,-0.00719186,0.0393944,-0.00737955,-0.0199569,0.242557,-0.185729,-0.00205878,-1.60941,0.289616,-1.60543,4.00924,64.2821,-54.0501,-0.306755,3.93473,1.06621,3.93319,-1.89973,11.2715,-9.2307,-0.00885082,0.025053,0.00632391,-0.0480325,-1.70696,-0.0716978,0.218613,0.0583056,0.000498696,-0.043623,-0.000386632,-0.0110847,0.00105487,-0.0334563,0.000424651,0.156401,-5.7519,-0.835754,-0.323361,0.112869,-2.75553,0.206403,0.0313145,-38.7633,0.0644055,26.828,0.410763,2.9937,0.0577852,
0.0246997,0.00822413,-0.0483844,-1.70665,-0.0569259,0.20727,0.0582096,-0.00871218,0.0372238,-0.00884416,-0.0156081,0.355056,-0.278278,-0.00209891,-0.950197,-1.35664,-0.915383,2.71797,70.3121,-57.8434,-0.0250845,3.87049,1.12429,3.86729,-1.8484,11.2715,-9.0726,-0.00806425,0.025053,0.00632391,-0.0480325,-1.70696,-0.0716978,0.218613,0.0583056,0.000498696,-0.043623,-0.000386632,-0.0110847,0.00105487,-0.0334563,0.000424651,0,0,0,0,0,0,0,0.0313145,-38.7633,0.0644055,26.828,0.410763,2.9937,0.0577852,
0.0250629,0.00651622,-0.0480241,-1.70746,-0.0718302,0.218575,0.0583151,-0.00672193,0.0345866,-0.00686634,-0.0252208,0.280735,-0.22358,-0.00144374,1.2439,-1.64822,1.23614,-6.0079,-46.4505,34.1865,0.409486,2.6789e-05,30.9748,0.00475057,-23.3206,-0.728478,-2.45799,0.00184304,0.025053,0.00632391,-0.0480325,-1.70696,-0.0716978,0.218613,0.0583056,0.000498696,-0.043623,-0.000386632,-0.0110847,0.00105487,-0.0334563,0.000424651,0,0,0,0,0,0,0,0.0313145,-38.7633,0.0644055,26.828,0.410763,2.9937,0.0577852,
0.0254268,0.00666,-0.047653,-1.7077,-0.0695963,0.214701,0.0583853,0.00371941,0.0312639,0.00378499,-0.0260808,0.280436,-0.275706,0.000601541,6.52584,-2.07666,6.65708,-0.537507,-0.187124,-32.5787,1.2783,28.2547,3.01307,28.1903,-12.799,11.2628,-14.4289,0.0928569,0.0250856,0.00724852,-0.0479468,-1.70863,-0.0695594,0.214292,0.0583119,0.00750169,-0.0261525,0.00895571,-0.0494564,0.125446,-0.15773,0.000958227,0.875375,2.18381,1.16779,-4.79647,15.5489,-15.5343,0.0666969,1.55078,-35.7204,1.58784,27.6254,1.5039,2.54876,0.0303194,
0.0260852,0.00675486,-0.0469936,-1.70792,-0.0656563,0.208425,0.0584579,0.0194364,0.0273826,0.0195133,-0.0263441,0.322848,-0.377465,0.00229705,9.82314,-2.42586,9.83023,-0.164539,26.5076,-63.5992,1.05969,26.9672,4.04743,26.8495,-11.049,11.2628,-14.4289,0.0872164,0.0250856,0.00724852,-0.0479468,-1.70863,-0.0695594,0.214292,0.0583119,0.00750169,-0.0261525,0.00895571,-0.0494564,0.125446,-0.15773,0.000958227,0,0,0,0,0,0,0,1.55078,-35.7204,1.58784,27.6254,1.5039,2.54876,0.0303194,
0.026975,0.00683282,-0.0461051,-1.70818,-0.06047,0.200564,0.0585182,0.037793,0.0238552,0.0378224,-0.0274586,0.387938,-0.498513,0.00334401,11.4729,-2.20464,11.4431,-0.696615,40.6811,-75.6553,0.654355,25.7104,4.1116,25.5923,-9.63281,11.2628,-14.4289,0.0682154,0.0250856,0.00724852,-0.0479468,-1.70863,-0.0695594,0.214292,0.0583119,0.00750169,-0.0261525,0.00895571,-0.0494564,0.125446,-0.15773,0.000958227,0,0,0,0,0,0,0,1.55078,-35.7204,1.58784,27.6254,1.5039,2.54876,0.0303194,
0.025168,0.0075989,-0.0478653,-1.70933,-0.0690566,0.213452,0.0583255,0.0322956,0.0278437,0.032295,-0.0394799,0.32292,-0.419792,0.00301466,-3.43587,2.49285,-3.45463,-7.51331,-40.636,49.2009,-0.205844,-0.00523884,30.9959,0.000106656,-23.3069,-0.737228,-2.42887,0.00173139,0.0250856,0.00724852,-0.0479468,-1.70863,-0.0695594,0.214292,0.0583119,0.00750169,-0.0261525,0.00895571,-0.0494564,0.125446,-0.15773,0.000958227,0,0,0,0,0,0,0,1.55078,-35.7204,1.58784,27.6254,1.5039,2.54876,0.0303194,
0.0258749,0.0077489,-0.0471461,-1.71019,-0.066948,0.209344,0.0585126,0.0435083,0.0260248,0.0438173,-0.0532061,0.31105,-0.438548,0.00709053,7.00792,-1.13683,7.20148,-8.57884,-7.41892,-11.7224,2.54742,42.0699,4.78191,41.9209,-23.0287,11.1526,-14.3822,0.20932,0.0253204,0.00696359,-0.0472751,-1.71166,-0.0547531,0.199308,0.0583055,0.0018286,0.0140383,0.00886375,-0.0553048,0.703635,-0.636044,-0.000136964,-0.709137,5.02385,-0.0114953,-0.731043,72.2736,-59.7892,-0.136899,3.35193,-37.0653,3.31361,24.5865,1.1679,0.99053,0.0843355,
0.02701,0.00787774,-0.0460025,-1.71111,-0.0633575,0.202983,0.0586044,0.0631852,0.0240409,0.063643,-0.0654981,0.338604,-0.509868,0.00796607,12.2981,-1.23994,12.3911,-7.68253,17.2212,-44.5752,0.54721,38.0786,6.64442,37.9815,-20.9834,11.1526,-14.3822,0.0899374,0.0253204,0.00696359,-0.0472751,-1.71166,-0.0547531,0.199308,0.0583055,0.0018286,0.0140383,0.00886375,-0.0553048,0.703635,-0.636044,-0.000136964,0,0,0,0,0,0,0,3.35193,-37.0653,3.31361,24.5865,1.1679,0.99053,0.0843355,
0.0278535,0.00642955,-0.0447661,-1.71477,-0.0446805,0.185249,0.0586757,0.089204,0.0132059,0.0891581,-0.0936779,0.40029,-0.600719,0.00847156,16.2617,-6.77183,15.9469,-17.6123,38.5536,-56.7821,0.315936,51.4345,3.7111,50.877,-32.9121,11.1526,-14.3822,0.27931,0.0253204,0.00696359,-0.0472751,-1.71166,-0.0547531,0.199308,0.0583055,0.0018286,0.0140383,0.00886375,-0.0553048,0.703635,-0.636044,-0.000136964,0,0,0,0,0,0,0,3.35193,-37.0653,3.31361,24.5865,1.1679,0.99053,0.0843355,
0.029732,0.00630962,-0.0429077,-1.71649,-0.0388678,0.176543,0.058619,0.118325,0.00756667,0.117786,-0.117992,0.465549,-0.698246,0.00535987,18.2008,-3.52455,17.8927,-15.1965,40.7875,-60.9546,-1.94481,44.8226,5.7036,44.3669,-30.5306,11.1526,-14.3822,0.0452557,0.0253204,0.00696359,-0.0472751,-1.71166,-0.0547531,0.199308,0.0583055,0.0018286,0.0140383,0.00886375,-0.0553048,0.703635,-0.636044,-0.000136964,0,0,0,0,0,0,0,3.35193,-37.0653,3.31361,24.5865,1.1679,0.99053,0.0843355,
0.0318128,0.00629484,-0.0408484,-1.71827,-0.0323787,0.167151,0.0584811,0.14668,0.00568388,0.145711,-0.138773,0.534667,-0.793387,0.000840755,17.7215,-1.17674,17.4532,-12.9877,43.1984,-59.463,-2.82445,40.3618,6.33938,39.9685,-28.8311,11.147,-14.126,-0.104215,0.0278693,0.00579431,-0.0430848,-1.71654,-0.0300148,0.173908,0.058163,0.155159,0.0166506,0.232948,-0.141633,0.800326,-0.881801,-0.00743782,19.1663,0.326547,28.0105,-10.791,12.0864,-30.7196,-0.912607,14.5357,-31.2532,13.8626,17.4612,3.25622,-0.175852,-0.0026396,
0.0340216,0.006329,-0.0386619,-1.72012,-0.0252998,0.157306,0.0583623,0.172565,0.00540093,0.171232,-0.157414,0.604707,-0.88083,-0.00229848,16.1781,-0.176848,15.9501,-11.6505,43.7748,-54.652,-1.96202,37.2982,5.78763,36.9458,-27.576,11.147,-14.126,-0.190637,0.0278693,0.00579431,-0.0430848,-1.71654,-0.0300148,0.173908,0.058163,0.155159,0.0166506,0.232948,-0.141633,0.800326,-0.881801,-0.00743782,0,0,0,0,0,0,0,14.5357,-31.2532,13.8626,17.4612,3.25622,-0.175852,-0.0026396,
0.0341747,0.00592612,-0.0368343,-1.72166,-0.00911568,0.147705,0.0578477,0.194543,0.0059497,0.192917,-0.171377,0.668071,-0.940081,-0.00480789,13.7362,0.342986,13.5535,-8.72708,39.6026,-37.0317,-1.56838,40.3618,6.33938,39.9685,-28.8311,11.147,-14.126,-0.104215,0.0278693,0.00579431,-0.0430848,-1.71654,-0.0300148,0.173908,0.058163,0.155159,0.0166506,0.232948,-0.141633,0.800326,-0.881801,-0.00743782,0,0,0,0,0,0,0,14.5357,-31.2532,13.8626,17.4612,3.25622,-0.175852,-0.0026396,
0.0364928,0.00594342,-0.0345397,-1.72363,-0.00133552,0.137907,0.0577442,0.213587,0.00519228,0.211698,-0.186416,0.728961,-0.997019,-0.00643392,11.9027,-0.47339,11.7382,-9.39915,38.0562,-35.5859,-1.01627,37.2982,5.78763,36.9458,-27.576,11.147,-14.126,-0.190637,0.0278693,0.00579431,-0.0430848,-1.71654,-0.0300148,0.173908,0.058163,0.155159,0.0166506,0.232948,-0.141633,0.800326,-0.881801,-0.00743782,0,0,0,0,0,0,0,14.5357,-31.2532,13.8626,17.4612,3.25622,-0.175852,-0.0026396,
0.0388041,0.00593764,-0.0322521,-1.72568,0.00683177,0.127801,0.0575749,0.228652,0.0040092,0.226549,-0.200515,0.787351,-1.05025,-0.00938052,9.41568,-0.739422,9.28129,-8.81207,36.4938,-33.272,-1.84163,35.4956,5.06019,35.1615,-27.1553,11.2059,-13.6765,-0.155156,0.0318176,0.00564363,-0.0348299,-1.72509,-0.00263862,0.139918,0.057829,0.254319,-0.121491,0.463774,-0.489935,1.33617,-1.30911,-0.0220592,12.395,-17.2677,28.8532,-43.5378,66.9811,-53.4138,-1.82768,28.9647,-22.8664,28.2083,5.85297,8.71643,-6.2696,0.0303194,
0.0410776,0.00595045,-0.0300019,-1.72774,0.0153043,0.117436,0.057372,0.239758,0.00352752,0.237493,-0.211826,0.841695,-1.09934,-0.0125774,6.94106,-0.301051,6.84053,-7.06968,33.9651,-30.6813,-1.99806,33.1138,2.45682,32.7929,-27.8379,11.2059,-13.6765,-0.129305,0.0318176,0.00564363,-0.0348299,-1.72509,-0.00263862,0.139918,0.057829,0.254319,-0.121491,0.463774,-0.489935,1.33617,-1.30911,-0.0220592,0,0,0,0,0,0,0,28.9647,-22.8664,28.2083,5.85297,8.71643,-6.2696,0.0303194,
0.0403797,0.00559395,-0.0263314,-1.73209,0.0267488,0.105471,0.05744,0.261219,0.00430684,0.258731,-0.225745,0.914682,-1.16254,-0.0143608,13.4132,0.487077,13.2736,-8.699,45.617,-39.5005,-1.11463,35.4956,5.06019,35.1615,-27.1553,11.2059,-13.6765,-0.155156,0.0318176,0.00564363,-0.0348299,-1.72509,-0.00263862,0.139918,0.057829,0.254319,-0.121491,0.463774,-0.489935,1.33617,-1.30911,-0.0220592,0,0,0,0,0,0,0,28.9647,-22.8664,28.2083,5.85297,8.71643,-6.2696,0.0303194,
0.0430376,0.00568889,-0.0236996,-1.73429,0.0363661,0.0942635,0.0572335,0.275423,0.00581899,0.272781,-0.235663,0.972177,-1.21023,-0.0166505,8.8776,0.94509,8.78117,-6.19906,35.9344,-29.8012,-1.43104,33.1138,2.45682,32.7929,-27.8379,11.2059,-13.6765,-0.129305,0.0318176,0.00564363,-0.0348299,-1.72509,-0.00263862,0.139918,0.057829,0.254319,-0.121491,0.463774,-0.489935,1.33617,-1.30911,-0.0220592,0,0,0,0,0,0,0,28.9647,-22.8664,28.2083,5.85297,8.71643,-6.2696,0.0303194,
0.0455777,0.00580949,-0.0211846,-1.73644,0.0459411,0.0831381,0.0570232,0.28384,0.00767036,0.281099,-0.242327,1.01712,-1.24632,-0.0185788,5.26091,1.15711,5.19886,-4.16491,28.0875,-22.5571,-1.20517,30.1073,1.53863,29.8141,-27.8282,11.2059,-13.6765,-0.209951,0.0318176,0.00564363,-0.0348299,-1.72509,-0.00263862,0.139918,0.057829,0.254319,-0.121491,0.463774,-0.489935,1.33617,-1.30911,-0.0220592,0,0,0,0,0,0,0,28.9647,-22.8664,28.2083,5.85297,8.71643,-6.2696,0.0303194,
0.0480072,0.00594279,-0.0187794,-1.73855,0.0554584,0.0720794,0.0568219,0.28781,0.00946881,0.28501,-0.246546,1.05163,-1.27352,-0.0198939,2.48071,1.12403,2.44403,-2.63675,21.5684,-17.0013,-0.821989,28.0821,1.42117,27.8069,-26.9292,11.1157,-13.4442,-0.249797,0.0430293,0.00383141,-0.0154232,-1.7406,0.0330217,0.0925521,0.0574732,0.229382,-0.0429379,0.434383,-0.481658,1.00683,-1.44959,-0.00040413,-3.11718,9.81913,-3.67384,1.0346,-41.1682,-17.5598,2.70689,4.74842,-30.9041,4.58711,20.6985,0.434567,-1.42921,0.104477,
0.0525775,0.0048577,-0.00595521,-1.75028,0.0681509,0.0453356,0.0566794,0.286351,0.0144061,0.28354,-0.253165,1.06637,-1.30157,-0.0205734,-0.911467,3.08579,-0.91834,-4.137,9.21595,-17.5301,-0.424661,28.0821,1.42117,27.8069,-26.9292,11.1157,-13.4442,-0.249797,0.0430293,0.00383141,-0.0154232,-1.7406,0.0330217,0.0925521,0.0574732,0.229382,-0.0429379,0.434383,-0.481658,1.00683,-1.44959,-0.00040413,0,0,0,0,0,0,0,4.74842,-30.9041,4.58711,20.6985,0.434567,-1.42921,0.104477,
0.0547423,0.00510485,-0.00381255,-1.75248,0.0771818,0.0345193,0.0565102,0.283202,0.0177037,0.280399,-0.25746,1.07887,-1.31166,-0.0206893,-1.96829,2.061,-1.96355,-2.6846,7.811,-6.30947,-0.0724391,26.6519,1.51869,26.389,-26.254,11.1157,-13.4442,-0.252636,0.0430293,0.00383141,-0.0154232,-1.7406,0.0330217,0.0925521,0.0574732,0.229382,-0.0429379,0.434383,-0.481658,1.00683,-1.44959,-0.00040413,0,0,0,0,0,0,0,4.74842,-30.9041,4.58711,20.6985,0.434567,-1.42921,0.104477,
0.0568355,0.0053238,-0.00174097,-1.75465,0.0862072,0.0243696,0.0563583,0.278892,0.0196368,0.276108,-0.260394,1.08873,-1.30307,-0.0203488,-2.69372,1.2082,-2.68135,-1.83351,6.16358,5.36926,0.212805,25.5557,1.46479,25.3007,-25.6805,11.1157,-13.4442,-0.240859,0.0430293,0.00383141,-0.0154232,-1.7406,0.0330217,0.0925521,0.0574732,0.229382,-0.0429379,0.434383,-0.481658,1.00683,-1.44959,-0.00040413,0,0,0,0,0,0,0,4.74842,-30.9041,4.58711,20.6985,0.434567,-1.42921,0.104477,
0.0588634,0.00551663,0.00026576,-1.75682,0.095206,0.0150656,0.0562244,0.273812,0.0205302,0.271055,-0.262478,1.09596,-1.27506,-0.0196256,-3.17532,0.558375,-3.1584,-1.3023,4.51482,17.5084,0.451995,24.813,1.24804,24.5622,-24.7171,11.0963,-12.3163,-0.227099,0.0529043,0.00341943,0.00298535,-1.75561,0.0730577,0.0437711,0.0574985,0.32578,0.0827418,0.575437,-0.392601,0.935642,-1.37835,-0.00153419,12.0498,15.71,17.6318,11.1322,-8.89844,8.90475,-0.141258,-1.41278,-41.0841,-1.9113,34.6515,1.90673,1.51513,0.0101778,
0.0660537,0.00606073,0.0160191,-1.76772,0.119228,-0.00294525,0.0567431,0.274845,0.0252479,0.272048,-0.267469,1.1119,-1.20043,-0.018429,0.645766,2.94857,0.620498,-3.1195,9.9659,46.6449,0.747864,24.0022,1.10078,23.7569,-24.2347,11.0963,-11.5772,-0.206257,0.0529043,0.00341943,0.00298535,-1.75561,0.0730577,0.0437711,0.0574985,0.32578,0.0827418,0.575437,-0.392601,0.935642,-1.37835,-0.00153419,0,0,0,0,0,0,0,-1.41278,-41.0841,-1.9113,34.6515,1.90673,1.51513,0.0101778,
0.0681614,0.00635041,0.0181041,-1.76997,0.128529,-0.00892135,0.0566479,0.272569,0.0274402,0.269765,-0.270235,1.12205,-1.10974,-0.0171218,-1.42243,1.3702,-1.42701,-1.72908,6.34123,56.6769,0.817025,23.2507,0.963736,23.0103,-23.7611,11.0963,-10.3653,-0.185281,0.0529043,0.00341943,0.00298535,-1.75561,0.0730577,0.0437711,0.0574985,0.32578,0.0827418,0.575437,-0.392601,0.935642,-1.37835,-0.00153419,0,0,0,0,0,0,0,-1.41278,-41.0841,-1.9113,34.6515,1.90673,1.51513,0.0101778,
0.0701638,0.00658633,0.0200846,-1.77216,0.13771,-0.0137111,0.0565669,0.268114,0.0278503,0.265323,-0.271046,1.12716,-1.00754,-0.0157226,-2.78431,0.256314,-2.77576,-0.506896,3.19786,63.8784,0.874497,22.5421,0.827375,22.306,-23.3035,11.0963,-8.87709,-0.163204,0.0529043,0.00341943,0.00298535,-1.75561,0.0730577,0.0437711,0.0574985,0.32578,0.0827418,0.575437,-0.392601,0.935642,-1.37835,-0.00153419,0,0,0,0,0,0,0,-1.41278,-41.0841,-1.9113,34.6515,1.90673,1.51513,0.0101778,
0.0720744,0.00677601,0.021974,-1.7743,0.14677,-0.0173983,0.056497,0.262257,0.0270223,0.259493,-0.270167,1.12824,-0.898211,-0.0143261,-3.66086,-0.517545,-3.64389,0.549849,0.671727,68.33,0.872805,21.7119,-0.0670287,21.4761,-22.614,10.8583,-6.72845,-0.144591,0.0596281,0.00420562,0.0174194,-1.76737,0.095309,-0.00224434,0.0574959,0.200182,0.125388,0.477778,-0.342265,0.792632,-1.23304,-0.00215695,-15.6998,5.33073,-12.2074,6.29191,-17.8762,18.1645,-0.077845,-10.7478,-39.0648,-11.8375,34.5761,-1.18958,5.36675,0.158493,
0.066379,0.00625671,0.0241194,-1.77481,0.119314,-0.0268829,0.0571084,0.262124,0.0351479,0.259325,-0.276207,1.11319,-0.895954,-0.0141984,-0.0832011,5.07855,-0.105013,-3.77497,-9.40551,1.41034,0.0798507,22.3896,0.0766807,22.1499,-23.0559,10.8583,-8.76717,-0.164887,0.0596281,0.00420562,0.0174194,-1.76737,0.095309,-0.00224434,0.0574959,0.200182,0.125388,0.477778,-0.342265,0.792632,-1.23304,-0.00215695,0,0,0,0,0,0,0,-10.7478,-39.0648,-11.8375,34.5761,-1.18958,5.36675,0.158493,
0.0683615,0.00668955,0.0260795,-1.77714,0.127893,-0.0327714,0.0570136,0.259261,0.0389393,0.256463,-0.279217,1.10503,-0.863978,-0.0137288,-1.78933,2.36958,-1.78883,-1.88148,-5.09819,19.9854,0.293495,21.7119,-0.0670287,21.4761,-22.614,10.8583,-6.72845,-0.144591,0.0596281,0.00420562,0.0174194,-1.76737,0.095309,-0.00224434,0.0574959,0.200182,0.125388,0.477778,-0.342265,0.792632,-1.23304,-0.00215695,0,0,0,0,0,0,0,-10.7478,-39.0648,-11.8375,34.5761,-1.18958,5.36675,0.158493,
0.0702547,0.00703335,0.0279511,-1.77939,0.136533,-0.0374867,0.0569332,0.254738,0.0397463,0.251961,-0.279747,1.10001,-0.809065,-0.0129933,-2.82646,0.504432,-2.81341,-0.330957,-3.13566,34.3208,0.459689,21.0516,-0.266433,20.8199,-22.2439,10.8583,-4.95883,-0.124511,0.0596281,0.00420562,0.0174194,-1.76737,0.095309,-0.00224434,0.0574959,0.200182,0.125388,0.477778,-0.342265,0.792632,-1.23304,-0.00215695,0,0,0,0,0,0,0,-10.7478,-39.0648,-11.8375,34.5761,-1.18958,5.36675,0.158493,
0.0746609,0.00856373,0.0407041,-1.78667,0.168531,-0.0321969,0.0571859,0.244187,0.0349414,0.241463,-0.270861,1.09203,-0.653242,-0.0113399,-6.59429,-3.00311,-6.56127,5.55379,-4.98782,97.389,1.03337,19.5909,-1.57371,19.3581,-21.09,10.5136,-2.03339,-0.0964504,0.0658607,0.0069348,0.0319923,-1.77695,0.126666,-0.0263709,0.0575037,0.158889,0.135571,0.366584,-0.187958,0.950408,-0.299267,-0.00662434,-5.1616,1.27298,-13.8994,19.2885,19.7219,116.721,-0.558423,-14.5524,-43.7541,-14.6106,48.2751,-0.859989,10.9963,0.0980684,
0.0762241,0.00864245,0.0422477,-1.7885,0.176995,-0.0319498,0.0571587,0.234432,0.0299212,0.231762,-0.262471,1.08524,-0.516419,-0.00975249,-6.09715,-3.13761,-6.06354,5.24344,-4.24783,85.5147,0.992116,19.0154,-1.6949,18.7868,-20.789,10.5136,-0.920236,-0.0831275,0.0658607,0.0069348,0.0319923,-1.77695,0.126666,-0.0263709,0.0575037,0.158889,0.135571,0.366584,-0.187958,0.950408,-0.299267,-0.00662434,0,0,0,0,0,0,0,-14.5524,-43.7541,-14.6106,48.2751,-0.859989,10.9963,0.0980684,
0.0777389,0.00868582,0.0437433,-1.79028,0.185434,-0.0312507,0.0571424,0.225415,0.0250211,0.222798,-0.254488,1.07917,-0.395655,-0.00820857,-5.63569,-3.06254,-5.60239,4.98966,-3.79363,75.4769,0.964948,18.4729,-1.76507,18.2484,-20.4891,10.5136,0.0191545,-0.0681005,0.0658607,0.0069348,0.0319923,-1.77695,0.126666,-0.0263709,0.0575037,0.158889,0.135571,0.366584,-0.187958,0.950408,-0.299267,-0.00662434,0,0,0,0,0,0,0,-14.5524,-43.7541,-14.6106,48.2751,-0.859989,10.9963,0.0980684,
0.0792076,0.00870295,0.045193,-1.79201,0.193844,-0.0301485,0.0571343,0.217049,0.0204453,0.214481,-0.246828,1.07359,-0.28897,-0.00677033,-5.22874,-2.85989,-5.19787,4.78701,-3.48803,66.6786,0.898899,17.9544,-1.79302,17.7341,-20.1874,10.5136,0.809158,-0.0556838,0.0658607,0.0069348,0.0319923,-1.77695,0.126666,-0.0263709,0.0575037,0.158889,0.135571,0.366584,-0.187958,0.950408,-0.299267,-0.00662434,0,0,0,0,0,0,0,-14.5524,-43.7541,-14.6106,48.2751,-0.859989,10.9963,0.0980684,
0.0677953,0.00756,0.0339225,-1.77889,0.134784,-0.0283491,0.0574117,0.222004,0.0319862,0.219842,-0.245774,1.06181,-0.280631,-0.00771606,3.09683,7.21308,3.35065,0.659125,-7.36282,5.2119,-0.591077,19.5586,-1.73921,19.3107,-21.1045,10.319,-2.06153,-0.0961385,0.0701973,0.0109107,0.0419234,-1.77943,0.159422,-0.0368843,0.0574997,0.113222,0.132979,0.201207,-0.0566534,0.93523,-0.281413,0.000138798,-5.70845,-0.324112,-20.672,16.413,-1.89718,2.23168,0.845392,-19.1902,-32.9988,-19.0579,30.589,-3.19275,6.88561,0.0779268,
0.0696255,0.00796941,0.0357308,-1.78088,0.143127,-0.0299935,0.0573351,0.22336,0.0358243,0.221081,-0.2465,1.05803,-0.265614,-0.00808769,0.847538,2.39882,0.77393,-0.454134,-2.36158,9.38531,-0.23227,18.9831,-1.8604,18.7394,-20.8035,10.319,-0.94838,-0.0828156,0.0701973,0.0109107,0.0419234,-1.77943,0.159422,-0.0368843,0.0574997,0.113222,0.132979,0.201207,-0.0566534,0.93523,-0.281413,0.000138798,0,0,0,0,0,0,0,-19.1902,-32.9988,-19.0579,30.589,-3.19275,6.88561,0.0779268,
0.07137,0.00824826,0.0374539,-1.78286,0.15157,-0.0312169,0.0572736,0.222299,0.0356307,0.219943,-0.24656,1.05751,-0.243077,-0.00800788,-0.662744,-0.121028,-0.711115,-0.0374436,-0.325229,14.0859,0.0498794,18.4406,-1.93057,18.201,-20.5036,10.319,-0.00898899,-0.0677886,0.0701973,0.0109107,0.0419234,-1.77943,0.159422,-0.0368843,0.0574997,0.113222,0.132979,0.201207,-0.0566534,0.93523,-0.281413,0.000138798,0,0,0,0,0,0,0,-19.1902,-32.9988,-19.0579,30.589,-3.19275,6.88561,0.0779268,
0.07666,0.0116993,0.0483077,-1.78804,0.199168,-0.0336527,0.0574266,0.210145,0.0294905,0.207803,-0.239582,1.04715,-0.156978,-0.00634409,-7.59684,-3.83761,-7.58767,4.36125,-6.47214,53.8118,1.03987,17.4288,-1.95102,17.1976,-19.9002,10.319,1.43739,-0.0413434,0.0701973,0.0109107,0.0419234,-1.77943,0.159422,-0.0368843,0.0574997,0.113222,0.132979,0.201207,-0.0566534,0.93523,-0.281413,0.000138798,0,0,0,0,0,0,0,-19.1902,-32.9988,-19.0579,30.589,-3.19275,6.88561,0.0779268,
0.0779364,0.0117165,0.0495659,-1.78968,0.207242,-0.0318681,0.0574352,0.200026,0.0240222,0.197695,-0.232753,1.03957,-0.0809677,-0.00486213,-6.32378,-3.41772,-6.31711,4.26816,-4.73755,47.5064,0.926224,16.9589,-1.92855,16.7217,-19.5771,10.1439,1.97488,-0.029556,0.073134,0.0126385,0.0491728,-1.77954,0.192929,-0.0301126,0.0574746,0.104101,0.050742,0.231593,0.0434818,0.843262,0.318817,-0.00235266,-1.14003,-10.2796,3.79817,12.5169,-11.4961,75.0288,-0.311433,-6.48694,-35.1451,-6.33483,29.3671,0.288082,3.94127,0.158493,
0.0791928,0.011716,0.0508039,-1.79128,0.215335,-0.0298482,0.05745,0.191429,0.0192069,0.189108,-0.226111,1.034,-0.0142748,-0.00351952,-5.37324,-3.00956,-5.3669,4.15158,-3.48148,41.6831,0.83913,16.4825,-1.88335,16.2498,-19.2832,10.1439,2.42011,-0.0160296,0.073134,0.0126385,0.0491728,-1.77954,0.192929,-0.0301126,0.0574746,0.104101,0.050742,0.231593,0.0434818,0.843262,0.318817,-0.00235266,0,0,0,0,0,0,0,-6.48694,-35.1451,-6.33483,29.3671,0.288082,3.94127,0.158493,
0.0804259,0.0117011,0.0520189,-1.79283,0.223441,-0.0276392,0.0574704,0.183971,0.0149936,0.181661,-0.219694,1.02984,0.0438046,-0.00230457,-4.66167,-2.63328,-4.65454,4.01028,-2.59989,36.2996,0.759345,15.9994,-1.81287,15.7701,-18.9786,10.1439,2.76939,-0.00601386,0.073134,0.0126385,0.0491728,-1.77954,0.192929,-0.0301126,0.0574746,0.104101,0.050742,0.231593,0.0434818,0.843262,0.318817,-0.00235266,0,0,0,0,0,0,0,-6.48694,-35.1451,-6.33483,29.3671,0.288082,3.94127,0.158493,
0.0791889,0.0115211,0.0551468,-1.78573,0.232292,-0.0140722,0.0575245,0.176324,0.00689732,0.174032,-0.209437,1.02584,0.109968,-0.00119313,-4.77945,-5.06018,-4.76796,6.41088,-2.49992,41.3521,0.694651,15.5317,-1.734,15.3061,-18.6701,10.1439,3.03616,0.00387552,0.073134,0.0126385,0.0491728,-1.77954,0.192929,-0.0301126,0.0574746,0.104101,0.050742,0.231593,0.0434818,0.843262,0.318817,-0.00235266,0,0,0,0,0,0,0,-6.48694,-35.1451,-6.33483,29.3671,0.288082,3.94127,0.158493,
0.0803335,0.0113393,0.056274,-1.78708,0.240391,-0.0111375,0.0575564,0.169673,0.000973086,0.167405,-0.20118,1.02317,0.161343,-0.0001573,-4.15649,-3.70265,-4.14215,5.16064,-1.6723,32.1097,0.647391,15.0817,-1.66212,14.8599,-18.3638,10.1439,3.23454,0.0121829,0.073134,0.0126385,0.0491728,-1.77954,0.192929,-0.0301126,0.0574746,0.104101,0.050742,0.231593,0.0434818,0.843262,0.318817,-0.00235266,0,0,0,0,0,0,0,-6.48694,-35.1451,-6.33483,29.3671,0.288082,3.94127,0.158493,
0.0814554,0.0111761,0.0573788,-1.78842,0.248498,-0.00824829,0.0575947,0.163787,-0.00330186,0.161545,-0.19441,1.02119,0.201305,0.000831437,-3.67913,-2.67184,-3.66234,4.2313,-1.23571,24.9758,0.61796,14.6925,-1.60738,14.4576,-18.11,10.0669,3.30315,0.0212446,0.0754219,0.0165134,0.0545144,-1.77881,0.217617,-0.0274794,0.0574929,0.0356656,-0.0390605,0.0786069,-0.0928782,0.724734,0.236497,0.00300886,-8.55448,-11.2253,-19.1232,-17.045,-14.816,-10.2901,0.670191,-9.45446,-38.7157,-9.11193,38.3847,0.489498,6.4013,0.0239107,
0.0825527,0.0110285,0.0584594,-1.78974,0.256602,-0.00539635,0.0576391,0.15846,-0.00633214,0.15625,-0.188745,1.01956,0.232342,0.00177484,-3.32906,-1.89393,-3.30952,3.54075,-1.01954,19.3984,0.589629,14.2763,-1.55638,14.0456,-17.8157,10.0669,3.39936,0.0287521,0.0754219,0.0165134,0.0545144,-1.77881,0.217617,-0.0274794,0.0574929,0.0356656,-0.0390605,0.0786069,-0.0928782,0.724734,0.236497,0.00300886,0,0,0,0,0,0,0,-9.45446,-38.7157,-9.11193,38.3847,0.489498,6.4013,0.0239107,
0.0782906,0.0153045,0.0573344,-1.78391,0.245175,-0.0164573,0.0576455,0.147331,-0.0105628,0.145195,-0.183918,0.997913,0.257833,0.00254204,-6.95539,-2.64415,-6.90919,3.01636,-13.5279,15.9317,0.479499,14.2763,-1.55638,14.0456,-17.8157,10.0669,3.39936,0.0287521,0.0754219,0.0165134,0.0545144,-1.77881,0.217617,-0.0274794,0.0574929,0.0356656,-0.0390605,0.0786069,-0.0928782,0.724734,0.236497,0.00300886,0,0,0,0,0,0,0,-9.45446,-38.7157,-9.11193,38.3847,0.489498,6.4013,0.0239107,
0.0791493,0.0151227,0.058178,-1.78523,0.252631,-0.0135702,0.057695,0.139334,-0.0129952,0.137246,-0.179945,0.984733,0.278442,0.00327059,-4.9983,-1.52026,-4.96828,2.48312,-8.23787,12.8806,0.455346,13.8723,-1.51295,13.6458,-17.5284,10.0669,3.46293,0.0364091,0.0754219,0.0165134,0.0545144,-1.77881,0.217617,-0.0274794,0.0574929,0.0356656,-0.0390605,0.0786069,-0.0928782,0.724734,0.236497,0.00300886,0,0,0,0,0,0,0,-9.45446,-38.7157,-9.11193,38.3847,0.489498,6.4013,0.0239107,
0.0800289,0.0149697,0.0590423,-1.78653,0.260214,-0.0106929,0.0577481,0.133456,-0.0142214,0.131404,-0.176547,0.977376,0.294686,0.00394381,-3.67408,-0.766353,-3.65131,2.12406,-4.59818,10.1528,0.42076,13.4529,-1.33936,13.2275,-17.3543,9.97513,3.45666,0.0441327,0.0777209,0.0164553,0.0586823,-1.78106,0.236475,-0.0108049,0.0574957,0.067197,0.0080054,0.111511,0.00473081,0.488987,0.724428,0.000961533,3.94143,5.88324,4.113,12.2011,-29.4684,60.9915,-0.255916,0.741459,-46.075,0.814222,40.0787,2.31598,3.02666,0.0376436,
0.0805657,0.0154309,0.0614656,-1.78511,0.261988,0.00770515,0.0576756,0.125277,-0.0170864,0.123266,-0.169662,0.96006,0.332759,0.0045264,-5.11168,-1.79062,-5.08598,4.30315,-10.8226,23.7956,0.364121,13.0511,-1.30336,12.8307,-17.0817,9.97513,3.48032,0.0521473,0.0777209,0.0164553,0.0586823,-1.78106,0.236475,-0.0108049,0.0574957,0.067197,0.0080054,0.111511,0.00473081,0.488987,0.724428,0.000961533,0,0,0,0,0,0,0,0.741459,-46.075,0.814222,40.0787,2.31598,3.02666,0.0376436,
0.081322,0.0152331,0.0622063,-1.78627,0.269359,0.0112674,0.0577302,0.119128,-0.018614,0.117132,-0.164704,0.952327,0.355263,0.00498633,-3.8428,-0.954788,-3.83388,3.09856,-4.83283,14.0646,0.287454,12.6228,-1.26233,12.4083,-16.8155,9.97513,3.48687,0.0598221,0.0777209,0.0164553,0.0586823,-1.78106,0.236475,-0.0108049,0.0574957,0.067197,0.0080054,0.111511,0.00473081,0.488987,0.724428,0.000961533,0,0,0,0,0,0,0,0.741459,-46.075,0.814222,40.0787,2.31598,3.02666,0.0376436,
0.0820926,0.0150645,0.0629602,-1.78743,0.276809,0.0145798,0.0577841,0.114568,-0.0191058,0.112553,-0.160846,0.948119,0.36702,0.00533643,-2.85027,-0.307362,-2.86207,2.4111,-2.62986,7.3486,0.218814,12.1505,-1.20791,11.9447,-16.5554,9.97513,3.47922,0.0658762,0.0777209,0.0164553,0.0586823,-1.78106,0.236475,-0.0108049,0.0574957,0.067197,0.0080054,0.111511,0.00473081,0.488987,0.724428,0.000961533,0,0,0,0,0,0,0,0.741459,-46.075,0.814222,40.0787,2.31598,3.02666,0.0376436,
0.0828902,0.0149194,0.0637421,-1.78858,0.283914,0.017691,0.0578379,0.111596,-0.0189127,0.109589,-0.15725,0.936122,0.371397,0.00561359,-1.85745,0.120687,-1.85199,2.24744,-7.49815,2.73528,0.173225,11.6447,-0.966008,11.4466,-16.5244,9.9626,3.30191,0.0717111,0.0796988,0.0163944,0.0616767,-1.78137,0.246958,0.019107,0.0574938,-0.00179254,-0.045704,0.0152605,0.0128604,0.118322,0.878815,0.000447491,-8.62369,-6.71368,-12.0313,1.0162,-46.3331,19.2984,-0.0642553,-5.47131,-32.9472,-5.13671,22.7695,1.48559,1.20293,0.0577852,
0.0802888,0.0150409,0.0622302,-1.78382,0.260504,0.0356437,0.0576551,0.096431,-0.0247005,0.0945257,-0.149762,0.88944,0.415974,0.00596008,-9.47814,-3.61738,-9.41484,4.68037,-29.1763,27.8606,0.216553,12.1538,-1.02674,11.9464,-16.768,9.9626,3.31738,0.0679689,0.0796988,0.0163944,0.0616767,-1.78137,0.246958,0.019107,0.0574938,-0.00179254,-0.045704,0.0152605,0.0128604,0.118322,0.878815,0.000447491,0,0,0,0,0,0,0,-5.47131,-32.9472,-5.13671,22.7695,1.48559,1.20293,0.0577852,
0.0806627,0.0147282,0.0625909,-1.78483,0.266681,0.0398465,0.0577136,0.0864924,-0.0275779,0.0846395,-0.145076,0.865957,0.43785,0.00623166,-6.21164,-1.79835,-6.1789,2.92845,-14.677,13.6725,0.169741,11.6447,-0.966008,11.4466,-16.5244,9.9626,3.30191,0.0717111,0.0796988,0.0163944,0.0616767,-1.78137,0.246958,0.019107,0.0574938,-0.00179254,-0.045704,0.0152605,0.0128604,0.118322,0.878815,0.000447491,0,0,0,0,0,0,0,-5.47131,-32.9472,-5.13671,22.7695,1.48559,1.20293,0.0577852,
0.0811306,0.0144718,0.0630464,-1.78586,0.27284,0.0436194,0.0577723,0.0808913,-0.0284727,0.0790984,-0.141698,0.846754,0.444601,0.00645162,-3.50066,-0.559299,-3.46315,2.11123,-12.002,4.21978,0.137475,11.1217,-0.871744,10.9172,-16.2796,9.9626,3.28168,0.0712912,0.0796988,0.0163944,0.0616767,-1.78137,0.246958,0.019107,0.0574938,-0.00179254,-0.045704,0.0152605,0.0128604,0.118322,0.878815,0.000447491,0,0,0,0,0,0,0,-5.47131,-32.9472,-5.13671,22.7695,1.48559,1.20293,0.0577852,
0.0825927,0.0150992,0.0655432,-1.78517,0.263317,0.0644358,0.0576211,0.0769484,-0.0295195,0.0751143,-0.13824,0.808908,0.460173,0.00648357,-2.46431,-0.654213,-2.49008,2.16131,-23.6537,9.73259,0.0199668,11.0567,-0.790606,10.8522,-16.3806,9.93565,3.14887,0.0720253,0.0811763,0.0160755,0.0641814,-1.78241,0.250174,0.0497704,0.0574867,0.0479137,-0.0369149,0.0964768,-0.0373136,0.0643475,0.81244,-0.0019463,6.21328,1.09865,10.152,-6.27176,-6.74678,-8.29688,-0.299224,4.16523,-27.8334,4.01185,13.7003,2.23632,-0.607065,0.0907442,
0.0831376,0.0148763,0.0660738,-1.78618,0.268592,0.0681242,0.0576747,0.0751809,-0.0291897,0.0733564,-0.135805,0.779017,0.46035,0.00652711,-1.10474,0.206105,-1.09867,1.52185,-18.6816,0.110267,0.0272098,10.5626,-0.637246,10.3425,-16.0945,9.61261,3.10917,0.0707854,0.0811763,0.0160755,0.0641814,-1.78241,0.250174,0.0497704,0.0574867,0.0479137,-0.0369149,0.0964768,-0.0373136,0.0643475,0.81244,-0.0019463,0,0,0,0,0,0,0,4.16523,-27.8334,4.01185,13.7003,2.23632,-0.607065,0.0907442,
0.0837387,0.0146884,0.0666614,-1.78719,0.273585,0.071438,0.0577268,0.0751723,-0.0280481,0.0733738,-0.13396,0.748036,0.451123,0.00652489,-0.0053531,0.713546,0.0108507,1.15319,-19.3635,-5.76668,-0.00138235,10.1035,-0.466528,9.88189,-15.7824,8.15497,3.06008,0.0686025,0.0811763,0.0160755,0.0641814,-1.78241,0.250174,0.0497704,0.0574867,0.0479137,-0.0369149,0.0964768,-0.0373136,0.0643475,0.81244,-0.0019463,0,0,0,0,0,0,0,4.16523,-27.8334,4.01185,13.7003,2.23632,-0.607065,0.0907442,
0.0843892,0.0145274,0.0672986,-1.7882,0.278132,0.0744583,0.0577777,0.0763995,-0.0264634,0.0746288,-0.132458,0.712087,0.436406,0.00649092,0.766988,0.99039,0.784355,0.938801,-22.4679,-9.19853,-0.0212325,9.69471,-0.317846,9.47577,-15.4701,6.89416,2.9824,0.0652176,0.0811763,0.0160755,0.0641814,-1.78241,0.250174,0.0497704,0.0574867,0.0479137,-0.0369149,0.0964768,-0.0373136,0.0643475,0.81244,-0.0019463,0,0,0,0,0,0,0,4.16523,-27.8334,4.01185,13.7003,2.23632,-0.607065,0.0907442,
0.0817153,0.0133258,0.0651434,-1.78763,0.257185,0.0933598,0.0576565,0.0675209,-0.0311201,0.0658204,-0.128185,0.657849,0.44461,0.00655273,-5.54912,-2.91042,-5.50523,2.67063,-33.8988,5.12776,0.0386298,10.138,-0.400866,9.92122,-15.9058,8.21275,2.91728,0.0694317,0.081254,0.0149326,0.0647197,-1.78504,0.248314,0.0801599,0.0574968,-0.0201912,-0.125452,0.0208521,-0.115983,0.0155383,0.765645,0.00686635,-8.51311,-11.0671,-9.45309,-9.83369,-6.10114,-5.84937,1.10158,4.79999,-30.551,4.88862,16.9891,1.35742,0.341421,-0.0163725,
0.0820723,0.0130115,0.0654897,-1.78854,0.260692,0.0967755,0.0577104,0.0629426,-0.0327547,0.0613133,-0.125384,0.613967,0.441081,0.00659071,-2.86142,-1.02162,-2.81693,1.75088,-27.4261,-2.20535,0.023736,9.72913,-0.252185,9.5151,-15.5935,6.95194,2.8396,0.0660468,0.081254,0.0149326,0.0647197,-1.78504,0.248314,0.0801599,0.0574968,-0.0201912,-0.125452,0.0208521,-0.115983,0.0155383,0.765645,0.00686635,0,0,0,0,0,0,0,4.79999,-30.551,4.88862,16.9891,1.35742,0.341421,-0.0163725,
0.0825173,0.0127586,0.065924,-1.78947,0.263967,0.0998689,0.0577632,0.061478,-0.0325242,0.0599085,-0.123591,0.573032,0.430199,0.0065918,-0.915397,0.144086,-0.877987,1.12064,-25.5848,-6.80157,0.000682291,9.39275,-0.127957,9.18386,-15.2828,5.84133,2.7611,0.0624908,0.081254,0.0149326,0.0647197,-1.78504,0.248314,0.0801599,0.0574968,-0.0201912,-0.125452,0.0208521,-0.115983,0.0155383,0.765645,0.00686635,0,0,0,0,0,0,0,4.79999,-30.551,4.88862,16.9891,1.35742,0.341421,-0.0163725,
0.0830349,0.0125523,0.0664309,-1.79042,0.266891,0.102699,0.0578153,0.0621219,-0.0311789,0.0605987,-0.122445,0.531527,0.4149,0.00657629,0.402445,0.840799,0.431348,0.715937,-25.9403,-9.5617,-0.00969477,9.12651,-0.0307111,8.92362,-14.9734,4.8358,2.67921,0.0604111,0.081254,0.0149326,0.0647197,-1.78504,0.248314,0.0801599,0.0574968,-0.0201912,-0.125452,0.0208521,-0.115983,0.0155383,0.765645,0.00686635,0,0,0,0,0,0,0,4.79999,-30.551,4.88862,16.9891,1.35742,0.341421,-0.0163725,
0.0814846,0.0137328,0.0649258,-1.78666,0.25278,0.0894489,0.0575996,0.0537792,-0.0377647,0.0522506,-0.118444,0.491282,0.43911,0.00656291,-5.2142,-4.11612,-5.21759,2.50092,-25.1535,15.1314,-0.00836169,9.67865,-0.266521,9.4648,-15.6257,6.94871,2.75439,0.0664497,0.0826812,0.0146445,0.0676888,-1.7881,0.248171,0.100874,0.0574904,0.0173649,-6.25665e-05,0.071238,-0.0834765,-0.126968,0.509949,-0.00539601,4.69452,15.6736,6.29824,4.06333,-17.8133,-31.9621,-1.53279,3.05042,-35.7442,2.86134,24.9832,0.9967,1.65429,0.00376909,
0.0817505,0.013335,0.0651808,-1.78752,0.255698,0.0932141,0.0576525,0.0496717,-0.0401586,0.0481754,-0.116077,0.465963,0.445417,0.00657138,-2.56715,-1.49623,-2.54696,1.47927,-15.8238,3.94172,0.00529494,9.34227,-0.142293,9.13356,-15.315,5.83811,2.6759,0.0628937,0.0826812,0.0146445,0.0676888,-1.7881,0.248171,0.100874,0.0574904,0.0173649,-6.25665e-05,0.071238,-0.0834765,-0.126968,0.509949,-0.00539601,0,0,0,0,0,0,0,3.05042,-35.7442,2.86134,24.9832,0.9967,1.65429,0.00376909,
0.0821125,0.0130194,0.0655324,-1.7884,0.258572,0.096575,0.0577049,0.0487877,-0.0400162,0.0473306,-0.11491,0.444616,0.440356,0.00656827,-0.552501,0.089009,-0.528001,0.729399,-13.3424,-3.16308,-0.00194341,9.07603,-0.0450472,8.87332,-15.0055,4.83257,2.594,0.060814,0.0826812,0.0146445,0.0676888,-1.7881,0.248171,0.100874,0.0574904,0.0173649,-6.25665e-05,0.071238,-0.0834765,-0.126968,0.509949,-0.00539601,0,0,0,0,0,0,0,3.05042,-35.7442,2.86134,24.9832,0.9967,1.65429,0.00376909,
0.0825578,0.0127651,0.0659674,-1.7893,0.261219,0.0996125,0.0577571,0.0501611,-0.0383702,0.0487379,-0.114509,0.421872,0.428223,0.00655974,0.858362,1.02875,0.879579,0.250542,-14.2147,-7.583,-0.00533164,8.86728,0.0262727,8.67138,-14.7002,3.94056,2.52052,0.059161,0.0826812,0.0146445,0.0676888,-1.7881,0.248171,0.100874,0.0574904,0.0173649,-6.25665e-05,0.071238,-0.0834765,-0.126968,0.509949,-0.00539601,0,0,0,0,0,0,0,3.05042,-35.7442,2.86134,24.9832,0.9967,1.65429,0.00376909,
0.0854544,0.0143117,0.0703986,-1.79372,0.250311,0.117277,0.0577761,0.0541298,-0.0316631,0.052745,-0.115167,0.34387,0.395222,0.00654631,2.48044,4.19193,2.50444,-0.411322,-48.7516,-20.6258,-0.00839348,8.57528,0.118606,8.39516,-14.1325,2.47075,2.33279,0.0587915,0.0827591,0.0142189,0.0689054,-1.79121,0.243733,0.115105,0.0574857,0.00949765,0.0617316,0.0460038,-0.108412,-0.130517,0.47605,4.36654e-05,-0.983411,7.72427,-3.15427,-3.11692,-0.443574,-4.23732,0.679959,1.17389,-35.4704,0.838026,30.2161,0.727535,3.08617,0.017502,
0.0860391,0.0142775,0.0709736,-1.79466,0.250409,0.119242,0.0578279,0.0579206,-0.0261835,0.0565706,-0.115494,0.27754,0.365292,0.00653225,2.36925,3.42479,2.39095,-0.204173,-41.4557,-18.7066,-0.00878649,8.46684,0.125359,8.29381,-13.8392,1.84938,2.26888,0.0593942,0.0827591,0.0142189,0.0689054,-1.79121,0.243733,0.115105,0.0574857,0.00949765,0.0617316,0.0460038,-0.108412,-0.130517,0.47605,4.36654e-05,0,0,0,0,0,0,0,1.17389,-35.4704,0.838026,30.2161,0.727535,3.08617,0.017502,
0.0866413,0.0142473,0.0715663,-1.79558,0.250356,0.121088,0.0578796,0.0613922,-0.021703,0.0600739,-0.115512,0.220711,0.338394,0.00651833,2.16975,2.80028,2.18958,-0.0113421,-35.5186,-16.8107,-0.00870408,8.37203,0.117452,8.20631,-13.5507,1.31877,2.21129,0.0597891,0.0827591,0.0142189,0.0689054,-1.79121,0.243733,0.115105,0.0574857,0.00949765,0.0617316,0.0460038,-0.108412,-0.130517,0.47605,4.36654e-05,0,0,0,0,0,0,0,1.17389,-35.4704,0.838026,30.2161,0.727535,3.08617,0.017502,
0.0872548,0.0142204,0.0721704,-1.7965,0.25017,0.122834,0.0579308,0.0644506,-0.0180357,0.0631625,-0.115252,0.1719,0.31437,0.00649503,1.9115,2.29207,1.93036,0.162228,-30.5067,-15.0153,-0.0145598,8.28534,0.0977595,8.12669,-13.2656,0.857678,2.15358,0.0606856,0.0827591,0.0142189,0.0689054,-1.79121,0.243733,0.115105,0.0574857,0.00949765,0.0617316,0.0460038,-0.108412,-0.130517,0.47605,4.36654e-05,0,0,0,0,0,0,0,1.17389,-35.4704,0.838026,30.2161,0.727535,3.08617,0.017502,
0.0847209,0.0151179,0.0708281,-1.7961,0.240865,0.127593,0.0577434,0.0636685,-0.0122609,0.0624308,-0.115996,0.123605,0.299913,0.00651183,-0.488769,3.60925,-0.457311,-0.4651,-30.1846,-9.0357,0.0105031,8.20539,0.0994061,8.05513,-13.0148,0.501,2.05587,0.0612508,0.0836851,0.0138157,0.0707856,-1.79439,0.241065,0.127657,0.057479,0.0688783,0.0618614,0.0918371,-0.140963,-0.161021,0.148002,-5.97949e-05,7.42258,0.0162226,5.72916,-4.06894,-3.81301,-41.006,-0.0129325,-1.18664,-24.8619,-1.13768,14.2993,0.422665,-0.997995,0.050461,
0.0852335,0.0151824,0.0713325,-1.79704,0.240276,0.129374,0.0577954,0.0637503,-0.00819536,0.0625534,-0.116129,0.0841505,0.284468,0.00651162,0.0510821,2.54096,0.0766491,-0.0829065,-24.6588,-9.65282,-0.000131097,8.12048,0.0654237,7.97715,-12.7362,0.175801,2.00227,0.062014,0.0836851,0.0138157,0.0707856,-1.79439,0.241065,0.127657,0.057479,0.0688783,0.0618614,0.0918371,-0.140963,-0.161021,0.148002,-5.97949e-05,0,0,0,0,0,0,0,-1.18664,-24.8619,-1.13768,14.2993,0.422665,-0.997995,0.050461,
0.0857666,0.0152308,0.0718574,-1.79795,0.239658,0.131034,0.0578466,0.0643288,-0.00534806,0.0631663,-0.115773,0.0518806,0.269054,0.0064884,0.361556,1.77956,0.383085,0.222364,-20.1687,-9.63421,-0.0145182,8.03171,0.028131,7.89541,-12.4606,-0.0851471,1.95227,0.0623186,0.0836851,0.0138157,0.0707856,-1.79439,0.241065,0.127657,0.057479,0.0688783,0.0618614,0.0918371,-0.140963,-0.161021,0.148002,-5.97949e-05,0,0,0,0,0,0,0,-1.18664,-24.8619,-1.13768,14.2993,0.422665,-0.997995,0.050461,
0.0872871,0.0151549,0.0743353,-1.80053,0.236189,0.134636,0.057762,0.0660177,-0.00129636,0.0648899,-0.115558,0.0243538,0.243482,0.00633763,1.05559,2.53231,1.07722,0.134474,-17.2043,-15.9824,-0.094231,7.73173,-0.0870259,7.61537,-11.6449,-0.586523,1.80608,0.0625851,0.0836851,0.0138157,0.0707856,-1.79439,0.241065,0.127657,0.057479,0.0688783,0.0618614,0.0918371,-0.140963,-0.161021,0.148002,-5.97949e-05,0,0,0,0,0,0,0,-1.18664,-24.8619,-1.13768,14.2993,0.422665,-0.997995,0.050461,
0.0878613,0.015251,0.0749018,-1.80142,0.23554,0.135754,0.0578065,0.0671682,0.00136638,0.0660761,-0.114534,0.00325401,0.222719,0.00618204,0.719068,1.66422,0.741394,0.640101,-13.1873,-12.9769,-0.0972394,7.64828,-0.107738,7.53486,-11.3881,-0.632397,1.75989,0.0619478,0.0846115,0.0144743,0.0732244,-1.79912,0.233487,0.130092,0.0574354,0.0676943,0.0127764,0.070342,-0.166675,-0.292586,0.0145857,-0.00130264,-0.148003,-6.13563,-2.68688,-3.21395,-16.4457,-16.6771,-0.155355,2.43946,-30.428,2.6114,25.4593,1.72363,1.56823,0.0239107,
0.0884265,0.0153287,0.0754597,-1.80227,0.234932,0.136858,0.0578493,0.0678647,0.00303503,0.066809,-0.112932,-0.0125958,0.205776,0.00601637,0.435309,1.0429,0.458039,1.00151,-9.90614,-10.5893,-0.103544,7.52882,-0.140086,7.42152,-11.1201,-0.6894,1.71481,0.0613438,0.0846115,0.0144743,0.0732244,-1.79912,0.233487,0.130092,0.0574354,0.0676943,0.0127764,0.070342,-0.166675,-0.292586,0.0145857,-0.00130264,0,0,0,0,0,0,0,2.43946,-30.428,2.6114,25.4593,1.72363,1.56823,0.0239107,
0.0889819,0.0153917,0.0760082,-1.80309,0.234369,0.137947,0.0578904,0.0681787,0.00400207,0.0671595,-0.11092,-0.0241431,0.191858,0.00584116,0.196253,0.6044,0.21904,1.25741,-7.21708,-8.69864,-0.109509,7.40322,-0.169058,7.30198,-10.8532,-0.716016,1.67232,0.060319,0.0846115,0.0144743,0.0732244,-1.79912,0.233487,0.130092,0.0574354,0.0676943,0.0127764,0.070342,-0.166675,-0.292586,0.0145857,-0.00130264,0,0,0,0,0,0,0,2.43946,-30.428,2.6114,25.4593,1.72363,1.56823,0.0239107,
0.0877022,0.0153324,0.0762709,-1.80485,0.226881,0.133916,0.0576821,0.067076,0.0057447,0.0661072,-0.109399,-0.0353877,0.175267,0.00561424,-0.689231,1.08915,-0.657644,0.950718,-7.02787,-10.3694,-0.141825,7.137,-0.216623,7.04709,-10.321,-0.706946,1.59147,0.0576843,0.0846115,0.0144743,0.0732244,-1.79912,0.233487,0.130092,0.0574354,0.0676943,0.0127764,0.070342,-0.166675,-0.292586,0.0145857,-0.00130264,0,0,0,0,0,0,0,2.43946,-30.428,2.6114,25.4593,1.72363,1.56823,0.0239107,
0.0881977,0.015418,0.0767605,-1.80564,0.226343,0.134821,0.0577177,0.0660481,0.00673681,0.0651264,-0.107269,-0.0417688,0.162848,0.00538163,-0.642378,0.62007,-0.613016,1.3311,-3.98819,-7.7616,-0.14538,6.99774,-0.235364,6.91306,-10.0557,-0.678013,1.55366,0.0560799,0.0846115,0.0144743,0.0732244,-1.79912,0.233487,0.130092,0.0574354,0.0676943,0.0127764,0.070342,-0.166675,-0.292586,0.0145857,-0.00130264,0,0,0,0,0,0,0,2.43946,-30.428,2.6114,25.4593,1.72363,1.56823,0.0239107,
0.0886865,0.0154896,0.0772436,-1.8064,0.225896,0.135748,0.0577513,0.0650575,0.00717926,0.064179,-0.104729,-0.0445773,0.153443,0.00514394,-0.619164,0.276527,-0.592105,1.58732,-1.75531,-5.87819,-0.148556,6.85848,-0.185238,6.76763,-9.77314,-0.58362,1.53369,0.053991,0.0867581,0.0170104,0.0762636,-1.80278,0.221467,0.13076,0.057439,0.0862274,0.052581,0.097831,-0.124114,-0.332029,-0.0176939,0.000629109,2.31664,4.97558,3.43613,5.32016,-4.93033,-4.03495,0.241468,-2.30145,-40.4097,-2.13744,37.3651,2.35901,3.31139,0.0239107,
0.0891676,0.0155491,0.0777193,-1.80712,0.225533,0.136687,0.0577827,0.0640745,0.00723128,0.063236,-0.101924,-0.0447481,0.146217,0.00490034,-0.614383,0.0325119,-0.589372,1.75352,-0.106745,-4.51655,-0.152248,6.71326,-0.198247,6.62713,-9.50852,-0.532374,1.50028,0.0519917,0.0867581,0.0170104,0.0762636,-1.80278,0.221467,0.13076,0.057439,0.0862274,0.052581,0.097831,-0.124114,-0.332029,-0.0176939,0.000629109,0,0,0,0,0,0,0,-2.30145,-40.4097,-2.13744,37.3651,2.35901,3.31139,0.0239107,
0.0896404,0.0155984,0.0781869,-1.80782,0.225245,0.13763,0.057812,0.0630789,0.00701605,0.0622775,-0.0989538,-0.0429868,0.140565,0.00465248,-0.622228,-0.134515,-0.599101,1.85606,1.10081,-3.53273,-0.154913,6.56573,-0.208988,6.48416,-9.24424,-0.472586,1.46951,0.0497569,0.0867581,0.0170104,0.0762636,-1.80278,0.221467,0.13076,0.057439,0.0862274,0.052581,0.097831,-0.124114,-0.332029,-0.0176939,0.000629109,0,0,0,0,0,0,0,-2.30145,-40.4097,-2.13744,37.3651,2.35901,3.31139,0.0239107,
0.0904142,0.0184712,0.0798624,-1.80861,0.216352,0.134411,0.0576179,0.0617722,0.00846688,0.06098,-0.0962129,-0.038454,0.131324,0.00428572,-0.816694,0.906766,-0.810949,1.71307,2.833,-5.7752,-0.229226,6.26575,-0.225702,6.19235,-8.71628,-0.343061,1.41417,0.0449927,0.0867581,0.0170104,0.0762636,-1.80278,0.221467,0.13076,0.057439,0.0862274,0.052581,0.097831,-0.124114,-0.332029,-0.0176939,0.000629109,0,0,0,0,0,0,0,-2.30145,-40.4097,-2.13744,37.3651,2.35901,3.31139,0.0239107,
0.0908532,0.0185653,0.0802957,-1.80926,0.216274,0.135198,0.0576385,0.0603936,0.00912579,0.0596156,-0.0930795,-0.0327059,0.124729,0.00394519,-0.861617,0.41182,-0.852714,1.95836,3.59258,-4.12196,-0.212831,6.10943,-0.263148,6.03303,-8.40967,-0.243805,1.41384,0.0423169,0.0883875,0.0183947,0.0790224,-1.80612,0.212247,0.130089,0.0574399,0.0423216,0.037224,0.098006,-0.0774523,-0.220744,-0.0472634,0.00830652,-5.48823,-1.91963,0.0218743,5.83267,13.9106,-3.69618,0.959676,0.0828892,-43.282,0.163588,38.4879,2.76733,4.49151,0.0239107,
0.0912796,0.0186425,0.0807165,-1.80987,0.21627,0.136006,0.0576573,0.0589739,0.00923208,0.0582132,-0.0897089,-0.0262706,0.119974,0.0036246,-0.887291,0.0664345,-0.876501,2.10662,4.02206,-2.97199,-0.20037,5.95618,-0.269688,5.88329,-8.14601,-0.176891,1.39099,0.0397411,0.0883875,0.0183947,0.0790224,-1.80612,0.212247,0.130089,0.0574399,0.0423216,0.037224,0.098006,-0.0774523,-0.220744,-0.0472634,0.00830652,0,0,0,0,0,0,0,0.0828892,-43.282,0.163588,38.4879,2.76733,4.49151,0.0239107,
0.0910122,0.0191786,0.0816111,-1.81021,0.209894,0.132999,0.0575466,0.05704,0.00949228,0.0562968,-0.0862758,-0.0200898,0.113556,0.00326908,-1.20871,0.162621,-1.19774,2.14568,3.86303,-4.01099,-0.222197,5.49007,-0.290604,5.42644,-7.35466,0.0115745,1.32828,0.0320026,0.0883875,0.0183947,0.0790224,-1.80612,0.212247,0.130089,0.0574399,0.0423216,0.037224,0.098006,-0.0774523,-0.220744,-0.0472634,0.00830652,0,0,0,0,0,0,0,0.0828892,-43.282,0.163588,38.4879,2.76733,4.49151,0.0239107,
0.0913947,0.0192486,0.0819884,-1.81075,0.210021,0.133728,0.0575596,0.0551934,0.00934442,0.0544706,-0.0826405,-0.0129058,0.109062,0.00294041,-1.15411,-0.0924115,-1.14138,2.27207,4.48996,-2.80895,-0.20542,5.33275,-0.298825,5.27199,-7.09048,0.0709434,1.30725,0.0294432,0.0883875,0.0183947,0.0790224,-1.80612,0.212247,0.130089,0.0574399,0.0423216,0.037224,0.098006,-0.0774523,-0.220744,-0.0472634,0.00830652,0,0,0,0,0,0,0,0.0828892,-43.282,0.163588,38.4879,2.76733,4.49151,0.0239107,
0.0917654,0.0193062,0.0823541,-1.81126,0.210228,0.134466,0.0575708,0.0534209,0.00891357,0.0527198,-0.0789051,-0.00514857,0.105701,0.00263259,-1.10783,-0.269279,-1.09425,2.33466,4.84828,-2.1005,-0.192387,5.16603,-0.322905,5.10164,-6.79186,0.143603,1.30569,0.0268371,0.0893061,0.0196614,0.0813593,-1.80808,0.207405,0.129429,0.0574395,0.0373544,0.00114372,0.0662899,-0.0574257,-0.0643019,-0.0340814,0.0003999,-0.620907,-4.51003,-3.96452,2.50333,19.5553,1.64775,-0.988328,-0.171017,-40.3105,-0.0387439,34.35,2.73071,4.08043,0.0440523,
0.0921241,0.0193529,0.0827081,-1.81174,0.210511,0.135199,0.0575803,0.0517049,0.00829796,0.0510261,-0.0751378,0.00297587,0.102887,0.00234175,-1.07252,-0.384757,-1.05856,2.35454,5.07777,-1.75903,-0.181774,5.00753,-0.332904,4.94587,-6.52682,0.201216,1.28083,0.0243719,0.0893061,0.0196614,0.0813593,-1.80808,0.207405,0.129429,0.0574395,0.0373544,0.00114372,0.0662899,-0.0574257,-0.0643019,-0.0340814,0.0003999,0,0,0,0,0,0,0,-0.171017,-40.3105,-0.0387439,34.35,2.73071,4.08043,0.0440523,
0.0914885,0.0196983,0.0835137,-1.81105,0.208296,0.132336,0.0574986,0.0496953,0.0070173,0.049041,-0.0706965,0.0130642,0.097839,0.00202164,-1.25598,-0.800412,-1.24073,2.77581,6.30518,-3.15487,-0.20007,4.69076,-0.355496,4.63449,-5.99502,0.320125,1.21917,0.0196162,0.0893061,0.0196614,0.0813593,-1.80808,0.207405,0.129429,0.0574395,0.0373544,0.00114372,0.0662899,-0.0574257,-0.0643019,-0.0340814,0.0003999,0,0,0,0,0,0,0,-0.171017,-40.3105,-0.0387439,34.35,2.73071,4.08043,0.0440523,
0.0918091,0.0197116,0.08383,-1.81145,0.208822,0.132935,0.0575028,0.0477701,0.00594531,0.0471403,-0.0664371,0.023599,0.0932273,0.00172235,-1.20325,-0.669994,-1.18793,2.66215,6.58428,-2.8823,-0.187059,4.53359,-0.367857,4.48002,-5.72821,0.385117,1.17955,0.0173332,0.0893061,0.0196614,0.0813593,-1.80808,0.207405,0.129429,0.0574395,0.0373544,0.00114372,0.0662899,-0.0574257,-0.0643019,-0.0340814,0.0003999,0,0,0,0,0,0,0,-0.171017,-40.3105,-0.0387439,34.35,2.73071,4.08043,0.0440523,
0.0921165,0.0197223,0.0841333,-1.81182,0.209455,0.133488,0.0575053,0.0459017,0.00502476,0.0452964,-0.062343,0.034696,0.0884168,0.00144047,-1.16774,-0.575342,-1.15244,2.55879,6.93559,-3.00657,-0.176172,4.37835,-0.420207,4.32723,-5.4385,0.45731,1.14868,0.0150085,0.0901777,0.0195503,0.0826786,-1.81038,0.207092,0.128043,0.0574446,0.0356691,-0.0683271,0.0320449,-0.0549596,-0.000980075,-0.0201893,-0.000343706,-0.210661,-8.68385,-4.28063,0.308256,7.91522,1.73651,-0.0929508,0.816837,-35.768,1.13954,28.9465,2.11456,3.21892,0.0303194,
0.0924103,0.0197304,0.0844233,-1.81216,0.210207,0.133976,0.0575062,0.0440678,0.00422119,0.0434869,-0.0583958,0.0465626,0.0829313,0.00117343,-1.14618,-0.502235,-1.13095,2.46701,7.41663,-3.42843,-0.166901,4.22543,-0.433205,4.17712,-5.17068,0.538681,1.09088,0.0128403,0.0901777,0.0195503,0.0826786,-1.81038,0.207092,0.128043,0.0574446,0.0356691,-0.0683271,0.0320449,-0.0549596,-0.000980075,-0.0201893,-0.000343706,0,0,0,0,0,0,0,0.816837,-35.768,1.13954,28.9465,2.11456,3.21892,0.0303194,
0.0915999,0.0184887,0.0840842,-1.81198,0.209364,0.129944,0.0574718,0.042153,0.000718689,0.0416126,-0.0539331,0.0555185,0.0782912,0.000970499,-1.19675,-2.18906,-1.17143,2.78919,5.59748,-2.90005,-0.126833,4.07596,-0.44603,4.03053,-4.9026,0.633039,1.02071,0.0107269,0.0901777,0.0195503,0.0826786,-1.81038,0.207092,0.128043,0.0574446,0.0356691,-0.0683271,0.0320449,-0.0549596,-0.000980075,-0.0201893,-0.000343706,0,0,0,0,0,0,0,0.816837,-35.768,1.13954,28.9465,2.11456,3.21892,0.0303194,
0.0918663,0.0184066,0.0843478,-1.81225,0.210241,0.130364,0.0574713,0.0403834,-0.00147688,0.039879,-0.0499416,0.0663543,0.0731395,0.00076403,-1.10602,-1.37223,-1.08348,2.49468,6.77237,-3.21983,-0.129043,3.93085,-0.458242,3.88834,-4.63445,0.742864,0.936432,0.00867093,0.0901777,0.0195503,0.0826786,-1.81038,0.207092,0.128043,0.0574446,0.0356691,-0.0683271,0.0320449,-0.0549596,-0.000980075,-0.0201893,-0.000343706,0,0,0,0,0,0,0,0.816837,-35.768,1.13954,28.9465,2.11456,3.21892,0.0303194,
0.0921216,0.018342,0.0846004,-1.81251,0.211282,0.130692,0.0574691,0.03869,-0.00279634,0.0382184,-0.0462917,0.0791045,0.0667243,0.000557463,-1.05837,-0.824663,-1.03787,2.28117,7.96887,-4.00952,-0.129105,3.78553,-0.48035,3.74624,-4.36491,0.86956,0.841704,0.00664061,0.0914656,0.0193794,0.0836186,-1.81177,0.207447,0.12798,0.0574416,0.0381039,-0.022667,0.0266687,-0.00835987,0.0326933,0.0302539,-0.00354977,0.304357,5.70751,-0.672019,5.82497,4.20917,6.3054,-0.400758,0.638309,-34.07,0.86183,22.4957,1.76025,1.54809,0.0440523,
0.0923646,0.0182903,0.0848408,-1.81274,0.212507,0.1309,0.0574654,0.0370261,-0.00353128,0.0365848,-0.0428858,0.0939167,0.0585672,0.000353725,-1.03997,-0.459338,-1.02101,2.12869,9.25759,-5.09814,-0.127336,3.65186,-0.489657,3.61561,-4.09762,1.0225,0.721384,0.00469935,0.0914656,0.0193794,0.0836186,-1.81177,0.207447,0.12798,0.0574416,0.0381039,-0.022667,0.0266687,-0.00835987,0.0326933,0.0302539,-0.00354977,0,0,0,0,0,0,0,0.638309,-34.07,0.86183,22.4957,1.76025,1.54809,0.0440523,
0.0926414,0.0187669,0.0847795,-1.81284,0.212314,0.129548,0.057428,0.0350337,-0.00462995,0.0346202,-0.0391813,0.110246,0.0492749,0.000157955,-1.24522,-0.686667,-1.22789,2.31532,10.2056,-5.80769,-0.122356,3.525,-0.496473,3.49186,-3.83133,1.20347,0.578999,0.00282628,0.0914656,0.0193794,0.0836186,-1.81177,0.207447,0.12798,0.0574416,0.0381039,-0.022667,0.0266687,-0.00835987,0.0326933,0.0302539,-0.00354977,0,0,0,0,0,0,0,0.638309,-34.07,0.86183,22.4957,1.76025,1.54809,0.0440523,
0.0928461,0.0187093,0.0849819,-1.81302,0.213967,0.129471,0.0574218,0.0331434,-0.00514222,0.0327558,-0.035777,0.129516,0.0375024,-2.88892e-05,-1.18144,-0.32017,-1.16524,2.12771,12.0441,-7.35786,-0.116778,3.40533,-0.499966,3.37535,-3.56643,1.41594,0.412606,0.00102615,0.0914656,0.0193794,0.0836186,-1.81177,0.207447,0.12798,0.0574416,0.0381039,-0.022667,0.0266687,-0.00835987,0.0326933,0.0302539,-0.00354977,0,0,0,0,0,0,0,0.638309,-34.07,0.86183,22.4957,1.76025,1.54809,0.0440523,
0.0930377,0.0186634,0.0851714,-1.81318,0.215895,0.129197,0.0574147,0.0313046,-0.0052629,0.0309411,-0.0325831,0.151801,0.0231521,-0.000202339,-1.14923,-0.0754223,-1.13417,1.99619,13.9277,-8.96888,-0.108406,3.2915,-0.502053,3.26459,-3.30782,1.65693,0.21802,-0.000664478,0.092625,0.0192958,0.0842517,-1.81182,0.20954,0.128477,0.0574388,0.0317179,0.00918958,0.020874,0.00906288,0.0727594,0.0222673,0.0010379,-0.798258,3.98207,-0.724343,2.17784,5.00826,-0.998325,0.573459,1.63013,-33.947,1.78621,21.373,1.87011,0.918204,0.0376436,
0.0932151,0.0186269,0.0853468,-1.81331,0.218124,0.128705,0.0574069,0.0294795,-0.0051228,0.0291382,-0.0295379,0.177184,0.00622338,-0.000356404,-1.1407,0.0875603,-1.12684,1.9032,15.8645,-10.5805,-0.0962905,3.18528,-0.496128,3.16157,-3.0467,1.94476,-0.00283105,-0.00223597,0.092625,0.0192958,0.0842517,-1.81182,0.20954,0.128477,0.0574388,0.0317179,0.00918958,0.020874,0.00906288,0.0727594,0.0222673,0.0010379,0,0,0,0,0,0,0,1.63013,-33.947,1.78621,21.373,1.87011,0.918204,0.0376436,
0.0933604,0.0191589,0.0849767,-1.8125,0.215169,0.128663,0.0574134,0.0278403,-0.00486354,0.0275138,-0.0276752,0.188043,-0.000953069,-0.000462137,-1.02448,0.162036,-1.01522,1.16419,6.7872,-4.48528,-0.066083,3.18528,-0.496128,3.16157,-3.0467,1.94476,-0.00283105,-0.00223597,0.092625,0.0192958,0.0842517,-1.81182,0.20954,0.128477,0.0574388,0.0317179,0.00918958,0.020874,0.00906288,0.0727594,0.0222673,0.0010379,0,0,0,0,0,0,0,1.63013,-33.947,1.78621,21.373,1.87011,0.918204,0.0376436,
0.0935199,0.0191344,0.0851342,-1.81264,0.217341,0.128197,0.0574057,0.0262612,-0.0045038,0.0259491,-0.0256882,0.204742,-0.0124117,-0.000560729,-0.986939,0.224837,-0.977955,1.24189,10.437,-7.16165,-0.0616199,3.08367,-0.48408,3.06313,-2.78763,2.27504,-0.252771,-0.00362944,0.092625,0.0192958,0.0842517,-1.81182,0.20954,0.128477,0.0574388,0.0317179,0.00918958,0.020874,0.00906288,0.0727594,0.0222673,0.0010379,0,0,0,0,0,0,0,1.63013,-33.947,1.78621,21.373,1.87011,0.918204,0.0376436,
0.0936673,0.0191156,0.0852796,-1.81277,0.219855,0.127488,0.0573979,0.0246944,-0.00407434,0.0243953,-0.0235841,0.226638,-0.0276433,-0.000643055,-0.979304,0.268414,-0.971116,1.31505,13.6849,-9.51973,-0.0514537,2.98706,-0.469223,2.96973,-2.53513,2.63254,-0.52781,-0.00481406,0.0936198,0.0191017,0.0849401,-1.81204,0.213954,0.128547,0.0574366,0.0371344,-0.00774543,0.0223547,-0.0191902,0.165291,0.00520767,-0.000873527,0.677062,-2.11688,0.185092,-3.53164,11.5664,-2.13245,-0.238929,0.995365,-32.8243,1.23872,23.8406,2.15667,1.28258,0.0980684,
0.0938012,0.0191021,0.0854115,-1.81287,0.222728,0.126527,0.0573906,0.023102,-0.00359643,0.0228139,-0.0213839,0.253136,-0.0461327,-0.000697618,-0.995252,0.298697,-0.988357,1.37514,16.5613,-11.5559,-0.0341017,2.88392,-0.442668,2.86957,-2.27925,3.04841,-0.832121,-0.00565098,0.0936198,0.0191017,0.0849401,-1.81204,0.213954,0.128547,0.0574366,0.0371344,-0.00774543,0.0223547,-0.0191902,0.165291,0.00520767,-0.000873527,0,0,0,0,0,0,0,0.995365,-32.8243,1.23872,23.8406,2.15667,1.28258,0.0980684,
0.094332,0.0189493,0.0856401,-1.81253,0.223162,0.126298,0.0574019,0.0221704,-0.0034901,0.0218843,-0.019473,0.274183,-0.0605221,-0.000754447,-0.582229,0.0664506,-0.581008,1.1943,13.1542,-8.99332,-0.0355183,2.88392,-0.442668,2.86957,-2.27925,3.04841,-0.832121,-0.00565098,0.0936198,0.0191017,0.0849401,-1.81204,0.213954,0.128547,0.0574366,0.0371344,-0.00774543,0.0223547,-0.0191902,0.165291,0.00520767,-0.000873527,0,0,0,0,0,0,0,0.995365,-32.8243,1.23872,23.8406,2.15667,1.28258,0.0980684,
0.094461,0.0189322,0.085767,-1.8126,0.226407,0.125093,0.0573955,0.020961,-0.00321969,0.0206785,-0.0174608,0.300469,-0.0785494,-0.00076491,-0.755873,0.169009,-0.753622,1.25764,16.4287,-11.2671,-0.00653961,2.77092,-0.408387,2.75932,-2.0237,3.50207,-1.15754,-0.00606336,0.0936198,0.0191017,0.0849401,-1.81204,0.213954,0.128547,0.0574366,0.0371344,-0.00774543,0.0223547,-0.0191902,0.165291,0.00520767,-0.000873527,0,0,0,0,0,0,0,0.995365,-32.8243,1.23872,23.8406,2.15667,1.28258,0.0980684,
0.0945712,0.0189218,0.085875,-1.81266,0.230023,0.123634,0.0573913,0.0195248,-0.00283512,0.0192442,-0.0153768,0.330778,-0.099317,-0.000717239,-0.897626,0.240358,-0.896424,1.30253,18.9432,-12.9798,0.0297946,2.63883,-0.366824,2.62962,-1.76674,3.9852,-1.4974,-0.00591722,0.0936198,0.0191017,0.0849401,-1.81204,0.213954,0.128547,0.0574366,0.0371344,-0.00774543,0.0223547,-0.0191902,0.165291,0.00520767,-0.000873527,0,0,0,0,0,0,0,0.995365,-32.8243,1.23872,23.8406,2.15667,1.28258,0.0980684,
0.0946622,0.0189175,0.0859637,-1.8127,0.233989,0.121939,0.0573902,0.0178944,-0.00237595,0.0176111,-0.0132544,0.363773,-0.121832,-0.000599624,-1.019,0.286978,-1.02073,1.32649,20.6218,-14.0722,0.0735094,2.4766,-0.317513,2.46837,-1.51147,4.45968,-1.83321,-0.00509121,0.0944512,0.0191145,0.0854747,-1.81244,0.220182,0.12806,0.0574373,0.0317414,0.00312719,0.0250263,-0.0237698,0.232705,-0.0324065,-0.000709713,-0.674117,1.35908,0.333947,-0.572452,8.42671,-4.70178,0.0204767,1.32465,-34.3953,1.51246,25.9552,2.56042,1.4547,0.0641939,
0.0949795,0.0192242,0.0859886,-1.81278,0.233004,0.12327,0.05741,0.0165748,-0.00132644,0.016277,-0.0118204,0.387794,-0.138612,-0.000524009,-0.824769,0.655948,-0.833785,0.89625,15.0132,-10.4874,0.0472596,2.4766,-0.317513,2.46837,-1.51147,4.45968,-1.83321,-0.00509121,0.0944512,0.0191145,0.0854747,-1.81244,0.220182,0.12806,0.0574373,0.0317414,0.00312719,0.0250263,-0.0237698,0.232705,-0.0324065,-0.000709713,0,0,0,0,0,0,0,1.32465,-34.3953,1.51246,25.9552,2.56042,1.4547,0.0641939,
0.0950477,0.0192461,0.0860537,-1.81281,0.237216,0.1214,0.0574123,0.0149642,-0.000513956,0.0146514,-0.0102058,0.415539,-0.157637,-0.000362135,-1.00659,0.507799,-1.01604,1.00912,17.3404,-11.8901,0.101171,2.26847,-0.265486,2.26127,-1.24563,4.95298,-2.16545,-0.00335419,0.0944512,0.0191145,0.0854747,-1.81244,0.220182,0.12806,0.0574373,0.0317414,0.00312719,0.0250263,-0.0237698,0.232705,-0.0324065,-0.000709713,0,0,0,0,0,0,0,1.32465,-34.3953,1.51246,25.9552,2.56042,1.4547,0.0641939,
0.0950953,0.019267,0.0860982,-1.81282,0.241682,0.119372,0.0574163,0.0131613,0.000109654,0.0128324,-0.00853122,0.444079,-0.176805,-0.000189836,-1.12684,0.389756,-1.13687,1.0466,17.838,-11.9801,0.107687,1.99879,-0.211702,1.99148,-0.972453,5.41439,-2.46785,-0.000576928,0.0944512,0.0191145,0.0854747,-1.81244,0.220182,0.12806,0.0574373,0.0317414,0.00312719,0.0250263,-0.0237698,0.232705,-0.0324065,-0.000709713,0,0,0,0,0,0,0,1.32465,-34.3953,1.51246,25.9552,2.56042,1.4547,0.0641939,
0.0951286,0.0192842,0.0861302,-1.81283,0.246226,0.117301,0.0574063,0.0113612,0.000518219,0.011066,-0.0069619,0.468872,-0.193213,-0.000403179,-1.12503,0.255353,-1.10398,0.980829,15.4952,-10.2553,-0.13334,1.64933,-0.160115,1.6388,-0.692792,5.77434,-2.70025,0.00324217,0.0951957,0.0191914,0.0862137,-1.8132,0.229093,0.125795,0.0574412,0.0213414,0.0127608,0.0280399,-0.033317,0.298637,-0.101054,-0.00097515,-1.30001,1.2042,0.376703,-1.1934,8.24155,-8.58097,-0.0331796,1.09455,-36.2441,1.3379,27.1017,2.7124,1.44829,0.0577852,
0.0954828,0.0195735,0.0864839,-1.81349,0.244609,0.118701,0.0574245,0.00975956,0.00216482,0.00947468,-0.00640968,0.484134,-0.205477,-0.000598936,-1.00103,1.02912,-0.994583,0.345137,9.53895,-7.66504,-0.122348,1.64933,-0.160115,1.6388,-0.692792,5.77434,-2.70025,0.00324217,0.0951957,0.0191914,0.0862137,-1.8132,0.229093,0.125795,0.0574412,0.0213414,0.0127608,0.0280399,-0.033317,0.298637,-0.101054,-0.00097515,0,0,0,0,0,0,0,1.09455,-36.2441,1.3379,27.1017,2.7124,1.44829,0.0577852,
0.0955412,0.0196136,0.0865378,-1.81353,0.248464,0.116918,0.0574288,0.00926712,0.00273337,0.00892639,-0.00606215,0.483684,-0.208967,-0.000371717,-0.307778,0.355347,-0.342676,0.217207,-0.281428,-2.18109,0.142012,1.20799,-0.114091,1.19368,-0.405236,6.06411,-2.86587,0.00758892,0.0951957,0.0191914,0.0862137,-1.8132,0.229093,0.125795,0.0574412,0.0213414,0.0127608,0.0280399,-0.033317,0.298637,-0.101054,-0.00097515,0,0,0,0,0,0,0,1.09455,-36.2441,1.3379,27.1017,2.7124,1.44829,0.0577852,
0.095666,0.0196234,0.0866607,-1.81357,0.251115,0.115737,0.057437,0.0105325,0.00243101,0.0102143,-0.00590477,0.45322,-0.196708,-9.30364e-05,0.79084,-0.188974,0.804937,0.0983617,-19.0397,7.66172,0.174176,0.675277,-0.0836114,0.656892,-0.11954,6.1806,-2.89608,0.00873602,0.0951957,0.0191914,0.0862137,-1.8132,0.229093,0.125795,0.0574412,0.0213414,0.0127608,0.0280399,-0.033317,0.298637,-0.101054,-0.00097515,0,0,0,0,0,0,0,1.09455,-36.2441,1.3379,27.1017,2.7124,1.44829,0.0577852,
0.0958148,0.019619,0.0868045,-1.8136,0.253022,0.114943,0.0574396,0.0121475,0.00183626,0.0117651,-0.005441,0.410265,-0.177202,-1.02625e-05,1.0094,-0.371719,0.969264,0.289856,-26.847,12.1912,0.0517337,0.134678,-0.124481,0.130272,0.161443,5.8382,-2.63058,-0.0116891,0.0955364,0.0193142,0.0868561,-1.81419,0.239705,0.121117,0.0574393,0.0170316,0.00821728,0.0118181,-0.0283522,0.310768,-0.146065,-0.0014924,-0.538724,-0.567939,-2.02773,0.620599,1.51637,-5.62632,-0.0646565,-0.754208,-34.7722,-0.411669,25.7806,2.43225,1.64696,0.0779268,
0.0958423,0.0195513,0.0871399,-1.81443,0.249958,0.116274,0.0574286,0.0126784,0.00200813,0.0122334,-0.00534267,0.368455,-0.158952,2.83413e-05,0.331817,0.10742,0.292706,0.0614558,-26.1315,11.4065,0.0241274,0.134678,-0.124481,0.130272,0.161443,5.8382,-2.63058,-0.0116891,0.0955364,0.0193142,0.0868561,-1.81419,0.239705,0.121117,0.0574393,0.0170316,0.00821728,0.0118181,-0.0283522,0.310768,-0.146065,-0.0014924,0,0,0,0,0,0,0,-0.754208,-34.7722,-0.411669,25.7806,2.43225,1.64696,0.0779268,
0.0959611,0.0195596,0.0872517,-1.81445,0.251199,0.115811,0.0574273,0.0131131,0.00181273,0.0125822,-0.00485166,0.325775,-0.138749,-1.12345e-05,0.271713,-0.122126,0.217986,0.306881,-26.6748,12.6269,-0.0247348,0.205554,-0.394499,0.119901,0.302946,3.74866,-1.53218,-0.000520122,0.0955364,0.0193142,0.0868561,-1.81419,0.239705,0.121117,0.0574393,0.0170316,0.00821728,0.0118181,-0.0283522,0.310768,-0.146065,-0.0014924,0,0,0,0,0,0,0,-0.754208,-34.7722,-0.411669,25.7806,2.43225,1.64696,0.0779268,
0.096071,0.0195576,0.0873539,-1.81446,0.252204,0.115503,0.0574243,0.0132385,0.0014023,0.0126209,-0.00411165,0.285764,-0.118688,-8.17976e-05,0.0783475,-0.256523,0.0241768,0.462508,-25.0067,12.538,-0.0441019,0.0576444,-0.503006,-0.0329636,0.541756,0.658793,0.12215,-0.00468896,0.0955364,0.0193142,0.0868561,-1.81419,0.239705,0.121117,0.0574393,0.0170316,0.00821728,0.0118181,-0.0283522,0.310768,-0.146065,-0.0014924,0,0,0,0,0,0,0,-0.754208,-34.7722,-0.411669,25.7806,2.43225,1.64696,0.0779268,
0.0957982,0.0200284,0.0871826,-1.81536,0.242597,0.120347,0.0574284,0.0115119,0.0126574,0.0109044,-0.0172866,0.213491,-0.0833112,-0.000260363,-1.07911,7.03444,-1.07281,-8.23432,-45.1709,22.1105,-0.111603,7.0856e-05,30.3928,-0.0903841,-22.5981,-1.95121,-1.38291,-0.00350289,0.0957614,0.019567,0.0871503,-1.8148,0.243202,0.119881,0.0574362,0.00536282,0.00020908,0.00271725,-0.0065123,-0.0780374,0.026059,-0.00167877,-1.4586,-1.00103,-1.1376,2.72999,-48.6007,21.5155,-0.0232965,-2.55536,-35.4704,-2.23662,26.5027,1.42425,2.27685,0.0641939,
0.0957526,0.0204643,0.0871218,-1.81563,0.243192,0.119983,0.0574168,0.00806835,0.0210238,0.00720417,-0.0206692,0.18567,-0.075732,-0.00049782,-2.15224,5.22903,-2.31264,-2.11417,-17.3877,4.73701,-0.148411,0.206084,-0.426337,0.118959,0.335116,3.73857,-1.51754,-0.000606623,0.0957614,0.019567,0.0871503,-1.8148,0.243202,0.119881,0.0574362,0.00536282,0.00020908,0.00271725,-0.0065123,-0.0780374,0.026059,-0.00167877,0,0,0,0,0,0,0,-2.55536,-35.4704,-2.23662,26.5027,1.42425,2.27685,0.0641939,
0.0957208,0.0208038,0.087083,-1.81583,0.243674,0.119663,0.0574154,0.00566064,0.0253048,0.00479239,-0.0214048,0.160596,-0.0685832,-0.000433675,-1.50482,2.67557,-1.50736,-0.459723,-15.6716,4.46801,0.040091,0.0581707,-0.534839,-0.0339095,0.573928,0.648706,0.136786,-0.00477565,0.0957614,0.019567,0.0871503,-1.8148,0.243202,0.119881,0.0574362,0.00536282,0.00020908,0.00271725,-0.0065123,-0.0780374,0.026059,-0.00167877,0,0,0,0,0,0,0,-2.55536,-35.4704,-2.23662,26.5027,1.42425,2.27685,0.0641939,
0.0957,0.0210632,0.0870546,-1.81597,0.244107,0.119404,0.0574132,0.00400762,0.0267307,0.00312575,-0.020748,0.139296,-0.0613495,-0.000399594,-1.03313,0.89119,-1.04165,0.4105,-13.3121,4.52105,0.0213005,0.058169,-0.534836,-0.0339108,0.57393,0.648706,0.136784,-0.00477567,0.0957614,0.019567,0.0871503,-1.8148,0.243202,0.119881,0.0574362,0.00536282,0.00020908,0.00271725,-0.0065123,-0.0780374,0.026059,-0.00167877,0,0,0,0,0,0,0,-2.55536,-35.4704,-2.23662,26.5027,1.42425,2.27685,0.0641939,
0.0956861,0.0212599,0.0870329,-1.81608,0.244522,0.119204,0.0574105,0.00285801,0.0263001,0.00195756,-0.0192845,0.121815,-0.0540875,-0.000387297,-0.71851,-0.269079,-0.730118,0.914671,-10.9257,4.53874,0.00768555,0.0576942,-0.481092,-0.0384212,0.581685,0.674676,0.140295,-0.00473294,0.0954823,0.020614,0.0865219,-1.81551,0.236702,0.121875,0.0574305,-0.0170433,0.102745,-0.0279192,-0.0372509,-0.228885,0.032557,-0.00106404,-2.80077,12.817,-3.82956,-3.84232,-18.856,0.812251,0.0768413,-6.2846,-19.5696,-6.06108,12.6807,-0.517582,1.0244,0.110886,
0.095052,0.0217088,0.0860709,-1.81603,0.23635,0.121301,0.0574157,-0.00256709,0.0328072,-0.00343343,-0.0214837,0.0944485,-0.0496682,-0.000331377,-3.39068,4.06689,-3.36937,-1.37451,-17.1042,2.76205,0.0349503,0.208248,-0.372729,0.117066,0.342012,3.76295,-1.51354,-0.000562812,0.0954823,0.020614,0.0865219,-1.81551,0.236702,0.121875,0.0574305,-0.0170433,0.102745,-0.0279192,-0.0372509,-0.228885,0.032557,-0.00106404,0,0,0,0,0,0,0,-6.2846,-19.5696,-6.06108,12.6807,-0.517582,1.0244,0.110886,
0.0948957,0.0220706,0.0859082,-1.81622,0.23633,0.121088,0.0574148,-0.00596146,0.0352898,-0.006814,-0.02201,0.0750511,-0.0450574,-0.000286839,-2.12148,1.55165,-2.11285,-0.328916,-12.1234,2.88178,0.027836,0.0603019,-0.481141,-0.0358462,0.580851,0.67309,0.140772,-0.00473198,0.0954823,0.020614,0.0865219,-1.81551,0.236702,0.121875,0.0574305,-0.0170433,0.102745,-0.0279192,-0.0372509,-0.228885,0.032557,-0.00106404,0,0,0,0,0,0,0,-6.2846,-19.5696,-6.06108,12.6807,-0.517582,1.0244,0.110886,
0.0947699,0.0223496,0.0857755,-1.81637,0.236399,0.120917,0.0574134,-0.00791486,0.0352086,-0.00876824,-0.0213189,0.0617763,-0.0403274,-0.000264943,-1.22088,-0.0507558,-1.2214,0.431949,-8.29678,2.95626,0.0136852,0.0602661,-0.481068,-0.0358813,0.580875,0.673086,0.140757,-0.00473206,0.0954823,0.020614,0.0865219,-1.81551,0.236702,0.121875,0.0574305,-0.0170433,0.102745,-0.0279192,-0.0372509,-0.228885,0.032557,-0.00106404,0,0,0,0,0,0,0,-6.2846,-19.5696,-6.06108,12.6807,-0.517582,1.0244,0.110886,
0.0946687,0.0225644,0.085667,-1.81648,0.236547,0.120787,0.0574115,-0.00886259,0.0335369,-0.00972566,-0.0198402,0.0531239,-0.0355244,-0.000259477,-0.592328,-1.04479,-0.598393,0.9242,-5.40771,3.00187,0.00341602,0.0574261,-0.441131,-0.0438561,0.594314,0.685339,0.150571,-0.00482658,0.0948505,0.021921,0.0856437,-1.81667,0.233591,0.122652,0.0574269,-0.0350762,0.050474,-0.0807795,-0.0663861,-0.130257,0.0244557,-0.00126959,-2.25411,-6.53384,-6.60754,-3.6419,12.3286,-1.01266,-0.0256932,-8.56579,-29.0038,-8.18755,17.2629,0.0747645,1.11687,0.104477,
0.0937253,0.0230851,0.0844936,-1.81735,0.231909,0.12249,0.0574303,-0.0121212,0.0318196,-0.0129623,-0.0182914,0.039415,-0.0291302,-0.000225801,-2.03665,-1.07333,-2.0229,0.967979,-8.56807,3.99635,0.0210477,0.0574261,-0.441131,-0.0438561,0.594314,0.685339,0.150571,-0.00482658,0.0948505,0.021921,0.0856437,-1.81667,0.233591,0.122652,0.0574269,-0.0350762,0.050474,-0.0807795,-0.0663861,-0.130257,0.0244557,-0.00126959,0,0,0,0,0,0,0,-8.56579,-29.0038,-8.18755,17.2629,0.0747645,1.11687,0.104477,
0.0935625,0.0232399,0.0843243,-1.81742,0.231919,0.122483,0.057429,-0.0137686,0.0293253,-0.0146035,-0.0163637,0.0317806,-0.0234936,-0.000212661,-1.02962,-1.55895,-1.02575,1.2048,-4.77153,3.52289,0.00821219,0.0573945,-0.441088,-0.0438874,0.594331,0.685329,0.150554,-0.00482657,0.0948505,0.021921,0.0856437,-1.81667,0.233591,0.122652,0.0574269,-0.0350762,0.050474,-0.0807795,-0.0663861,-0.130257,0.0244557,-0.00126959,0,0,0,0,0,0,0,-8.56579,-29.0038,-8.18755,17.2629,0.0747645,1.11687,0.104477,
0.093431,0.0233586,0.084186,-1.81747,0.232035,0.122495,0.0574273,-0.0143008,0.0264273,-0.0151404,-0.014268,0.0283262,-0.018495,-0.000213708,-0.332601,-1.81126,-0.335552,1.30983,-2.15898,3.12412,-0.000654538,0.0573634,-0.441053,-0.0439178,0.594346,0.685318,0.150536,-0.00482657,0.0948505,0.021921,0.0856437,-1.81667,0.233591,0.122652,0.0574269,-0.0350762,0.050474,-0.0807795,-0.0663861,-0.130257,0.0244557,-0.00126959,0,0,0,0,0,0,0,-8.56579,-29.0038,-8.18755,17.2629,0.0747645,1.11687,0.104477,
0.0933253,0.0234482,0.084073,-1.8175,0.232236,0.122524,0.0574251,-0.0140849,0.0233824,-0.0149363,-0.0121433,0.0276816,-0.0140581,-0.000224246,0.134957,-1.90302,0.127531,1.32794,-0.402841,2.77306,-0.00658608,0.0593798,-0.384779,-0.0502079,0.602894,0.690059,0.155413,-0.0049127,0.0939888,0.0240858,0.0837498,-1.81726,0.232847,0.122759,0.0574341,-0.0158453,0.0571463,-0.0781781,-0.0331661,0.00464419,0.00684437,-0.00789289,2.40386,0.83403,0.325171,4.1525,16.8626,-2.20141,-0.827912,-5.62207,-38.4895,-5.31127,26.3043,0.727535,2.35009,0.0843355,
0.0927509,0.025523,0.0824349,-1.81778,0.235123,0.12311,0.0574189,-0.0121434,0.0192979,-0.013042,-0.00932154,0.0326856,-0.00915031,-0.00026083,1.21342,-2.55282,1.18398,1.76358,3.12747,3.06736,-0.0228646,0.0591921,-0.384704,-0.0503806,0.602952,0.689995,0.155299,-0.00491252,0.0939888,0.0240858,0.0837498,-1.81726,0.232847,0.122759,0.0574341,-0.0158453,0.0571463,-0.0781781,-0.0331661,0.00464419,0.00684437,-0.00789289,0,0,0,0,0,0,0,-5.62207,-38.4895,-5.31127,26.3043,0.727535,2.35009,0.0843355,
0.0927236,0.0255368,0.0823987,-1.81776,0.235567,0.123201,0.0574156,-0.0103986,0.0157819,-0.0113376,-0.00691022,0.0372527,-0.00503401,-0.000293386,1.09048,-2.19754,1.06525,1.50707,2.85447,2.57269,-0.0203479,0.0591625,-0.384698,-0.0504125,0.602961,0.689988,0.15528,-0.00491251,0.0939888,0.0240858,0.0837498,-1.81726,0.232847,0.122759,0.0574341,-0.0158453,0.0571463,-0.0781781,-0.0331661,0.00464419,0.00684437,-0.00789289,0,0,0,0,0,0,0,-5.62207,-38.4895,-5.31127,26.3043,0.727535,2.35009,0.0843355,
0.0927024,0.0255425,0.0823687,-1.81773,0.236029,0.123299,0.0574121,-0.00884795,0.0127697,-0.0098213,-0.00485664,0.0413629,-0.00158158,-0.000322044,0.969169,-1.88258,0.947659,1.28349,2.56883,2.15777,-0.017911,0.0591325,-0.384694,-0.0504435,0.602969,0.689981,0.155261,-0.00491249,0.0939888,0.0240858,0.0837498,-1.81726,0.232847,0.122759,0.0574341,-0.0158453,0.0571463,-0.0781781,-0.0331661,0.00464419,0.00684437,-0.00789289,0,0,0,0,0,0,0,-5.62207,-38.4895,-5.31127,26.3043,0.727535,2.35009,0.0843355,
0.0937036,0.0244502,0.0834553,-1.81743,0.232848,0.12276,0.0574351,-0.0142075,0.0193261,-0.0152218,-0.00827641,0.033127,-0.00123468,-0.00023141,-3.34974,4.09773,-3.37533,-2.13736,-5.14743,0.216812,0.0566462,0.0591921,-0.384704,-0.0503806,0.602952,0.689995,0.155299,-0.00491252,0.0939888,0.0240858,0.0837498,-1.81726,0.232847,0.122759,0.0574341,-0.0158453,0.0571463,-0.0781781,-0.0331661,0.00464419,0.00684437,-0.00789289,0,0,0,0,0,0,0,-5.62207,-38.4895,-5.31127,26.3043,0.727535,2.35009,0.0843355,
0.0934781,0.024733,0.0832244,-1.81756,0.232885,0.122754,0.0574362,-0.0170031,0.0225292,-0.0179479,-0.00980462,0.027411,-0.00114072,-0.000158909,-1.74725,2.00196,-1.70379,-0.95513,-3.57249,0.0587237,0.0453133,0.0599309,-0.349143,-0.0543394,0.598099,0.688785,0.153361,-0.00490281,0.0938849,0.0252809,0.0828833,-1.81666,0.233166,0.123051,0.0574328,-0.00944147,0.0256693,-0.0200634,-0.0224228,0.0210489,-0.0104535,-0.0029803,0.800484,-3.93462,7.26435,1.34291,2.05059,-2.16224,0.614074,3.73279,-45.103,3.48817,35.0998,1.97357,3.30498,0.0907442,
0.0933002,0.0249507,0.0830402,-1.81765,0.232979,0.122755,0.0574359,-0.0180515,0.0234657,-0.0189639,-0.0101715,0.0242795,-0.000893119,-0.000132904,-0.655263,0.585272,-0.634988,-0.229328,-1.95719,0.154752,0.0162531,0.0599009,-0.34914,-0.0543704,0.598107,0.688778,0.153342,-0.0049028,0.0938849,0.0252809,0.0828833,-1.81666,0.233166,0.123051,0.0574328,-0.00944147,0.0256693,-0.0200634,-0.0224228,0.0210489,-0.0104535,-0.0029803,0,0,0,0,0,0,0,3.73279,-45.103,3.48817,35.0998,1.97357,3.30498,0.0907442,
0.0931591,0.0251175,0.0828922,-1.81772,0.233136,0.122767,0.0574348,-0.0179685,0.0229436,-0.0188726,-0.00979411,0.023354,-0.00039745,-0.000134715,0.0518916,-0.326299,0.0570727,0.235891,-0.578444,0.309793,-0.0011324,0.0598706,-0.349137,-0.054401,0.598115,0.688772,0.153323,-0.00490278,0.0938849,0.0252809,0.0828833,-1.81666,0.233166,0.123051,0.0574328,-0.00944147,0.0256693,-0.0200634,-0.0224228,0.0210489,-0.0104535,-0.0029803,0,0,0,0,0,0,0,3.73279,-45.103,3.48817,35.0998,1.97357,3.30498,0.0907442,
0.0935856,0.0258433,0.0825403,-1.8169,0.234727,0.122861,0.0574191,-0.0152714,0.0198521,-0.0162165,-0.00808853,0.0285353,8.46056e-05,-0.000187041,1.68572,-1.93218,1.66002,1.06599,3.23833,0.301285,-0.0327033,0.0598402,-0.349136,-0.0544314,0.598123,0.688766,0.153304,-0.00490277,0.0938849,0.0252809,0.0828833,-1.81666,0.233166,0.123051,0.0574328,-0.00944147,0.0256693,-0.0200634,-0.0224228,0.0210489,-0.0104535,-0.0029803,0,0,0,0,0,0,0,3.73279,-45.103,3.48817,35.0998,1.97357,3.30498,0.0907442,
0.0935574,0.0258864,0.0825032,-1.81689,0.235148,0.122897,0.0574158,-0.012921,0.0169591,-0.0139017,-0.00644552,0.033372,0.000974143,-0.000232559,1.46896,-1.80814,1.44678,1.02688,3.02294,0.555961,-0.0284491,0.0586015,-0.329445,-0.0548945,0.596063,0.702535,0.149644,-0.00486315,0.0936211,0.0254627,0.0812781,-1.81683,0.229682,0.123839,0.0574416,0.0113688,0.0497675,-0.00519187,-0.0315769,-0.14139,0.0361797,0.000485763,2.60128,3.01228,1.85894,-1.14425,-20.3049,5.82916,0.433258,3.30432,-32.5227,3.06367,29.8669,2.46887,2.14501,0.0101778,
0.0935355,0.025916,0.0824722,-1.81688,0.235593,0.12295,0.0574124,-0.0108844,0.0143078,-0.0118955,-0.00490607,0.0378031,0.00210387,-0.000271894,1.2729,-1.65704,1.25388,0.962157,2.76942,0.706082,-0.0245843,0.0585711,-0.329444,-0.0549247,0.596071,0.70253,0.149625,-0.00486313,0.0936211,0.0254627,0.0812781,-1.81683,0.229682,0.123839,0.0574416,0.0113688,0.0497675,-0.00519187,-0.0315769,-0.14139,0.0361797,0.000485763,0,0,0,0,0,0,0,3.30432,-32.5227,3.06367,29.8669,2.46887,2.14501,0.0101778,
0.0935187,0.0259348,0.0824463,-1.81687,0.236055,0.123017,0.0574089,-0.00912805,0.0119162,-0.0101651,-0.00349264,0.0418012,0.00335204,-0.000305704,1.09771,-1.49478,1.08148,0.883394,2.49882,0.780105,-0.0211309,0.0585406,-0.329444,-0.0549548,0.596078,0.702527,0.149608,-0.00486312,0.0936211,0.0254627,0.0812781,-1.81683,0.229682,0.123839,0.0574416,0.0113688,0.0497675,-0.00519187,-0.0315769,-0.14139,0.0361797,0.000485763,0,0,0,0,0,0,0,3.30432,-32.5227,3.06367,29.8669,2.46887,2.14501,0.0101778,
0.0936416,0.0262359,0.0812907,-1.81754,0.228714,0.124293,0.0574336,-0.00679029,0.0288611,-0.00781726,-0.0207725,0.00925088,0.0140161,-0.00044627,1.4611,10.5906,1.4674,-10.7999,-20.344,6.66506,-0.0878539,-0.00160236,30.5979,-0.113456,-22.5754,-1.89566,-1.37023,-0.00359143,0.0936211,0.0254627,0.0812781,-1.81683,0.229682,0.123839,0.0574416,0.0113688,0.0497675,-0.00519187,-0.0315769,-0.14139,0.0361797,0.000485763,0,0,0,0,0,0,0,3.30432,-32.5227,3.06367,29.8669,2.46887,2.14501,0.0101778,
0.0936296,0.0269058,0.0812643,-1.81796,0.228168,0.124304,0.0574269,-0.00573136,0.0398361,-0.00691305,-0.0269933,-0.00625752,0.0115047,-0.000524891,0.661831,6.85934,0.565128,-3.88803,-9.69275,-1.56966,-0.0491383,0.0597082,-0.366504,-0.0483483,0.592183,0.714614,0.14086,-0.00484891,0.0940264,0.0243151,0.0811412,-1.81773,0.22669,0.124893,0.0574372,0.00657634,0.0162965,-0.00179972,-0.00552187,-0.0520967,0.0557642,0.000553385,-0.599056,-4.18388,0.424018,3.25687,11.1617,2.44806,0.00845272,2.38788,-36.6408,2.21467,30.6644,2.07794,2.3565,0.050461,
0.0935988,0.0274403,0.081221,-1.81825,0.227928,0.124174,0.0574209,-0.00535382,0.0452322,-0.00661333,-0.0289437,-0.010994,0.00595436,-0.000569382,0.235959,3.37259,0.187324,-1.219,-2.96029,-3.46895,-0.0278067,0.0596735,-0.366501,-0.0483825,0.592192,0.714607,0.14084,-0.00484891,0.0940264,0.0243151,0.0811412,-1.81773,0.22669,0.124893,0.0574372,0.00657634,0.0162965,-0.00179972,-0.00552187,-0.0520967,0.0557642,0.000553385,0,0,0,0,0,0,0,2.38788,-36.6408,2.21467,30.6644,2.07794,2.3565,0.050461,
0.0935611,0.0278589,0.0811718,-1.81847,0.2279,0.124005,0.0574159,-0.0052268,0.0466508,-0.00652135,-0.0286977,-0.00949981,0.000537601,-0.000578607,0.0793861,0.886627,0.0574887,0.153778,0.933854,-3.38547,-0.00576588,0.0596392,-0.366498,-0.0484165,0.592201,0.714602,0.14082,-0.0048489,0.0940264,0.0243151,0.0811412,-1.81773,0.22669,0.124893,0.0574372,0.00657634,0.0162965,-0.00179972,-0.00552187,-0.0520967,0.0557642,0.000553385,0,0,0,0,0,0,0,2.38788,-36.6408,2.21467,30.6644,2.07794,2.3565,0.050461,
0.0940087,0.0244872,0.0811016,-1.81776,0.226766,0.1254,0.0574239,-0.00456979,0.0391381,-0.00585689,-0.0231079,-0.00395908,0.00567741,-0.000613296,0.410632,-4.69544,0.415286,3.49363,3.46296,3.21238,-0.0216803,0.0597082,-0.366504,-0.0483483,0.592183,0.714614,0.14086,-0.00484891,0.0940264,0.0243151,0.0811412,-1.81773,0.22669,0.124893,0.0574372,0.00657634,0.0162965,-0.00179972,-0.00552187,-0.0520967,0.0557642,0.000553385,0,0,0,0,0,0,0,2.38788,-36.6408,2.21467,30.6644,2.07794,2.3565,0.050461,
0.0939885,0.0245385,0.081072,-1.81775,0.227047,0.125559,0.0574189,-0.00416129,0.0325939,-0.00542476,-0.0183747,0.00385047,0.00852822,-0.000614201,0.255317,-4.09012,0.270082,2.95826,4.88096,1.78175,-0.000565919,0.0596735,-0.366501,-0.0483825,0.592192,0.714607,0.14084,-0.00484891,0.0940264,0.0243151,0.0811412,-1.81773,0.22669,0.124893,0.0574372,0.00657634,0.0162965,-0.00179972,-0.00552187,-0.0520967,0.0557642,0.000553385,0,0,0,0,0,0,0,2.38788,-36.6408,2.21467,30.6644,2.07794,2.3565,0.050461,
0.093968,0.0245731,0.0810426,-1.81774,0.227414,0.125689,0.0574146,-0.00384119,0.0269388,-0.0050763,-0.0143831,0.0122549,0.0100803,-0.000599594,0.20006,-3.53443,0.21779,2.49472,5.25278,0.970034,0.0091296,0.0596392,-0.366498,-0.0484165,0.592201,0.714602,0.14082,-0.0048489,0.0940264,0.0243151,0.0811412,-1.81773,0.22669,0.124893,0.0574372,0.00657634,0.0162965,-0.00179972,-0.00552187,-0.0520967,0.0557642,0.000553385,0,0,0,0,0,0,0,2.38788,-36.6408,2.21467,30.6644,2.07794,2.3565,0.050461,
0.0939494,0.0245945,0.0810152,-1.81772,0.227837,0.125803,0.0574106,-0.00353853,0.0220862,-0.00474603,-0.0110257,0.0203864,0.010913,-0.000579618,0.189165,-3.03288,0.206417,2.09837,5.08218,0.52043,0.0124849,0.059605,-0.366497,-0.0484502,0.592209,0.714597,0.140801,-0.00484889,0.0940264,0.0243151,0.0811412,-1.81773,0.22669,0.124893,0.0574372,0.00657634,0.0162965,-0.00179972,-0.00552187,-0.0520967,0.0557642,0.000553385,0,0,0,0,0,0,0,2.38788,-36.6408,2.21467,30.6644,2.07794,2.3565,0.050461,
0.0939885,0.0245385,0.081072,-1.81775,0.227047,0.125559,0.0574189,-0.00333635,0.0189524,-0.00453615,-0.00870889,0.0233268,0.0127161,-0.00058726,0.12636,-1.95863,0.131176,1.44803,1.83774,1.12696,-0.00477647,0.0596392,-0.366498,-0.0484165,0.592201,0.714602,0.14082,-0.0048489,0.0940264,0.0243151,0.0811412,-1.81773,0.22669,0.124893,0.0574372,0.00657634,0.0162965,-0.00179972,-0.00552187,-0.0520967,0.0557642,0.000553385,0,0,0,0,0,0,0,2.38788,-36.6408,2.21467,30.6644,2.07794,2.3565,0.050461,
0.093968,0.0245731,0.0810426,-1.81774,0.227414,0.125689,0.0574146,-0.00318133,0.0160256,-0.0043655,-0.00665044,0.0278359,0.01343,-0.000578042,0.0968854,-1.82924,0.106656,1.28653,2.8182,0.446161,0.00576146,0.0566004,-0.333971,-0.0556575,0.614966,0.731555,0.156665,-0.00491215,0.0939184,0.0254566,0.0807145,-1.81834,0.222336,0.123693,0.057435,0.00925265,0.105985,0.0115573,-0.0299943,-0.0956291,-0.000975129,-0.00120405,0.334538,11.211,1.66963,-3.05906,-5.44156,-7.09242,-0.21968,0.134464,-24.1637,0.0128308,23.19,1.55243,1.9793,0.0706026,
0.0939494,0.0245945,0.0810152,-1.81772,0.227837,0.125803,0.0574106,-0.00301074,0.0133557,-0.00417749,-0.00483954,0.0328511,0.013592,-0.000562377,0.106619,-1.66873,0.117504,1.13181,3.13452,0.10131,0.00979063,0.0565664,-0.33397,-0.0556911,0.614975,0.731551,0.156646,-0.00491214,0.0939184,0.0254566,0.0807145,-1.81834,0.222336,0.123693,0.057435,0.00925265,0.105985,0.0115573,-0.0299943,-0.0956291,-0.000975129,-0.00120405,0,0,0,0,0,0,0,0.134464,-24.1637,0.0128308,23.19,1.55243,1.9793,0.0706026,
0.093964,0.0268896,0.0807231,-1.81902,0.222137,0.123377,0.0574115,-0.00248574,0.0196003,-0.0037005,-0.00838143,0.0297607,0.00737393,-0.000587927,0.328128,3.90293,0.29812,-2.21369,-1.93152,-3.88632,-0.0159687,0.0565664,-0.33397,-0.0556911,0.614975,0.731551,0.156646,-0.00491214,0.0939184,0.0254566,0.0807145,-1.81834,0.222336,0.123693,0.057435,0.00925265,0.105985,0.0115573,-0.0299943,-0.0956291,-0.000975129,-0.00120405,0,0,0,0,0,0,0,0.134464,-24.1637,0.0128308,23.19,1.55243,1.9793,0.0706026,
0.0939547,0.0271648,0.0807031,-1.81916,0.222391,0.123242,0.0574069,-0.00222161,0.0225602,-0.00345969,-0.0101323,0.0301529,0.00252816,-0.000586286,0.165081,1.84991,0.150505,-1.09431,0.24515,-3.02861,0.00102566,0.0565326,-0.33397,-0.0557244,0.614983,0.731547,0.156627,-0.00491213,0.0939184,0.0254566,0.0807145,-1.81834,0.222336,0.123693,0.057435,0.00925265,0.105985,0.0115573,-0.0299943,-0.0956291,-0.000975129,-0.00120405,0,0,0,0,0,0,0,0.134464,-24.1637,0.0128308,23.19,1.55243,1.9793,0.0706026,
0.0939433,0.0273771,0.0806814,-1.81926,0.222724,0.123128,0.0574027,-0.00206242,0.0233568,-0.00331037,-0.0106408,0.0324395,-0.000826799,-0.000573463,0.0994943,0.497905,0.0933258,-0.317804,1.42912,-2.09685,0.00801431,0.0603731,-0.325733,-0.0545991,0.606549,0.731375,0.15007,-0.00492238,0.0942931,0.0259708,0.0812778,-1.81793,0.222329,0.124388,0.0574482,0.00756027,-0.0260748,0.0111343,0.00268784,0.033053,0.00313315,-0.00116596,-0.211547,-16.5075,-0.0528791,4.08527,16.0853,0.513535,0.00476159,-0.754208,-42.3814,-0.610033,29.7678,1.06994,2.8344,0.0239107,
0.093932,0.0275406,0.08066,-1.81933,0.223113,0.123042,0.0573987,-0.00193221,0.0227716,-0.00318304,-0.0103221,0.0356712,-0.00280989,-0.000557389,0.0813773,-0.365782,0.0795803,0.199206,2.01979,-1.23943,0.0100461,0.0603394,-0.325733,-0.0546322,0.606558,0.731374,0.150052,-0.00492236,0.0942931,0.0259708,0.0812778,-1.81793,0.222329,0.124388,0.0574482,0.00756027,-0.0260748,0.0111343,0.00268784,0.033053,0.00313315,-0.00116596,0,0,0,0,0,0,0,-0.754208,-42.3814,-0.610033,29.7678,1.06994,2.8344,0.0239107,
0.0943499,0.0258292,0.0813239,-1.81787,0.222742,0.124415,0.0574421,-0.000124519,0.0146763,-0.00139306,-0.00661203,0.0388576,-0.00157304,-0.000596791,1.12981,-5.05955,1.11874,2.31879,1.99149,0.773034,-0.0246258,0.0604407,-0.325733,-0.0545326,0.606532,0.731381,0.150107,-0.0049224,0.0942931,0.0259708,0.0812778,-1.81793,0.222329,0.124388,0.0574482,0.00756027,-0.0260748,0.0111343,0.00268784,0.033053,0.00313315,-0.00116596,0,0,0,0,0,0,0,-0.754208,-42.3814,-0.610033,29.7678,1.06994,2.8344,0.0239107,
0.0943914,0.0257222,0.0813551,-1.8178,0.223244,0.12447,0.0574368,0.000937662,0.00906669,-0.000335772,-0.00351564,0.0436386,0.000138092,-0.000611952,0.663863,-3.50602,0.660806,1.93524,2.98813,1.06946,-0.00947605,0.0604068,-0.325732,-0.0545659,0.606541,0.731378,0.150088,-0.00492239,0.0942931,0.0259708,0.0812778,-1.81793,0.222329,0.124388,0.0574482,0.00756027,-0.0260748,0.0111343,0.00268784,0.033053,0.00313315,-0.00116596,0,0,0,0,0,0,0,-0.754208,-42.3814,-0.610033,29.7678,1.06994,2.8344,0.0239107,
0.0944227,0.0256371,0.0813765,-1.81773,0.223796,0.124551,0.0574319,0.00153211,0.00512567,0.000266807,-0.001097,0.0487096,0.00212002,-0.000611712,0.371529,-2.46314,0.376612,1.51165,3.16935,1.2387,0.000150027,0.0603731,-0.325733,-0.0545991,0.606549,0.731375,0.15007,-0.00492238,0.0942931,0.0259708,0.0812778,-1.81793,0.222329,0.124388,0.0574482,0.00756027,-0.0260748,0.0111343,0.00268784,0.033053,0.00313315,-0.00116596,0,0,0,0,0,0,0,-0.754208,-42.3814,-0.610033,29.7678,1.06994,2.8344,0.0239107,
0.0944471,0.025567,0.0813913,-1.81766,0.224374,0.124648,0.0574273,0.00183683,0.00234839,0.000585387,0.000754428,0.0534167,0.00412673,-0.000603098,0.190448,-1.7358,0.199113,1.15714,2.94195,1.25419,0.00538415,0.0620394,-0.31985,-0.054386,0.610827,0.728705,0.150636,-0.0049213,0.0942409,0.0262777,0.0812901,-1.81742,0.223242,0.124301,0.0574516,0.0116211,-0.082795,0.00686466,-0.0382749,0.0113193,-0.0546736,-0.00440071,0.507599,-7.09004,-0.533702,-5.12034,-2.71671,-7.22584,-0.404344,-0.603451,-33.0742,-0.538622,21.2738,1.14959,1.57464,-0.0365141,
0.0943902,0.02547,0.0814068,-1.81725,0.224409,0.123379,0.0574387,0.00240818,-0.00269765,0.00115838,0.00263644,0.055195,-0.000678352,-0.000598602,0.357095,-3.15378,0.358121,1.17626,1.11145,-3.00317,0.00280939,0.062073,-0.31985,-0.054353,0.610819,0.728707,0.150654,-0.00492131,0.0942409,0.0262777,0.0812901,-1.81742,0.223242,0.124301,0.0574516,0.0116211,-0.082795,0.00686466,-0.0382749,0.0113193,-0.0546736,-0.00440071,0,0,0,0,0,0,0,-0.603451,-33.0742,-0.538622,21.2738,1.14959,1.57464,-0.0365141,
0.0944203,0.0253311,0.0814274,-1.81717,0.224959,0.12332,0.0574342,0.00267879,-0.00563028,0.00143956,0.00405734,0.0579263,-0.00200185,-0.000590545,0.169136,-1.83289,0.175738,0.888064,1.70709,-0.827186,0.00503596,0.0620394,-0.31985,-0.054386,0.610827,0.728705,0.150636,-0.0049213,0.0942409,0.0262777,0.0812901,-1.81742,0.223242,0.124301,0.0574516,0.0116211,-0.082795,0.00686466,-0.0382749,0.0113193,-0.0546736,-0.00440071,0,0,0,0,0,0,0,-0.603451,-33.0742,-0.538622,21.2738,1.14959,1.57464,-0.0365141,
0.0944451,0.0252225,0.0814428,-1.8171,0.225538,0.123329,0.0574299,0.00276206,-0.00721943,0.0015369,0.00507529,0.0608035,-0.00138034,-0.000580122,0.0520407,-0.993219,0.0608368,0.636221,1.79821,0.388445,0.00651452,0.0620058,-0.319851,-0.054419,0.610835,0.728704,0.150619,-0.00492128,0.0942409,0.0262777,0.0812901,-1.81742,0.223242,0.124301,0.0574516,0.0116211,-0.082795,0.00686466,-0.0382749,0.0113193,-0.0546736,-0.00440071,0,0,0,0,0,0,0,-0.603451,-33.0742,-0.538622,21.2738,1.14959,1.57464,-0.0365141,
0.0943734,0.0269471,0.0817125,-1.81773,0.224264,0.12394,0.0574423,0.00300548,-0.00871626,0.00183706,0.00619728,0.0604129,-0.000722242,-0.000602635,0.152137,-0.935519,0.187599,0.70124,-0.244121,0.411309,-0.0140709,0.0597864,-0.298105,-0.0604316,0.611971,0.725727,0.157704,-0.00495605,0.0943416,0.0270647,0.0816882,-1.81782,0.223793,0.123925,0.0574479,-0.0111979,-0.01769,0.0221346,0.0148638,0.043977,-0.00985781,0.000166709,-2.85237,8.13813,1.90874,6.64233,4.08221,5.60197,0.570927,7.0058,-41.5324,6.76118,37.3135,2.1878,3.80211,-0.0026396,
0.0943982,0.0268528,0.0817271,-1.81766,0.224794,0.124004,0.0574375,0.00302517,-0.00933133,0.0018362,0.00682186,0.0615873,0.00100765,-0.000603834,0.0123039,-0.38442,-0.000537881,0.390364,0.733987,1.08118,-0.000749114,0.0597528,-0.298106,-0.0604647,0.611979,0.725726,0.157686,-0.00495604,0.0943416,0.0270647,0.0816882,-1.81782,0.223793,0.123925,0.0574479,-0.0111979,-0.01769,0.0221346,0.0148638,0.043977,-0.00985781,0.000166709,0,0,0,0,0,0,0,7.0058,-41.5324,6.76118,37.3135,2.1878,3.80211,-0.0026396,
0.0944176,0.0267763,0.0817366,-1.81759,0.225356,0.124095,0.057433,0.00290559,-0.00937687,0.00170609,0.00718239,0.0633103,0.00308923,-0.000595415,-0.0747325,-0.0284614,-0.0813159,0.225334,1.07687,1.30098,0.00526173,0.0597192,-0.298107,-0.0604976,0.611988,0.725725,0.157668,-0.00495602,0.0943416,0.0270647,0.0816882,-1.81782,0.223793,0.123925,0.0574479,-0.0111979,-0.01769,0.0221346,0.0148638,0.043977,-0.00985781,0.000166709,0,0,0,0,0,0,0,7.0058,-41.5324,6.76118,37.3135,2.1878,3.80211,-0.0026396,
0.0944335,0.0267129,0.0817426,-1.81752,0.225933,0.124203,0.0574287,0.00271976,-0.00908674,0.00151595,0.00737307,0.0650823,0.00517424,-0.000583615,-0.116148,0.181333,-0.118837,0.119174,1.10752,1.30314,0.00737524,0.0596856,-0.298108,-0.0605305,0.611996,0.725725,0.157651,-0.004956,0.0943416,0.0270647,0.0816882,-1.81782,0.223793,0.123925,0.0574479,-0.0111979,-0.01769,0.0221346,0.0148638,0.043977,-0.00985781,0.000166709,0,0,0,0,0,0,0,7.0058,-41.5324,6.76118,37.3135,2.1878,3.80211,-0.0026396,
0.094721,0.0252246,0.0821141,-1.81733,0.225728,0.124458,0.057427,0.00255508,-0.00994085,0.00135405,0.00802753,0.0647779,0.00724409,-0.000586951,-0.102923,-0.533818,-0.101189,0.409039,-0.190241,1.29365,-0.00208553,0.0597098,-0.337375,-0.054568,0.603622,0.72293,0.149294,-0.00491004,0.0946503,0.0256248,0.0820723,-1.81764,0.224454,0.12418,0.0574443,-0.000401067,-0.0217629,0.0133902,0.0275269,0.0114873,-0.011883,0.000363647,1.34961,-0.509116,-1.09305,1.58288,-4.0612,-0.253154,0.0246173,0.511356,-41.4848,0.588087,32.7075,1.53412,2.66869,0.0303194,
0.0947323,0.0251368,0.0821162,-1.81725,0.226273,0.124592,0.0574225,0.00232677,-0.0101468,0.00113442,0.00836308,0.0654338,0.0091535,-0.000579986,-0.142696,-0.128689,-0.137267,0.209715,0.409956,1.19338,0.00435355,0.0596762,-0.337376,-0.0546008,0.603631,0.72293,0.149277,-0.00491001,0.0946503,0.0256248,0.0820723,-1.81764,0.224454,0.12418,0.0574443,-0.000401067,-0.0217629,0.0133902,0.0275269,0.0114873,-0.011883,0.000363647,0,0,0,0,0,0,0,0.511356,-41.4848,0.588087,32.7075,1.53412,2.66869,0.0303194,
0.0947414,0.0250632,0.0821162,-1.81718,0.226836,0.12473,0.0574183,0.00208853,-0.00995771,0.000906923,0.008488,0.066436,0.0107815,-0.000569131,-0.148896,0.11815,-0.142188,0.0780752,0.626381,1.01749,0.00678441,0.0596426,-0.337377,-0.0546336,0.603639,0.72293,0.14926,-0.00490999,0.0946503,0.0256248,0.0820723,-1.81764,0.224454,0.12418,0.0574443,-0.000401067,-0.0217629,0.0133902,0.0275269,0.0114873,-0.011883,0.000363647,0,0,0,0,0,0,0,0.511356,-41.4848,0.588087,32.7075,1.53412,2.66869,0.0303194,
0.0947492,0.0250001,0.0821149,-1.81711,0.227409,0.124869,0.0574143,0.00186547,-0.00954386,0.000694676,0.00847236,0.0674732,0.0120971,-0.000557387,-0.139414,0.258654,-0.132654,-0.00977408,0.648229,0.822241,0.00733975,0.0596092,-0.337379,-0.0546665,0.603648,0.722932,0.149244,-0.00490997,0.0946503,0.0256248,0.0820723,-1.81764,0.224454,0.12418,0.0574443,-0.000401067,-0.0217629,0.0133902,0.0275269,0.0114873,-0.011883,0.000363647,0,0,0,0,0,0,0,0.511356,-41.4848,0.588087,32.7075,1.53412,2.66869,0.0303194,
0.0946838,0.0254635,0.0820965,-1.81751,0.224777,0.124231,0.0574373,0.00232982,-0.0116687,0.00115991,0.00988301,0.0620546,0.010965,-0.000620676,0.29022,-1.32805,0.290774,0.881658,-3.38664,-0.707573,-0.0395557,0.0612291,-0.358624,-0.0496154,0.594853,0.722578,0.140276,-0.00486269,0.0949319,0.0247704,0.0824718,-1.81687,0.224509,0.124388,0.0574456,-0.0084495,0.0286287,-0.000316552,0.0672962,0.0144892,0.0212047,0.000462225,-1.00605,6.29895,-1.71334,4.97117,0.375228,4.13597,0.0123222,-1.18664,-32.0744,-1.0623,21.0239,1.02691,1.39519,0.017502,
0.0947058,0.0253314,0.0821085,-1.81742,0.22522,0.124334,0.0574318,0.00241293,-0.0126361,0.00122836,0.0103301,0.0607145,0.0113283,-0.000635795,0.0519419,-0.604595,0.0427754,0.279435,-0.837558,0.227115,-0.00944923,0.0611955,-0.358625,-0.0496482,0.594862,0.722578,0.140259,-0.00486267,0.0949319,0.0247704,0.0824718,-1.81687,0.224509,0.124388,0.0574456,-0.0084495,0.0286287,-0.000316552,0.0672962,0.0144892,0.0212047,0.000462225,0,0,0,0,0,0,0,-1.18664,-32.0744,-1.0623,21.0239,1.02691,1.39519,0.017502,
0.094721,0.0252246,0.0821141,-1.81733,0.225728,0.124458,0.057427,0.00230962,-0.0127803,0.00112397,0.0103932,0.0612837,0.0121674,-0.000628696,-0.0645698,-0.0901487,-0.0652394,0.0394098,0.355734,0.524392,0.00443702,0.061162,-0.358626,-0.049681,0.59487,0.722579,0.140242,-0.00486265,0.0949319,0.0247704,0.0824718,-1.81687,0.224509,0.124388,0.0574456,-0.0084495,0.0286287,-0.000316552,0.0672962,0.0144892,0.0212047,0.000462225,0,0,0,0,0,0,0,-1.18664,-32.0744,-1.0623,21.0239,1.02691,1.39519,0.017502,
0.0947323,0.0251368,0.0821162,-1.81725,0.226273,0.124592,0.0574225,0.0021304,-0.0124183,0.000950361,0.0102556,0.0626384,0.0130921,-0.000613381,-0.112014,0.226246,-0.108507,-0.085989,0.846736,0.577969,0.00957159,0.0611285,-0.358628,-0.0497139,0.594879,0.722581,0.140226,-0.00486263,0.0949319,0.0247704,0.0824718,-1.81687,0.224509,0.124388,0.0574456,-0.0084495,0.0286287,-0.000316552,0.0672962,0.0144892,0.0212047,0.000462225,0,0,0,0,0,0,0,-1.18664,-32.0744,-1.0623,21.0239,1.02691,1.39519,0.017502,
0.0948549,0.0248021,0.0823785,-1.81661,0.225276,0.125179,0.057432,0.000778707,-0.0101188,-0.000379148,0.0104944,0.0607508,0.0199478,-0.000620073,-0.844805,1.43723,-0.830943,0.149285,-1.17976,4.28481,-0.0041822,0.0605033,-0.342149,-0.0522446,0.591504,0.722526,0.136659,-0.00484609,0.0948074,0.0252117,0.0824375,-1.81621,0.224486,0.124855,0.0574417,-0.00325181,0.0127002,-0.00614714,0.01404,0.0109984,0.0186597,0.000296036,0.649712,-1.99106,-0.728823,-6.65702,-0.436343,-0.318124,-0.0207736,0.562931,-31.9515,0.663466,21.0754,1.30157,1.39519,0.0239107,
0.0948229,0.0247808,0.0823381,-1.81654,0.225745,0.125493,0.0574279,-0.000174776,-0.00862858,-0.00131392,0.010174,0.0603126,0.0238017,-0.000599261,-0.595927,0.931364,-0.584233,-0.200285,-0.273889,2.40867,0.0130074,0.0604698,-0.34215,-0.0522774,0.591512,0.722527,0.136642,-0.00484607,0.0948074,0.0252117,0.0824375,-1.81621,0.224486,0.124855,0.0574417,-0.00325181,0.0127002,-0.00614714,0.01404,0.0109984,0.0186597,0.000296036,0,0,0,0,0,0,0,0.562931,-31.9515,0.663466,21.0754,1.30157,1.39519,0.0239107,
0.0947965,0.024754,0.0823031,-1.81647,0.22624,0.125752,0.0574241,-0.000801074,-0.00757203,-0.00192499,0.00973501,0.06062,0.0255182,-0.000574806,-0.391436,0.660341,-0.381915,-0.274358,0.192148,1.07284,0.0152841,0.0604363,-0.342152,-0.0523103,0.591521,0.722529,0.136626,-0.00484605,0.0948074,0.0252117,0.0824375,-1.81621,0.224486,0.124855,0.0574417,-0.00325181,0.0127002,-0.00614714,0.01404,0.0109984,0.0186597,0.000296036,0,0,0,0,0,0,0,0.562931,-31.9515,0.663466,21.0754,1.30157,1.39519,0.0239107,
0.0947752,0.0247248,0.0822733,-1.81641,0.226752,0.12597,0.0574204,-0.00117442,-0.006789,-0.00228655,0.00928454,0.0613089,0.0258745,-0.000552659,-0.23334,0.489393,-0.225978,-0.281545,0.430541,0.222648,0.013842,0.0604029,-0.342153,-0.0523431,0.591529,0.722531,0.13661,-0.00484603,0.0948074,0.0252117,0.0824375,-1.81621,0.224486,0.124855,0.0574417,-0.00325181,0.0127002,-0.00614714,0.01404,0.0109984,0.0186597,0.000296036,0,0,0,0,0,0,0,0.562931,-31.9515,0.663466,21.0754,1.30157,1.39519,0.0239107,
0.0947102,0.0252945,0.0823129,-1.81611,0.225512,0.125341,0.0574282,-0.0016574,-0.00511998,-0.00276959,0.00815548,0.0594108,0.0242589,-0.000539624,-0.301866,1.04314,-0.301898,-0.70566,-1.18633,-1.00972,0.00814675,0.0602162,-0.360734,-0.0498174,0.590047,0.723041,0.135039,-0.00483864,0.0948293,0.0245931,0.082473,-1.81676,0.224405,0.125118,0.0574365,-0.00372818,0.00972529,-0.00443103,-0.00625557,0.013197,0.00970971,-0.000172354,-0.0595462,-0.371859,0.214513,-2.53695,0.274815,-1.11875,-0.0585488,0.412174,-31.3524,0.461134,20.8255,1.42425,1.34209,0.0706026,
0.0946862,0.0252985,0.0822801,-1.81608,0.225967,0.125469,0.0574245,-0.00192544,-0.00399653,-0.00303616,0.00732257,0.0589079,0.0226145,-0.000524764,-0.167526,0.702157,-0.166606,-0.52057,-0.314271,-1.02775,0.00928752,0.0601828,-0.360736,-0.0498503,0.590056,0.723044,0.135022,-0.00483862,0.0948293,0.0245931,0.082473,-1.81676,0.224405,0.125118,0.0574365,-0.00372818,0.00972529,-0.00443103,-0.00625557,0.013197,0.00970971,-0.000172354,0,0,0,0,0,0,0,0.412174,-31.3524,0.461134,20.8255,1.42425,1.34209,0.0706026,
0.0946668,0.025296,0.0822519,-1.81604,0.22645,0.125589,0.0574208,-0.00202621,-0.00325828,-0.00313543,0.00672359,0.0592073,0.0210712,-0.000511244,-0.0629793,0.461404,-0.0620474,-0.374359,0.187072,-0.964585,0.00844996,0.0601495,-0.360737,-0.049883,0.590064,0.723048,0.135007,-0.0048386,0.0948293,0.0245931,0.082473,-1.81676,0.224405,0.125118,0.0574365,-0.00372818,0.00972529,-0.00443103,-0.00625557,0.013197,0.00970971,-0.000172354,0,0,0,0,0,0,0,0.412174,-31.3524,0.461134,20.8255,1.42425,1.34209,0.0706026,
