xiao-wang007/linearmpc_panda/paper_data/panda_inverse_dynamics_controller_opt_time_to_start_low_pass_acceleration/4/trajectory.csv
Commanded Joint 0 Position,Commanded Joint 1 Position,Commanded Joint 2 Position,Commanded Joint 3 Position,Commanded Joint 4 Position,Commanded Joint 5 Position,Commanded Joint 6 Position,Commanded Joint 0 Velocity,Commanded Joint 1 Velocity,Commanded Joint 2 Velocity,Commanded Joint 3 Velocity,Commanded Joint 4 Velocity,Commanded Joint 5 Velocity,Commanded Joint 6 Velocity,Commanded Joint 0 Acceleration,Commanded Joint 1 Acceleration,Commanded Joint 2 Acceleration,Commanded Joint 3 Acceleration,Commanded Joint 4 Acceleration,Commanded Joint 5 Acceleration,Commanded Joint 6 Acceleration,Commanded Joint 0 Torque,Commanded Joint 1 Torque,Commanded Joint 2 Torque,Commanded Joint 3 Torque,Commanded Joint 4 Torque,Commanded Joint 5 Torque,Commanded Joint 6 Torque,Actual Joint 0 Position,Actual Joint 1 Position,Actual Joint 2 Position,Actual Joint 3 Position,Actual Joint 4 Position,Actual Joint 5 Position,Actual Joint 6 Position,Actual Joint 0 Velocity,Actual Joint 1 Velocity,Actual Joint 2 Velocity,Actual Joint 3 Velocity,Actual Joint 4 Velocity,Actual Joint 5 Velocity,Actual Joint 6 Velocity,Actual Joint 0 Acceleration,Actual Joint 1 Acceleration,Actual Joint 2 Acceleration,Actual Joint 3 Acceleration,Actual Joint 4 Acceleration,Actual Joint 5 Acceleration,Actual Joint 6 Acceleration,Actual Joint 0 Torque,Actual Joint 1 Torque,Actual Joint 2 Torque,Actual Joint 3 Torque,Actual Joint 4 Torque,Actual Joint 5 Torque,Actual Joint 6 Torque,
-0.00993656,-0.0934374,0.0475985,-1.77053,-0.0365252,0.144799,0.000862807,0.00065432,0.0182462,0.000906843,-0.0340177,-0.00330044,0.0502128,-0.000359366,0.40895,11.4039,0.566777,-21.2611,-2.06278,31.383,-0.224604,0.0543455,21.1398,0.26912,-24.1241,-0.410254,1.94726,-0.0245172,-0.00999752,-0.0946931,0.0475109,-1.76708,-0.0362984,0.139404,0.00091224,-0.000815467,-4.31105e-05,0.00262241,0.0016168,-0.00154808,-0.00157566,0.000117486,0,0,0,0,0,0,0,-0.119442,-31.6261,-0.435472,26.8042,0.379635,3.17223,0.0303194,
-0.00998665,-0.0947016,0.0475229,-1.76707,-0.0362998,0.139406,0.000911832,0.000588505,0.0145369,0.000793895,-0.0271792,-0.00258576,0.040222,-0.000289671,-0.0411343,-2.31833,-0.0705926,4.27409,0.446674,-6.24427,0.0435596,0.0486177,21.5805,0.258784,-24.0405,-0.410732,1.69606,-0.0230029,-0.00999752,-0.0946931,0.0475109,-1.76708,-0.0362984,0.139404,0.00091224,-0.000815467,-4.31105e-05,0.00262241,0.0016168,-0.00154808,-0.00157566,0.000117486,0,0,0,0,0,0,0,-0.119442,-31.6261,-0.435472,26.8042,0.379635,3.17223,0.0303194,
-0.00998468,-0.0947035,0.0475249,-1.76707,-0.036297,0.139409,0.000911776,0.000520027,0.0115823,0.000686461,-0.0217154,-0.00199868,0.032231,-0.000233135,-0.0427986,-1.84664,-0.0671465,3.41486,0.366929,-4.99432,0.0353349,0.0414166,22.1521,0.247057,-23.9325,-0.410404,1.3482,-0.0210367,-0.00999752,-0.0946931,0.0475109,-1.76708,-0.0362984,0.139404,0.00091224,-0.000815467,-4.31105e-05,0.00262241,0.0016168,-0.00154808,-0.00157566,0.000117486,0,0,0,0,0,0,0,-0.119442,-31.6261,-0.435472,26.8042,0.379635,3.17223,0.0303194,
-0.00998316,-0.0947049,0.0475265,-1.76707,-0.0362942,0.139411,0.000911738,0.000453968,0.00922886,0.00058848,-0.0173493,-0.00152812,0.0258357,-0.000187454,-0.0412873,-1.4709,-0.061238,2.7288,0.294099,-3.99709,0.0285502,0.0354991,22.6762,0.237647,-23.7647,-0.40858,0.962728,-0.0190375,-0.00999752,-0.0946931,0.0475109,-1.76708,-0.0362984,0.139404,0.00091224,-0.000815467,-4.31105e-05,0.00262241,0.0016168,-0.00154808,-0.00157566,0.000117486,0,0,0,0,0,0,0,-0.119442,-31.6261,-0.435472,26.8042,0.379635,3.17223,0.0303194,
-0.0102572,-0.0947035,0.0472652,-1.76697,-0.0283639,0.136323,0.000892264,-0.000547908,0.00729341,-0.000479012,-0.0136982,0.0492541,0.000383503,-0.000161159,-0.626173,-1.20965,-0.667183,2.28191,31.7389,-15.9076,0.0164347,0.456116,0.139831,0.457059,-0.230928,3.03577,-1.26427,-0.000914151,-0.00999752,-0.0946931,0.0475109,-1.76708,-0.0362984,0.139404,0.00091224,-0.000815467,-4.31105e-05,0.00262241,0.0016168,-0.00154808,-0.00157566,0.000117486,0,0,0,0,0,0,0,-0.119442,-31.6261,-0.435472,26.8042,0.379635,3.17223,0.0303194,
-0.0102812,-0.0947058,0.0472395,-1.76697,-0.0262789,0.135472,0.000892136,-0.00103781,0.00577804,-0.00102381,-0.0109159,0.0915265,-0.0209533,-0.000132119,-0.306189,-0.947107,-0.340499,1.73895,26.4202,-13.3355,0.0181501,0.450315,0.139281,0.451115,-0.228361,3.00866,-1.25235,-0.000905962,-0.00999752,-0.0946931,0.0475109,-1.76708,-0.0362984,0.139404,0.00091224,-0.000815467,-4.31105e-05,0.00262241,0.0016168,-0.00154808,-0.00157566,0.000117486,0,0,0,0,0,0,0,-0.119442,-31.6261,-0.435472,26.8042,0.379635,3.17223,0.0303194,
-0.0102939,-0.0947065,0.0472253,-1.76697,-0.024157,0.134597,0.000892113,-0.00114865,0.00460588,-0.00117477,-0.00880059,0.126268,-0.0386326,-0.000106264,-0.0692732,-0.732602,-0.0943501,1.32208,21.7137,-11.0495,0.0161591,0.444671,0.138592,0.445351,-0.225802,2.98149,-1.24046,-0.000897713,-0.00999752,-0.0946931,0.0475109,-1.76708,-0.0362984,0.139404,0.00091224,-0.000815467,-4.31105e-05,0.00262241,0.0016168,-0.00154808,-0.00157566,0.000117486,0,0,0,0,0,0,0,-0.119442,-31.6261,-0.435472,26.8042,0.379635,3.17223,0.0303194,
-0.010297,-0.0947055,0.047221,-1.76698,-0.0220169,0.133709,0.000892087,-0.000995374,0.00370904,-0.00104718,-0.00719477,0.154518,-0.0531283,-8.56555e-05,0.0957965,-0.560522,0.0797421,1.00363,17.6559,-9.05981,0.0128803,0.438413,0.160973,0.437658,-0.219434,2.95426,-1.22247,-0.000911919,-0.0100034,-0.0941225,0.0475028,-1.76754,-0.0362811,0.139597,0.000905526,-0.00142557,0.0641175,0.00225698,-0.0410616,-0.013224,0.0198612,-0.00243182,-0.0762629,8.02007,-0.0456785,-5.33481,-1.45949,2.6796,-0.318663,0.0551182,-22.6402,-0.185533,17.2629,0.239559,1.5078,0.0907442,
-0.010687,-0.0926327,0.0468958,-1.76783,-0.00745665,0.122631,0.00083258,-0.00238661,0.00761952,-0.0023011,-0.00808837,0.310798,-0.153561,-0.000136498,-0.869524,2.44405,-0.783698,-0.558495,97.6753,-62.7702,-0.0317765,3.4758,1.60157,3.5711,-1.77651,11.1529,-6.73917,-0.00275608,-0.0100034,-0.0941225,0.0475028,-1.76754,-0.0362811,0.139597,0.000905526,-0.00142557,0.0641175,0.00225698,-0.0410616,-0.013224,0.0198612,-0.00243182,0,0,0,0,0,0,0,0.0551182,-22.6402,-0.185533,17.2629,0.239559,1.5078,0.0907442,
-0.0107019,-0.0924666,0.0468839,-1.76794,0.000358849,0.117995,0.000830819,-0.00228184,0.0102472,-0.00213852,-0.00922605,0.444026,-0.238748,-0.000153226,0.0654818,1.64231,0.101613,-0.711054,83.2674,-53.2423,-0.0104552,3.3725,1.57706,3.46507,-1.75893,11.1529,-6.66701,-0.00330284,-0.0100034,-0.0941225,0.0475028,-1.76754,-0.0362811,0.139597,0.000905526,-0.00142557,0.0641175,0.00225698,-0.0410616,-0.013224,0.0198612,-0.00243182,0,0,0,0,0,0,0,0.0551182,-22.6402,-0.185533,17.2629,0.239559,1.5078,0.0907442,
-0.0106746,-0.0923122,0.0469143,-1.76806,0.00839727,0.113242,0.000829321,-0.00114177,0.0120574,-0.000950424,-0.0104572,0.556181,-0.309816,-0.000160022,0.712544,1.13138,0.742559,-0.769457,70.0971,-44.4176,-0.00424725,3.2801,1.55877,3.36516,-1.7424,11.1529,-6.59677,-0.00365757,-0.0100034,-0.0941225,0.0475028,-1.76754,-0.0362811,0.139597,0.000905526,-0.00142557,0.0641175,0.00225698,-0.0410616,-0.013224,0.0198612,-0.00243182,0,0,0,0,0,0,0,0.0551182,-22.6402,-0.185533,17.2629,0.239559,1.5078,0.0907442,
-0.0106117,-0.0921645,0.0469809,-1.7682,0.0165895,0.108425,0.000827726,0.000659016,0.0133389,0.000905612,-0.0116781,0.649751,-0.368282,-0.000167888,1.12549,0.800941,1.16002,-0.763053,58.4808,-36.5411,-0.00491636,3.20933,1.56395,3.26526,-1.71887,11.1522,-6.52763,-0.00259232,-0.00994976,-0.0937628,0.0476578,-1.76863,-0.036073,0.139579,0.00091224,0.000168704,0.0156302,0.0149005,-0.0366472,0.0405088,-0.0152837,0.000582687,0.199284,-6.06091,1.58044,0.55181,6.7166,-4.39311,0.376813,1.4278,-33.225,1.11177,27.0026,0.893246,3.09258,0.0303194,
-0.00674769,-0.0944495,0.0511326,-1.77075,-0.0103586,0.107686,0.00144177,0.0220459,0.00186059,0.0237349,-0.0301527,0.696524,-0.485126,0.00141146,13.3668,-7.17397,14.2683,-11.5466,29.233,-73.0277,0.987094,22.1953,3.05,23.4644,-9.21062,11.1522,-14.2856,0.107551,-0.00994976,-0.0937628,0.0476578,-1.76863,-0.036073,0.139579,0.00091224,0.000168704,0.0156302,0.0149005,-0.0366472,0.0405088,-0.0152837,0.000582687,0,0,0,0,0,0,0,1.4278,-33.225,1.11177,27.0026,0.893246,3.09258,0.0303194,
-0.00585322,-0.0947992,0.0520939,-1.77166,-0.00278539,0.100181,0.00147778,0.0399984,-0.00725345,0.0430211,-0.0467511,0.746548,-0.575723,0.00202927,11.2203,-5.69628,12.0539,-10.3741,31.2651,-56.6229,0.386132,21.4125,0.324229,22.4142,-9.77065,11.1522,-13.8589,0.174123,-0.00994976,-0.0937628,0.0476578,-1.76863,-0.036073,0.139579,0.00091224,0.000168704,0.0156302,0.0149005,-0.0366472,0.0405088,-0.0152837,0.000582687,0,0,0,0,0,0,0,1.4278,-33.225,1.11177,27.0026,0.893246,3.09258,0.0303194,
-0.00493857,-0.0951209,0.0530783,-1.7726,0.00514817,0.092947,0.00150001,0.054865,-0.0138444,0.059027,-0.0609184,0.795577,-0.641421,0.00217929,9.29166,-4.11935,10.0037,-8.85451,30.6435,-41.0609,0.0937581,19.6955,-2.55313,20.5496,-11.0351,11.1522,-12.7705,0.172848,-0.00994976,-0.0937628,0.0476578,-1.76863,-0.036073,0.139579,0.00091224,0.000168704,0.0156302,0.0149005,-0.0366472,0.0405088,-0.0152837,0.000582687,0,0,0,0,0,0,0,1.4278,-33.225,1.11177,27.0026,0.893246,3.09258,0.0303194,
-0.00675284,-0.0937813,0.0510814,-1.77264,-0.0102122,0.112357,0.00104624,0.0662994,-0.00989199,0.0708897,-0.0763367,0.812062,-0.673307,0.00201472,7.1465,2.47027,7.41418,-9.63647,10.303,-19.9288,-0.102854,22.2508,3.59952,23.2056,-17.5069,11.122,-13.7517,0.0699576,-0.00963394,-0.0930203,0.0484587,-1.76961,-0.0298307,0.136518,0.00090747,0.0228656,0.031094,0.0522358,-0.0647609,0.417859,-0.24589,-1.58115e-05,2.83711,1.93299,4.66691,-3.51422,47.1688,-28.8258,-0.0748123,6.14093,-28.7062,5.93599,21.5237,2.22992,1.21667,0.0843355,
-0.00578744,-0.0936785,0.0520994,-1.77382,-0.00272002,0.106127,0.00105525,0.0771747,-0.00534386,0.0821615,-0.090643,0.836954,-0.694387,0.00183709,6.79704,2.84258,7.04487,-8.9414,15.5572,-13.175,-0.111016,20.493,3.67707,21.3977,-17.1914,11.122,-12.1892,0.0364044,-0.00963394,-0.0930203,0.0484587,-1.76961,-0.0298307,0.136518,0.00090747,0.0228656,0.031094,0.0522358,-0.0647609,0.417859,-0.24589,-1.58115e-05,0,0,0,0,0,0,0,6.14093,-28.7062,5.93599,21.5237,2.22992,1.21667,0.0843355,
-0.00477312,-0.0935236,0.0531679,-1.77506,0.00511632,0.100206,0.00106432,0.0870978,-0.000404147,0.0924403,-0.103454,0.865471,-0.70354,0.00169634,6.20192,3.08732,6.42425,-8.00671,17.8236,-5.7206,-0.0879732,19.1556,3.76262,20.0225,-16.863,11.122,-10.8747,0.0186999,-0.00963394,-0.0930203,0.0484587,-1.76961,-0.0298307,0.136518,0.00090747,0.0228656,0.031094,0.0522358,-0.0647609,0.417859,-0.24589,-1.58115e-05,0,0,0,0,0,0,0,6.14093,-28.7062,5.93599,21.5237,2.22992,1.21667,0.0843355,
-0.00372616,-0.0933231,0.0542701,-1.77633,0.0132054,0.0946677,0.00107378,0.0958522,0.00468889,0.101507,-0.114581,0.894605,-0.701287,0.00159362,5.47148,3.18315,5.66661,-6.95485,18.2082,1.40789,-0.0641963,18.0989,3.79287,18.9348,-16.5659,11.122,-9.7427,0.00910185,-0.00963394,-0.0930203,0.0484587,-1.76961,-0.0298307,0.136518,0.00090747,0.0228656,0.031094,0.0522358,-0.0647609,0.417859,-0.24589,-1.58115e-05,0,0,0,0,0,0,0,6.14093,-28.7062,5.93599,21.5237,2.22992,1.21667,0.0843355,
-0.00488111,-0.0930794,0.0534306,-1.77691,0.00107568,0.107369,0.000853835,0.10666,0.00384109,0.112576,-0.136867,0.901367,-0.719435,0.000787399,6.75502,-0.529875,6.91851,-13.9282,4.22634,-11.3427,-0.50389,24.4949,5.16205,25.4445,-25.2987,11.0257,-13.6238,-0.00499445,-0.00803975,-0.0932121,0.0514033,-1.77276,-0.00206829,0.117771,0.000909188,0.118906,-0.0483224,0.203501,-0.167206,0.974042,-0.780622,-0.000137553,12.0051,-9.92706,18.9082,-12.8057,69.5228,-66.8414,-0.0152177,21.7403,-29.6782,21.6861,20.6747,5.35095,-0.421213,0.0577852,
-0.00362445,-0.0930421,0.054746,-1.77879,0.00885501,0.101335,0.000834594,0.116745,0.0040047,0.122944,-0.156616,0.915577,-0.726412,0.000148887,6.30281,0.102258,6.47992,-12.3433,8.88114,-4.36039,-0.39907,23.028,4.36373,23.9609,-25.06,11.0257,-11.8938,-0.0216636,-0.00803975,-0.0932121,0.0514033,-1.77276,-0.00206829,0.117771,0.000909188,0.118906,-0.0483224,0.203501,-0.167206,0.974042,-0.780622,-0.000137553,0,0,0,0,0,0,0,21.7403,-29.6782,21.6861,20.6747,5.35095,-0.421213,0.0577852,
-0.00233019,-0.0929739,0.0561009,-1.78073,0.0168988,0.0957076,0.000817969,0.125752,0.00490803,0.132228,-0.17361,0.933555,-0.721804,-0.000296516,5.62964,0.564577,5.80207,-10.6212,11.2368,2.88017,-0.278377,21.8337,3.65832,22.7455,-24.8336,11.0257,-10.4287,-0.0288065,-0.00803975,-0.0932121,0.0514033,-1.77276,-0.00206829,0.117771,0.000909188,0.118906,-0.0483224,0.203501,-0.167206,0.974042,-0.780622,-0.000137553,0,0,0,0,0,0,0,21.7403,-29.6782,21.6861,20.6747,5.35095,-0.421213,0.0577852,
-0.00101376,-0.09288,0.0574792,-1.78268,0.0251389,0.0905439,0.000803991,0.133512,0.00627573,0.140242,-0.187838,0.952848,-0.706535,-0.000586675,4.85023,0.854817,5.00865,-8.89266,12.0576,9.543,-0.181349,20.8319,3.06369,21.7216,-24.5993,11.0257,-9.18465,-0.0325319,-0.00803975,-0.0932121,0.0514033,-1.77276,-0.00206829,0.117771,0.000909188,0.118906,-0.0483224,0.203501,-0.167206,0.974042,-0.780622,-0.000137553,0,0,0,0,0,0,0,21.7403,-29.6782,21.6861,20.6747,5.35095,-0.421213,0.0577852,
-0.000185048,-0.0939254,0.0595918,-1.78356,0.0388667,0.0851707,0.000656426,0.147577,0.00589516,0.154785,-0.210901,0.974908,-0.711242,-0.00179243,8.79019,-0.237859,9.08984,-14.4146,13.7879,-2.94201,-0.753598,25.2334,6.00039,26.2909,-32.4025,11.0257,-11.9045,-0.0654957,-0.00803975,-0.0932121,0.0514033,-1.77276,-0.00206829,0.117771,0.000909188,0.118906,-0.0483224,0.203501,-0.167206,0.974042,-0.780622,-0.000137553,0,0,0,0,0,0,0,21.7403,-29.6782,21.6861,20.6747,5.35095,-0.421213,0.0577852,
0.00143737,-0.0938266,0.061288,-1.78603,0.0474711,0.0798829,0.000607303,0.158622,0.00718462,0.166236,-0.230525,0.995035,-0.701188,-0.00266202,6.90324,0.80591,7.15642,-12.2648,12.5793,6.28365,-0.543495,23.8466,5.33182,24.8974,-32.1234,10.8944,-10.0543,-0.07498,-0.00343525,-0.0936557,0.0585431,-1.7803,0.0342155,0.0854481,0.000904058,0.137085,-0.00991268,0.238836,-0.261916,1.1597,-0.969556,-1.46951e-05,2.27227,4.80122,4.41679,-11.8387,23.2075,-23.6168,0.0153572,18.4157,-29.2061,17.937,26.7526,4.24591,1.36864,0.0577852,
0.00304295,-0.0936772,0.0629676,-1.78852,0.0561433,0.075168,0.000564476,0.167037,0.00948347,0.174978,-0.246766,1.01283,-0.678823,-0.00320027,5.25945,1.43678,5.46413,-10.1506,11.1246,13.9781,-0.336405,22.6897,4.68557,23.7018,-31.8093,10.8944,-8.64777,-0.0754296,-0.00343525,-0.0936557,0.0585431,-1.7803,0.0342155,0.0854481,0.000904058,0.137085,-0.00991268,0.238836,-0.261916,1.1597,-0.969556,-1.46951e-05,0,0,0,0,0,0,0,18.4157,-29.2061,17.937,26.7526,4.24591,1.36864,0.0577852,
0.00462579,-0.0934885,0.0646242,-1.79102,0.0648578,0.0710216,0.000527571,0.173201,0.0123032,0.181396,-0.259826,1.02813,-0.64672,-0.00348286,3.85226,1.76235,4.01128,-8.1625,9.55897,20.0642,-0.176615,21.7003,4.17566,22.6771,-31.475,10.8944,-7.40236,-0.0738941,-0.00343525,-0.0936557,0.0585431,-1.7803,0.0342155,0.0854481,0.000904058,0.137085,-0.00991268,0.238836,-0.261916,1.1597,-0.969556,-1.46951e-05,0,0,0,0,0,0,0,18.4157,-29.2061,17.937,26.7526,4.24591,1.36864,0.0577852,
0.00476113,-0.0938382,0.0671119,-1.79526,0.0782958,0.0596116,0.000469412,0.179732,0.0116607,0.188219,-0.285836,1.04118,-0.609879,-0.00468025,4.0823,-0.40155,4.26435,-16.2562,8.15483,23.0258,-0.748375,22.9024,4.48168,23.9758,-39.2111,10.8944,-7.56089,-0.13041,-0.00343525,-0.0936557,0.0585431,-1.7803,0.0342155,0.0854481,0.000904058,0.137085,-0.00991268,0.238836,-0.261916,1.1597,-0.969556,-1.46951e-05,0,0,0,0,0,0,0,18.4157,-29.2061,17.937,26.7526,4.24591,1.36864,0.0577852,
0.00638587,-0.0937356,0.0688138,-1.79838,0.0870358,0.0565904,0.000402132,0.184404,0.0118926,0.193122,-0.306485,1.05144,-0.563434,-0.00542622,2.92,0.144935,3.06417,-12.9057,6.41412,29.0283,-0.466229,22.0409,3.24234,23.1022,-38.4712,10.8369,-5.88898,-0.12859,0.00241464,-0.093699,0.0676403,-1.79062,0.0668529,0.0572522,0.000907471,0.199041,0.0193643,0.314347,-0.305597,0.854274,-0.705524,0.000570753,7.74454,3.65962,9.43893,-5.46017,-38.1785,33.004,0.073181,1.75708,-27.3335,1.26253,23.5669,1.67419,1.32287,0.0303194,
0.00798359,-0.0936134,0.070488,-1.80147,0.0957645,0.0542034,0.000345104,0.187467,0.0125687,0.196353,-0.322449,1.05937,-0.510424,-0.00576666,1.91388,0.422524,2.01929,-9.97706,4.95601,33.1313,-0.212778,21.1939,2.53645,22.2117,-38.0762,10.8369,-4.64614,-0.118273,0.00241464,-0.093699,0.0676403,-1.79062,0.0668529,0.0572522,0.000907471,0.199041,0.0193643,0.314347,-0.305597,0.854274,-0.705524,0.000570753,0,0,0,0,0,0,0,1.75708,-27.3335,1.26253,23.5669,1.67419,1.32287,0.0303194,
0.0111499,-0.0935537,0.0768077,-1.80816,0.108512,0.0465929,0.000411669,0.191028,0.01329,0.200032,-0.346426,1.06368,-0.426297,-0.00640709,2.22586,0.450819,2.29947,-14.986,2.69625,52.579,-0.400268,21.1856,3.38299,22.1532,-44.4406,10.8369,-2.33358,-0.146343,0.00241464,-0.093699,0.0676403,-1.79062,0.0668529,0.0572522,0.000907471,0.199041,0.0193643,0.314347,-0.305597,0.854274,-0.705524,0.000570753,0,0,0,0,0,0,0,1.75708,-27.3335,1.26253,23.5669,1.67419,1.32287,0.0303194,
0.0127499,-0.0933956,0.0784815,-1.81166,0.11718,0.0464082,0.00035217,0.192823,0.0145833,0.20187,-0.364601,1.06764,-0.345658,-0.00661316,1.12213,0.808304,1.14896,-11.3596,2.47305,50.3997,-0.128794,20.4314,2.81648,21.3527,-43.9471,10.8369,-1.32824,-0.133934,0.00241464,-0.093699,0.0676403,-1.79062,0.0668529,0.0572522,0.000907471,0.199041,0.0193643,0.314347,-0.305597,0.854274,-0.705524,0.000570753,0,0,0,0,0,0,0,1.75708,-27.3335,1.26253,23.5669,1.67419,1.32287,0.0303194,
0.0143095,-0.0932179,0.080113,-1.81511,0.125844,0.0466902,0.000307492,0.193248,0.0161113,0.202285,-0.377933,1.07073,-0.269476,-0.00640747,0.265503,0.955026,0.259325,-8.33214,1.92914,47.6138,0.128561,19.7888,2.20623,20.7128,-43.198,10.7395,-0.302727,-0.119315,0.00936168,-0.0932156,0.0800049,-1.80353,0.0931411,0.0371204,0.000902996,0.185483,0.0443663,0.355623,-0.384261,0.713333,-0.475113,0.000136082,-1.69474,3.12526,5.1595,-9.833,-17.6176,28.8013,-0.0543338,0.487552,-29.6782,0.0882092,25.733,1.76574,2.49566,0.0706026,
0.0158288,-0.0930276,0.0817026,-1.8185,0.134493,0.0473778,0.000273818,0.192582,0.0176449,0.201568,-0.387292,1.07282,-0.198391,-0.00596784,-0.41608,0.958477,-0.448061,-5.84954,1.30579,44.4283,0.274765,19.1972,1.94135,20.0866,-42.6362,10.7395,0.421931,-0.103819,0.00936168,-0.0932156,0.0800049,-1.80353,0.0931411,0.0371204,0.000902996,0.185483,0.0443663,0.355623,-0.384261,0.713333,-0.475113,0.000136082,0,0,0,0,0,0,0,0.487552,-29.6782,0.0882092,25.733,1.76574,2.49566,0.0706026,
0.0177102,-0.0921766,0.0888093,-1.82115,0.132954,0.0345797,0.000641775,0.191868,0.0199992,0.200886,-0.395004,1.07014,-0.140722,-0.00540697,-0.446297,1.47145,-0.426492,-4.81965,-1.67229,36.0427,0.350548,18.6578,1.77682,19.5156,-42.0534,10.7395,1.02939,-0.0851698,0.00936168,-0.0932156,0.0800049,-1.80353,0.0931411,0.0371204,0.000902996,0.185483,0.0443663,0.355623,-0.384261,0.713333,-0.475113,0.000136082,0,0,0,0,0,0,0,0.487552,-29.6782,0.0882092,25.733,1.76574,2.49566,0.0706026,
0.0191711,-0.0919384,0.0903399,-1.82448,0.141476,0.0356871,0.00062637,0.190016,0.0219541,0.198973,-0.399335,1.06918,-0.0848942,-0.0047107,-1.15763,1.22182,-1.1955,-2.70709,-0.59994,34.8925,0.435163,18.1351,1.67963,18.9628,-41.4595,10.7395,1.53747,-0.0696972,0.00936168,-0.0932156,0.0800049,-1.80353,0.0931411,0.0371204,0.000902996,0.185483,0.0443663,0.355623,-0.384261,0.713333,-0.475113,0.000136082,0,0,0,0,0,0,0,0.487552,-29.6782,0.0882092,25.733,1.76574,2.49566,0.0706026,
0.0205864,-0.0917011,0.0918221,-1.82774,0.150012,0.0371139,0.000620992,0.187395,0.0234954,0.196235,-0.40104,1.06872,-0.0322454,-0.00390302,-1.63818,0.963291,-1.71118,-1.06544,-0.284545,32.9055,0.504802,17.6023,1.44984,18.4354,-40.6641,10.6188,2.09269,-0.0525668,0.0155921,-0.0914772,0.0918906,-1.81836,0.116053,0.0273065,0.000907473,0.186736,0.077881,0.348912,-0.453572,0.644418,-0.0801963,0.00212699,0.15666,4.18933,-0.838854,-8.66376,-8.61434,49.3646,0.248863,1.4278,-29.6028,0.588087,23.8882,1.79046,2.18438,0.0303194,
0.0219599,-0.091467,0.0932603,-1.83094,0.158539,0.0388047,0.000627489,0.184254,0.0246488,0.192943,-0.400725,1.06817,0.0164742,-0.00295997,-1.96315,0.72086,-2.05759,0.196661,-0.343786,30.4498,0.589405,17.0921,1.42565,17.8959,-40.073,10.6188,2.4387,-0.0385907,0.0155921,-0.0914772,0.0918906,-1.81836,0.116053,0.0273065,0.000907473,0.186736,0.077881,0.348912,-0.453572,0.644418,-0.0801963,0.00212699,0,0,0,0,0,0,0,1.4278,-29.6028,0.588087,23.8882,1.79046,2.18438,0.0303194,
0.0233679,-0.0893395,0.100116,-1.83552,0.154514,0.0321106,0.00084514,0.181696,0.0285226,0.190358,-0.40141,1.06234,0.0548965,-0.00205156,-1.59873,2.42118,-1.61568,-0.428247,-3.64657,24.0139,0.56776,16.6013,1.44743,17.3738,-39.47,10.6188,2.71321,-0.0259193,0.0155921,-0.0914772,0.0918906,-1.81836,0.116053,0.0273065,0.000907473,0.186736,0.077881,0.348912,-0.453572,0.644418,-0.0801963,0.00212699,0,0,0,0,0,0,0,1.4278,-29.6028,0.588087,23.8882,1.79046,2.18438,0.0303194,
0.0246847,-0.0890156,0.101498,-1.83867,0.162895,0.0340186,0.000866001,0.178277,0.0309157,0.186837,-0.399897,1.0594,0.0916191,-0.00111972,-2.13712,1.49565,-2.20058,0.945709,-1.83996,22.9516,0.582401,16.1413,1.49013,16.8847,-38.8591,10.6188,2.93111,-0.014009,0.0155921,-0.0914772,0.0918906,-1.81836,0.116053,0.0273065,0.000907473,0.186736,0.077881,0.348912,-0.453572,0.644418,-0.0801963,0.00212699,0,0,0,0,0,0,0,1.4278,-29.6028,0.588087,23.8882,1.79046,2.18438,0.0303194,
0.0259534,-0.0887153,0.10283,-1.84174,0.171305,0.0361284,0.000896395,0.174339,0.0322396,0.18276,-0.396803,1.05777,0.12604,-0.000135926,-2.4611,0.827428,-2.5478,1.93385,-1.0173,21.5128,0.614869,15.7106,1.45656,16.4566,-38.2498,10.4813,3.18386,-0.00327447,0.0215648,-0.0888708,0.102646,-1.83418,0.142781,0.027396,0.000910161,0.159838,0.0929882,0.294105,-0.425543,0.891422,0.106454,0.00297424,-3.36232,1.88839,-6.85093,3.50354,30.8755,23.3313,0.105906,-4.1026,-30.7256,-4.98595,25.0348,0.299984,2.84081,0.050461,
0.0285175,-0.0865629,0.109979,-1.85014,0.183738,0.0365239,0.00103111,0.170315,0.034706,0.178538,-0.392713,1.05659,0.157199,0.00090865,-2.51504,1.5415,-2.63885,2.55617,-0.735369,19.4746,0.65286,14.8461,1.5385,15.5404,-37.0648,10.4813,3.46859,0.0220351,0.0215648,-0.0888708,0.102646,-1.83418,0.142781,0.027396,0.000910161,0.159838,0.0929882,0.294105,-0.425543,0.891422,0.106454,0.00297424,0,0,0,0,0,0,0,-4.1026,-30.7256,-4.98595,25.0348,0.299984,2.84081,0.050461,
0.029694,-0.0862363,0.111211,-1.85307,0.192162,0.0389145,0.0010723,0.165663,0.0359297,0.173623,-0.387484,1.05588,0.185526,0.00175663,-2.90722,0.764833,-3.07195,3.26808,-0.447745,17.7043,0.529988,14.3864,1.58353,15.0651,-36.4857,10.4813,3.57706,0.0312306,0.0215648,-0.0888708,0.102646,-1.83418,0.142781,0.027396,0.000910161,0.159838,0.0929882,0.294105,-0.425543,0.891422,0.106454,0.00297424,0,0,0,0,0,0,0,-4.1026,-30.7256,-4.98595,25.0348,0.299984,2.84081,0.050461,
0.0308404,-0.0859324,0.112413,-1.85592,0.200185,0.041408,0.00111415,0.161192,0.0363422,0.168946,-0.381056,1.04528,0.210757,0.00245154,-2.79436,0.257792,-2.92296,4.01741,-6.62255,15.7694,0.434318,13.9309,1.64285,14.5947,-35.9084,10.4813,3.68067,0.0426279,0.0215648,-0.0888708,0.102646,-1.83418,0.142781,0.027396,0.000910161,0.159838,0.0929882,0.294105,-0.425543,0.891422,0.106454,0.00297424,0,0,0,0,0,0,0,-4.1026,-30.7256,-4.98595,25.0348,0.299984,2.84081,0.050461,
0.0319738,-0.0856487,0.1136,-1.85867,0.207514,0.0439786,0.00115552,0.157287,0.0361659,0.164842,-0.373683,1.01945,0.232871,0.00299547,-2.4407,-0.110149,-2.56545,4.6083,-16.1439,13.821,0.339958,13.4145,1.63229,14.072,-35.3728,10.3424,3.75693,0.0510306,0.0260948,-0.0859329,0.111174,-1.84675,0.172487,0.0342525,0.000919288,0.129911,0.140297,0.233894,-0.345334,0.894939,0.236185,0.000510214,-3.7409,5.91359,-7.5263,10.0262,0.439714,16.2164,-0.308003,-6.48694,-32.376,-7.2354,30.9381,-0.407718,5.12871,0.0101778,
0.031956,-0.0832294,0.117354,-1.86138,0.209411,0.0466712,0.00110559,0.153653,0.0386183,0.161064,-0.367474,0.974981,0.250921,0.00335286,-2.27104,1.53271,-2.36097,3.88029,-27.7925,11.2813,0.223369,12.9007,1.71736,13.4936,-34.8165,10.3424,3.81586,0.0570089,0.0260948,-0.0859329,0.111174,-1.84675,0.172487,0.0342525,0.000919288,0.129911,0.140297,0.233894,-0.345334,0.894939,0.236185,0.000510214,0,0,0,0,0,0,0,-6.48694,-32.376,-7.2354,30.9381,-0.407718,5.12871,0.0101778,
0.0330572,-0.0828845,0.118509,-1.86403,0.214975,0.0492913,0.00114348,0.150455,0.039516,0.157709,-0.360339,0.9191,0.266237,0.00362955,-1.99934,0.561052,-2.097,4.45998,-34.9256,9.57259,0.172929,12.3461,1.82981,12.9007,-34.2548,10.3424,3.83529,0.0567636,0.0260948,-0.0859329,0.111174,-1.84675,0.172487,0.0342525,0.000919288,0.129911,0.140297,0.233894,-0.345334,0.894939,0.236185,0.000510214,0,0,0,0,0,0,0,-6.48694,-32.376,-7.2354,30.9381,-0.407718,5.12871,0.0101778,
0.0341458,-0.0825733,0.119649,-1.86661,0.219734,0.0519399,0.00118073,0.147577,0.0393937,0.154672,-0.352721,0.85424,0.279206,0.00383504,-1.79862,-0.0764246,-1.89796,4.76078,-40.5378,8.10581,0.128432,11.7899,1.97432,12.4231,-33.6739,8.94069,3.85236,0.053964,0.0260948,-0.0859329,0.111174,-1.84675,0.172487,0.0342525,0.000919288,0.129911,0.140297,0.233894,-0.345334,0.894939,0.236185,0.000510214,0,0,0,0,0,0,0,-6.48694,-32.376,-7.2354,30.9381,-0.407718,5.12871,0.0101778,
0.0352205,-0.0822884,0.120774,-1.86912,0.223717,0.0546095,0.00121935,0.144929,0.0386383,0.151866,-0.344924,0.782969,0.290104,0.00403335,-1.65491,-0.472107,-1.75365,4.87328,-44.5444,6.81142,0.123944,11.3379,2.12774,12.0004,-33.0798,7.40107,3.83842,0.0509861,0.0260948,-0.0859329,0.111174,-1.84675,0.172487,0.0342525,0.000919288,0.129911,0.140297,0.233894,-0.345334,0.894939,0.236185,0.000510214,0,0,0,0,0,0,0,-6.48694,-32.376,-7.2354,30.9381,-0.407718,5.12871,0.0101778,
0.0348637,-0.0802945,0.122963,-1.86953,0.226042,0.0569726,0.00109623,0.141405,0.0385325,0.148153,-0.337274,0.705948,0.302055,0.00423076,-2.20263,-0.0661141,-2.32075,4.78106,-48.1379,7.46899,0.12338,11.0025,2.23855,11.6763,-32.5252,5.9752,3.78913,0.047167,0.0297656,-0.0824261,0.117607,-1.85681,0.202607,0.0426676,0.000909547,0.0961166,0.135276,0.165778,-0.246173,0.852363,0.283669,0.000319363,-4.22424,-0.627581,-8.51459,12.395,-5.32211,5.93551,-0.0238564,-5.44751,-36.5694,-5.9619,37.7618,0.635983,5.79796,0.0577852,
0.0358741,-0.0800156,0.12402,-1.87193,0.228579,0.0597427,0.00113852,0.138384,0.0377993,0.144957,-0.329763,0.628197,0.310895,0.00444198,-1.88809,-0.45825,-1.9975,4.69431,-48.5944,5.52512,0.132013,10.7652,2.3574,11.4319,-31.9258,4.81856,3.75672,0.045984,0.0297656,-0.0824261,0.117607,-1.85681,0.202607,0.0426676,0.000909547,0.0961166,0.135276,0.165778,-0.246173,0.852363,0.283669,0.000319363,0,0,0,0,0,0,0,-5.44751,-36.5694,-5.9619,37.7618,0.635983,5.79796,0.0577852,
0.0368737,-0.0797561,0.125066,-1.87428,0.230543,0.0624873,0.00118227,0.135696,0.0367279,0.142106,-0.322478,0.551663,0.317333,0.00464722,-1.67957,-0.669615,-1.78208,4.55314,-47.8337,4.02366,0.128276,10.608,2.44608,11.2606,-31.3325,3.82844,3.72538,0.0448187,0.0297656,-0.0824261,0.117607,-1.85681,0.202607,0.0426676,0.000909547,0.0961166,0.135276,0.165778,-0.246173,0.852363,0.283669,0.000319363,0,0,0,0,0,0,0,-5.44751,-36.5694,-5.9619,37.7618,0.635983,5.79796,0.0577852,
0.0378607,-0.0795111,0.126098,-1.87658,0.232001,0.0652068,0.00122825,0.133234,0.035506,0.139488,-0.315456,0.477761,0.321852,0.00486727,-1.5389,-0.763738,-1.63626,4.3888,-46.1886,2.82476,0.13753,10.5126,2.50248,11.1494,-30.7454,2.94473,3.69245,0.0463485,0.0297656,-0.0824261,0.117607,-1.85681,0.202607,0.0426676,0.000909547,0.0961166,0.135276,0.165778,-0.246173,0.852363,0.283669,0.000319363,0,0,0,0,0,0,0,-5.44751,-36.5694,-5.9619,37.7618,0.635983,5.79796,0.0577852,
0.0375425,-0.0778516,0.128702,-1.87797,0.235974,0.0691265,0.00119698,0.129755,0.0337525,0.135768,-0.306152,0.391586,0.325612,0.00516681,-2.17442,-1.09589,-2.32489,5.81497,-53.8597,2.34993,0.187211,10.3942,2.50186,10.9969,-29.5785,1.45135,3.61864,0.0514408,0.0320143,-0.0794719,0.122927,-1.86469,0.226197,0.051918,0.000910002,0.0492059,0.0888736,0.159076,-0.214478,0.54495,0.307627,0.000187642,-5.86384,-5.80033,-0.837675,3.96197,-38.4266,2.99463,-0.0164651,-5.26898,-36.4662,-5.78734,38.4363,0.116879,5.6588,0.050461,
0.0384581,-0.0776435,0.129657,-1.88009,0.236059,0.0717934,0.00124901,0.126695,0.0322042,0.132501,-0.297792,0.315389,0.327161,0.00543402,-1.91228,-0.967691,-2.04215,5.22497,-47.6229,0.968182,0.167009,10.375,2.48295,10.9582,-29.0176,0.91497,3.5811,0.0533309,0.0320143,-0.0794719,0.122927,-1.86469,0.226197,0.051918,0.000910002,0.0492059,0.0888736,0.159076,-0.214478,0.54495,0.307627,0.000187642,0,0,0,0,0,0,0,-5.26898,-36.4662,-5.78734,38.4363,0.116879,5.6588,0.050461,
0.0393608,-0.0774396,0.130599,-1.88217,0.235913,0.074404,0.00130154,0.123924,0.0308616,0.129543,-0.290187,0.24866,0.326993,0.0056605,-1.73246,-0.839149,-1.84822,4.75319,-41.7059,-0.10506,0.141548,10.3609,2.44737,10.9254,-28.4637,0.452634,3.53963,0.0562226,0.0320143,-0.0794719,0.122927,-1.86469,0.226197,0.051918,0.000910002,0.0492059,0.0888736,0.159076,-0.214478,0.54495,0.307627,0.000187642,0,0,0,0,0,0,0,-5.26898,-36.4662,-5.78734,38.4363,0.116879,5.6588,0.050461,
0.0402495,-0.0772388,0.131526,-1.88421,0.235583,0.0769589,0.00135466,0.121357,0.0297097,0.126807,-0.283178,0.190684,0.325469,0.00585648,-1.60436,-0.719899,-1.71026,4.38088,-36.2347,-0.952833,0.122491,10.3426,2.40014,10.8879,-27.9172,0.0839816,3.49554,0.058124,0.0320143,-0.0794719,0.122927,-1.86469,0.226197,0.051918,0.000910002,0.0492059,0.0888736,0.159076,-0.214478,0.54495,0.307627,0.000187642,0,0,0,0,0,0,0,-5.26898,-36.4662,-5.78734,38.4363,0.116879,5.6588,0.050461,
0.0367151,-0.078009,0.127803,-1.87505,0.232277,0.0655645,0.00117789,0.120444,0.029194,0.125729,-0.277303,0.154686,0.325346,0.00601352,-0.570561,-0.322367,-0.673821,3.67182,-22.499,-0.0763642,0.0981464,10.2611,2.36797,10.7863,-27.4127,-0.262365,3.41149,0.0621991,0.0330406,-0.0771242,0.127841,-1.87247,0.231827,0.0644127,0.000911948,0.00591699,0.041067,0.133563,-0.159049,-0.0460626,0.423917,0.000243341,-5.41111,-5.97582,-3.18913,6.92864,-73.8766,14.5363,0.00696232,-2.88464,-36.2917,-3.56169,34.6515,0.0747645,3.76916,-0.00996382,
0.0376302,-0.0778038,0.128755,-1.87705,0.232096,0.0680943,0.00123078,0.119232,0.0284848,0.124379,-0.271719,0.119215,0.32352,0.00613289,-0.757508,-0.443235,-0.843635,3.4897,-22.1691,-1.14153,0.0746098,10.2254,2.30718,10.7322,-26.8774,-0.500917,3.36052,0.0636547,0.0330406,-0.0771242,0.127841,-1.87247,0.231827,0.0644127,0.000911948,0.00591699,0.041067,0.133563,-0.159049,-0.0460626,0.423917,0.000243341,0,0,0,0,0,0,0,-2.88464,-36.2917,-3.56169,34.6515,0.0747645,3.76916,-0.00996382,
0.0385247,-0.0776063,0.129686,-1.879,0.231723,0.0705584,0.00128359,0.117747,0.027725,0.122769,-0.266347,0.0860376,0.32042,0.00622662,-0.927881,-0.474845,-1.00621,3.35754,-20.7359,-1.93731,0.0585767,10.1785,2.24336,10.6679,-26.3462,-0.69597,3.30539,0.0653572,0.0330406,-0.0771242,0.127841,-1.87247,0.231827,0.0644127,0.000911948,0.00591699,0.041067,0.133563,-0.159049,-0.0460626,0.423917,0.000243341,0,0,0,0,0,0,0,-2.88464,-36.2917,-3.56169,34.6515,0.0747645,3.76916,-0.00996382,
0.0367151,-0.078009,0.127803,-1.87505,0.232277,0.0655645,0.00117789,0.117556,0.0276062,0.122499,-0.263839,0.0709684,0.321308,0.00630962,-0.119371,-0.0742775,-0.169087,1.568,-9.41824,0.554676,0.0518798,10.0449,2.11523,10.5005,-25.295,-0.947998,3.18742,0.0670953,0.0330406,-0.0771242,0.127841,-1.87247,0.231827,0.0644127,0.000911948,0.00591699,0.041067,0.133563,-0.159049,-0.0460626,0.423917,0.000243341,0,0,0,0,0,0,0,-2.88464,-36.2917,-3.56169,34.6515,0.0747645,3.76916,-0.00996382,
0.0371794,-0.0764053,0.132165,-1.88326,0.227335,0.0824417,0.00123937,0.112389,0.0255222,0.117088,-0.255799,0.0349825,0.321082,0.00637042,-3.22966,-1.30248,-3.3818,5.02498,-22.4912,-0.141099,0.0379989,9.93579,2.17088,10.3766,-24.8925,-0.994608,3.05905,0.0681313,0.0333077,-0.0760333,0.132063,-1.87945,0.223884,0.081715,0.000895796,-0.0038879,-0.0324091,0.116036,-0.176474,-0.35018,0.542097,0.000683387,-1.22561,-9.18451,-2.19094,-2.17821,-38.0147,14.7725,0.0550058,-0.476498,-35.2681,-0.836168,29.6686,0.0747645,2.74834,0.050461,
0.0379148,-0.0762596,0.13293,-1.88503,0.226465,0.0848773,0.0012911,0.108296,0.0240618,0.112793,-0.24873,0.00623868,0.317758,0.00638956,-2.55808,-0.912752,-2.68432,4.41778,-17.9649,-2.07757,0.0119629,9.83724,2.11125,10.2626,-24.3736,-1.04558,2.99399,0.0682777,0.0333077,-0.0760333,0.132063,-1.87945,0.223884,0.081715,0.000895796,-0.0038879,-0.0324091,0.116036,-0.176474,-0.35018,0.542097,0.000683387,0,0,0,0,0,0,0,-0.476498,-35.2681,-0.836168,29.6686,0.0747645,2.74834,0.050461,
0.0386482,-0.0761072,0.133692,-1.88676,0.225608,0.0872025,0.00134146,0.104972,0.0230585,0.109296,-0.242364,-0.0164358,0.312335,0.00637051,-2.07726,-0.627042,-2.18529,3.97905,-14.1715,-3.38932,-0.0119058,9.72661,2.05475,10.1368,-23.8569,-1.07048,2.92807,0.0678396,0.0333077,-0.0760333,0.132063,-1.87945,0.223884,0.081715,0.000895796,-0.0038879,-0.0324091,0.116036,-0.176474,-0.35018,0.542097,0.000683387,0,0,0,0,0,0,0,-0.476498,-35.2681,-0.836168,29.6686,0.0747645,2.74834,0.050461,
0.0360435,-0.0763156,0.134939,-1.88737,0.21589,0.0976894,0.00115565,0.0991307,0.0195084,0.103212,-0.233944,-0.0423001,0.315807,0.00635644,-3.65082,-2.21883,-3.80249,5.26263,-16.1652,2.17011,-0.00879281,9.60558,2.00111,10.0012,-23.3418,-1.08184,2.86011,0.0673084,0.0333077,-0.0760333,0.132063,-1.87945,0.223884,0.081715,0.000895796,-0.0038879,-0.0324091,0.116036,-0.176474,-0.35018,0.542097,0.000683387,0,0,0,0,0,0,0,-0.476498,-35.2681,-0.836168,29.6686,0.0747645,2.74834,0.050461,
0.036666,-0.0762442,0.135587,-1.88896,0.21484,0.10014,0.00120442,0.0948687,0.0173932,0.0987541,-0.226929,-0.060071,0.313911,0.00630431,-2.66373,-1.32203,-2.78643,4.38404,-11.1068,-1.18508,-0.0325847,9.47325,2.01945,9.85512,-22.9068,-1.01344,2.71827,0.066566,0.0336458,-0.0755564,0.135393,-1.88539,0.209928,0.100721,0.000890055,0.0109916,-0.0682106,0.09151,-0.129422,-0.39794,0.507323,-0.000335355,1.85994,-4.47518,-3.06572,5.88152,-5.97001,-4.34671,-0.127343,0.614505,-32.0982,0.163588,21.2976,0.54443,1.04363,0.0577852,
0.0372995,-0.0761504,0.136245,-1.89053,0.213885,0.102432,0.00125149,0.091732,0.0162591,0.0954561,-0.220889,-0.0719324,0.308427,0.00622027,-1.96049,-0.708806,-2.06126,3.77509,-7.41334,-3.42772,-0.0525271,9.33343,1.97202,9.70162,-22.3945,-1.00037,2.6487,0.0654932,0.0336458,-0.0755564,0.135393,-1.88539,0.209928,0.100721,0.000890055,0.0109916,-0.0682106,0.09151,-0.129422,-0.39794,0.507323,-0.000335355,0,0,0,0,0,0,0,0.614505,-32.0982,0.163588,21.2976,0.54443,1.04363,0.0577852,
0.0379392,-0.0760395,0.136909,-1.89208,0.213009,0.104587,0.00129675,0.0893766,0.0157797,0.0929648,-0.215509,-0.0794595,0.300626,0.00610785,-1.47213,-0.29963,-1.55704,3.36218,-4.70448,-4.87566,-0.0702615,9.18543,1.9277,9.54011,-21.8831,-0.977486,2.57934,0.0640781,0.0336458,-0.0755564,0.135393,-1.88539,0.209928,0.100721,0.000890055,0.0109916,-0.0682106,0.09151,-0.129422,-0.39794,0.507323,-0.000335355,0,0,0,0,0,0,0,0.614505,-32.0982,0.163588,21.2976,0.54443,1.04363,0.0577852,
0.036107,-0.076604,0.137967,-1.89209,0.201992,0.115817,0.00112,0.0852176,0.0114723,0.0886005,-0.207259,-0.0897004,0.301824,0.00599454,-2.59937,-2.6921,-2.72768,5.15679,-6.40054,0.748717,-0.0708149,9.03054,1.88587,9.37222,-21.3727,-0.951436,2.50937,0.0625839,0.0336458,-0.0755564,0.135393,-1.88539,0.209928,0.100721,0.000890055,0.0109916,-0.0682106,0.09151,-0.129422,-0.39794,0.507323,-0.000335355,0,0,0,0,0,0,0,0.614505,-32.0982,0.163588,21.2976,0.54443,1.04363,0.0577852,
0.0366722,-0.076603,0.138553,-1.89348,0.20108,0.118072,0.00116252,0.0823037,0.00920187,0.0855253,-0.200627,-0.0945619,0.297824,0.00585873,-1.82117,-1.41902,-1.92202,4.14484,-3.0384,-2.50001,-0.0848833,8.88915,1.8491,9.21748,-20.8716,-0.848116,2.39431,0.0607697,0.0341577,-0.0753162,0.137902,-1.89033,0.19776,0.116019,0.000890869,0.00991765,-0.0660162,0.0446377,-0.13305,-0.346955,0.359837,0.000860358,-0.134246,0.274302,-5.85903,-0.453464,6.37313,-18.4358,0.149464,-2.24987,-29.2537,-2.53813,20.3256,0.667111,1.54168,0.050461,
0.0372485,-0.0765659,0.13915,-1.89487,0.20027,0.120157,0.0012032,0.0802496,0.00828829,0.0833425,-0.195091,-0.0959164,0.290397,0.0057039,-1.2838,-0.570989,-1.36424,3.46012,-0.846583,-4.64181,-0.0967682,8.72251,1.81187,9.03841,-20.3623,-0.817552,2.325,0.0589704,0.0341577,-0.0753162,0.137902,-1.89033,0.19776,0.116019,0.000890869,0.00991765,-0.0660162,0.0446377,-0.13305,-0.346955,0.359837,0.000860358,0,0,0,0,0,0,0,-2.24987,-29.2537,-2.53813,20.3256,0.667111,1.54168,0.050461,
0.0361198,-0.076163,0.139942,-1.89659,0.190511,0.12789,0.00110245,0.0760555,0.00625848,0.0789387,-0.187937,-0.1008,0.28282,0.00552865,-2.62131,-1.26863,-2.75238,4.47093,-3.05254,-4.73557,-0.109532,8.3754,1.74301,8.66705,-19.3443,-0.757148,2.18911,0.0550236,0.0341577,-0.0753162,0.137902,-1.89033,0.19776,0.116019,0.000890869,0.00991765,-0.0660162,0.0446377,-0.13305,-0.346955,0.359837,0.000860358,0,0,0,0,0,0,0,-2.24987,-29.2537,-2.53813,20.3256,0.667111,1.54168,0.050461,
0.0366156,-0.0761365,0.140455,-1.89785,0.189674,0.129765,0.001139,0.0732376,0.00566896,0.0759614,-0.181975,-0.101562,0.27312,0.00533658,-1.76121,-0.368448,-1.8608,3.72622,-0.47625,-6.06255,-0.120045,8.19619,1.71082,8.47599,-18.8352,-0.729948,2.12291,0.0529446,0.0341577,-0.0753162,0.137902,-1.89033,0.19776,0.116019,0.000890869,0.00991765,-0.0660162,0.0446377,-0.13305,-0.346955,0.359837,0.000860358,0,0,0,0,0,0,0,-2.24987,-29.2537,-2.53813,20.3256,0.667111,1.54168,0.050461,
0.0371258,-0.076079,0.140982,-1.8991,0.188931,0.13151,0.00117358,0.0713451,0.00597202,0.0739446,-0.176806,-0.0998154,0.262126,0.0051339,-1.18282,0.189413,-1.2605,3.23079,1.09192,-6.87102,-0.126675,8.02606,1.66848,8.29583,-18.3273,-0.644825,2.03447,0.0507414,0.0345859,-0.0756845,0.139536,-1.89501,0.185504,0.124597,0.000888278,0.0168174,0.0136228,0.0345473,-0.100216,-0.351869,0.178182,0.000439228,0.862462,9.95487,-1.2613,4.10425,-0.614253,-22.7068,-0.0526413,-0.881161,-29.8805,-1.0623,20.3256,1.06994,1.16997,0.0706026,
0.0376447,-0.0759983,0.141518,-1.90033,0.188259,0.133141,0.0012063,0.0700497,0.00679513,0.0725482,-0.172143,-0.096655,0.250465,0.00492506,-0.809644,0.514441,-0.872786,2.91451,1.97526,-7.28835,-0.13052,7.84134,1.63828,8.09961,-17.8175,-0.625442,1.97113,0.0486211,0.0345859,-0.0756845,0.139536,-1.89501,0.185504,0.124597,0.000888278,0.0168174,0.0136228,0.0345473,-0.100216,-0.351869,0.178182,0.000439228,0,0,0,0,0,0,0,-0.881161,-29.8805,-1.0623,20.3256,1.06994,1.16997,0.0706026,
0.0363302,-0.0753858,0.141354,-1.90116,0.1785,0.133089,0.00106272,0.0666397,0.00818441,0.0689958,-0.167996,-0.100606,0.238814,0.00474991,-2.13119,0.868302,-2.22024,2.59159,-2.46942,-7.28155,-0.10947,7.65464,1.6086,7.90165,-17.307,-0.611522,1.90927,0.0465495,0.0345859,-0.0756845,0.139536,-1.89501,0.185504,0.124597,0.000888278,0.0168174,0.0136228,0.0345473,-0.100216,-0.351869,0.178182,0.000439228,0,0,0,0,0,0,0,-0.881161,-29.8805,-1.0623,20.3256,1.06994,1.16997,0.0706026,
0.0367741,-0.0752621,0.141812,-1.90234,0.177685,0.134541,0.00109325,0.064408,0.00964151,0.0666475,-0.16393,-0.100874,0.227342,0.00456323,-1.39483,0.910687,-1.46765,2.54123,-0.167297,-7.17025,-0.116675,7.46634,1.57951,7.70214,-16.7955,-0.602083,1.84943,0.0444793,0.0345859,-0.0756845,0.139536,-1.89501,0.185504,0.124597,0.000888278,0.0168174,0.0136228,0.0345473,-0.100216,-0.351869,0.178182,0.000439228,0,0,0,0,0,0,0,-0.881161,-29.8805,-1.0623,20.3256,1.06994,1.16997,0.0706026,
0.0372312,-0.0751289,0.142283,-1.90349,0.176954,0.135913,0.00112207,0.062954,0.0110415,0.0650945,-0.159864,-0.0989799,0.216175,0.00437098,-0.908783,0.874982,-0.970638,2.54113,1.18363,-6.97918,-0.120155,7.27702,1.55057,7.50179,-16.2831,-0.598553,1.79129,0.0424731,0.0345859,-0.0756845,0.139536,-1.89501,0.185504,0.124597,0.000888278,0.0168174,0.0136228,0.0345473,-0.100216,-0.351869,0.178182,0.000439228,0,0,0,0,0,0,0,-0.881161,-29.8805,-1.0623,20.3256,1.06994,1.16997,0.0706026,
0.0376961,-0.0749896,0.142762,-1.90461,0.176283,0.137211,0.00114931,0.0619872,0.0123161,0.0640398,-0.155749,-0.0959422,0.205412,0.0041777,-0.604205,0.796626,-0.659199,2.57218,1.89858,-6.72716,-0.120799,7.09613,1.50947,7.3085,-15.7507,-0.547484,1.73685,0.0403445,0.0349747,-0.0756667,0.140677,-1.89802,0.174458,0.127348,0.000884156,0.0150933,0.0651048,0.022837,-0.0713613,-0.304657,0.0326212,-0.000643087,-0.215503,6.43526,-1.46379,3.60683,5.90157,-18.1951,-0.135289,0.689884,-30.7771,0.461134,22.9678,1.57074,1.75316,0.110886,
0.0364818,-0.0746407,0.142242,-1.90382,0.168096,0.13314,0.00103083,0.0589988,0.0145394,0.0609253,-0.152389,-0.0993821,0.193357,0.0040254,-1.86778,1.3896,-1.94657,2.09969,-2.14996,-7.53405,-0.0951934,6.90623,1.48057,7.10771,-15.2355,-0.554264,1.68244,0.0384766,0.0349747,-0.0756667,0.140677,-1.89802,0.174458,0.127348,0.000884156,0.0150933,0.0651048,0.022837,-0.0713613,-0.304657,0.0326212,-0.000643087,0,0,0,0,0,0,0,0.689884,-30.7771,0.461134,22.9678,1.57074,1.75316,0.110886,
0.0368768,-0.0744574,0.142648,-1.90489,0.167285,0.134261,0.00105654,0.0570728,0.0162149,0.058891,-0.148606,-0.0997737,0.182703,0.00386306,-1.20376,1.04718,-1.27141,2.36447,-0.244735,-6.65879,-0.101461,6.71691,1.45158,6.90749,-14.7185,-0.565099,1.62982,0.0366773,0.0349747,-0.0756667,0.140677,-1.89802,0.174458,0.127348,0.000884156,0.0150933,0.0651048,0.022837,-0.0713613,-0.304657,0.0326212,-0.000643087,0,0,0,0,0,0,0,0.689884,-30.7771,0.461134,22.9678,1.57074,1.75316,0.110886,
0.0372838,-0.0742788,0.143066,-1.90591,0.166545,0.135338,0.00108084,0.055833,0.0174367,0.057554,-0.144482,-0.0983054,0.173087,0.00369779,-0.774874,0.763612,-0.835639,2.57745,0.917694,-6.01035,-0.103292,6.52887,1.42214,6.70861,-14.2,-0.580178,1.57836,0.0349901,0.0349747,-0.0756667,0.140677,-1.89802,0.174458,0.127348,0.000884156,0.0150933,0.0651048,0.022837,-0.0713613,-0.304657,0.0326212,-0.000643087,0,0,0,0,0,0,0,0.689884,-30.7771,0.461134,22.9678,1.57074,1.75316,0.110886,
0.0368658,-0.0742415,0.143164,-1.90594,0.16006,0.132027,0.0010235,0.0535025,0.0185969,0.0550859,-0.139494,-0.0991933,0.161124,0.00353863,-1.45657,0.725099,-1.54257,3.11784,-0.554934,-7.47659,-0.0994768,6.16156,1.35531,6.31617,-13.1362,-0.578383,1.48888,0.0318043,0.0353914,-0.0752507,0.141646,-1.90081,0.165475,0.127846,0.000896061,0.01082,0.0524037,0.0295259,-0.0841565,-0.23138,-0.0040092,0.00289713,-0.534161,-1.58765,0.836109,-1.5994,9.15963,-4.5788,0.442527,1.32465,-31.0033,0.961012,26.4789,1.89483,2.15142,0.00376909,
0.0372317,-0.0740614,0.143538,-1.90685,0.159318,0.132908,0.00104558,0.0519493,0.0193807,0.0534119,-0.134313,-0.0979063,0.150942,0.00338286,-0.97073,0.489898,-1.04623,3.23792,0.804364,-6.36382,-0.0973529,5.98212,1.32441,6.12569,-12.6122,-0.596491,1.43784,0.030451,0.0353914,-0.0752507,0.141646,-1.90081,0.165475,0.127846,0.000896061,0.01082,0.0524037,0.0295259,-0.0841565,-0.23138,-0.0040092,0.00289713,0,0,0,0,0,0,0,1.32465,-31.0033,0.961012,26.4789,1.89483,2.15142,0.00376909,
0.0376045,-0.0738874,0.143918,-1.90771,0.158646,0.133753,0.00106672,0.0508814,0.019853,0.0522333,-0.128993,-0.0951181,0.141878,0.00323491,-0.667409,0.295198,-0.736645,3.32496,1.7426,-5.66513,-0.0924713,5.80735,1.2928,5.93977,-12.0867,-0.611995,1.38484,0.0292365,0.0353914,-0.0752507,0.141646,-1.90081,0.165475,0.127846,0.000896061,0.01082,0.0524037,0.0295259,-0.0841565,-0.23138,-0.0040092,0.00289713,0,0,0,0,0,0,0,1.32465,-31.0033,0.961012,26.4789,1.89483,2.15142,0.00376909,
0.0367203,-0.0741447,0.143007,-1.90523,0.160148,0.130991,0.00100749,0.0485073,0.0207092,0.0497157,-0.123131,-0.095047,0.12999,0.00311683,-1.48381,0.53509,-1.5735,3.66364,0.0444427,-7.43002,-0.0737968,5.47611,1.21706,5.58202,-11.006,-0.600419,1.28572,0.0271073,0.0358432,-0.0746138,0.142621,-1.90395,0.16004,0.127847,0.000895345,0.00727643,0.0166471,0.0289484,-0.098755,-0.108606,-0.0291856,0.00380652,-0.442951,-4.46957,-0.0721887,-1.82481,15.3467,-3.14705,0.113674,1.12232,-32.0982,0.639662,30.3906,1.76574,2.44988,0.0101778,
0.0370416,-0.0739616,0.143332,-1.90597,0.159509,0.131607,0.00102802,0.0468398,0.0211452,0.0479166,-0.117177,-0.0920048,0.119376,0.00300675,-1.04222,0.272537,-1.12441,3.72123,1.90136,-6.63369,-0.0688052,5.32106,1.18398,5.41516,-10.4773,-0.590736,1.21851,0.0263764,0.0358432,-0.0746138,0.142621,-1.90395,0.16004,0.127847,0.000895345,0.00727643,0.0166471,0.0289484,-0.098755,-0.108606,-0.0291856,0.00380652,0,0,0,0,0,0,0,1.12232,-32.0982,0.639662,30.3906,1.76574,2.44988,0.0101778,
0.0373677,-0.0737879,0.143662,-1.90667,0.158987,0.132163,0.00104842,0.0456248,0.0212594,0.0465784,-0.111185,-0.0866626,0.109405,0.00291552,-0.759377,0.0713786,-0.836394,3.74529,3.33887,-6.2318,-0.057019,5.17397,1.15052,5.25595,-9.94858,-0.565808,1.1429,0.0257767,0.0358432,-0.0746138,0.142621,-1.90395,0.16004,0.127847,0.000895345,0.00727643,0.0166471,0.0289484,-0.098755,-0.108606,-0.0291856,0.00380652,0,0,0,0,0,0,0,1.12232,-32.0982,0.639662,30.3906,1.76574,2.44988,0.0101778,
0.0376948,-0.0736228,0.143992,-1.90732,0.158586,0.132646,0.00106935,0.0446753,0.0211331,0.0455092,-0.105196,-0.0793369,0.0995925,0.00285566,-0.593456,-0.0789288,-0.668265,3.74285,4.57858,-6.13278,-0.0374101,5.03518,1.11706,5.10471,-9.42037,-0.523235,1.05736,0.0254427,0.0358432,-0.0746138,0.142621,-1.90395,0.16004,0.127847,0.000895345,0.00727643,0.0166471,0.0289484,-0.098755,-0.108606,-0.0291856,0.00380652,0,0,0,0,0,0,0,1.12232,-32.0982,0.639662,30.3906,1.76574,2.44988,0.0101778,
0.03715,-0.0738729,0.143934,-1.9075,0.157117,0.129151,0.00101144,0.0431069,0.0207228,0.0437998,-0.0995176,-0.0718075,0.0870742,0.00282874,-0.980249,-0.256481,-1.06836,3.54923,4.70588,-7.82392,-0.0168266,4.90408,1.08364,4.96073,-8.89388,-0.45847,0.960073,0.0252445,0.0358432,-0.0746138,0.142621,-1.90395,0.16004,0.127847,0.000895345,0.00727643,0.0166471,0.0289484,-0.098755,-0.108606,-0.0291856,0.00380652,0,0,0,0,0,0,0,1.12232,-32.0982,0.639662,30.3906,1.76574,2.44988,0.0101778,
0.037447,-0.0737246,0.144232,-1.90807,0.156928,0.129392,0.00103178,0.0419111,0.0202868,0.0424736,-0.0938287,-0.0621606,0.0756894,0.00277138,-0.747352,-0.27246,-0.828838,3.55556,6.02929,-7.11548,-0.0358501,4.77785,1.05125,4.81604,-8.34899,-0.361857,0.867935,0.0249884,0.0362224,-0.0736189,0.143406,-1.90674,0.157654,0.127774,0.000890056,0.00660959,0.00531894,0.0165527,-0.068042,-0.0271675,-0.0154892,0.000734254,-0.083355,-1.41602,-1.54946,3.83912,10.1798,1.71205,-0.384033,0.360599,-34.9706,-0.185533,31.1127,1.47918,2.97356,0.0577852,
0.037744,-0.0735808,0.144529,-1.9086,0.156864,0.129573,0.00105268,0.0409551,0.0198231,0.0414044,-0.0881717,-0.0513306,0.0650699,0.00273955,-0.59753,-0.289866,-0.668298,3.5356,6.76876,-6.6372,-0.0198929,4.66153,1.01966,4.68705,-7.82938,-0.257777,0.749085,0.0253717,0.0362224,-0.0736189,0.143406,-1.90674,0.157654,0.127774,0.000890056,0.00660959,0.00531894,0.0165527,-0.068042,-0.0271675,-0.0154892,0.000734254,0,0,0,0,0,0,0,0.360599,-34.9706,-0.185533,31.1127,1.47918,2.97356,0.0577852,
0.0380374,-0.073442,0.144821,-1.90908,0.15694,0.129699,0.00107771,0.0400986,0.0193293,0.0404382,-0.0826528,-0.0391702,0.0552016,0.00281758,-0.535289,-0.308584,-0.60387,3.44935,7.60024,-6.1677,0.0487668,4.54686,0.98903,4.55812,-7.31636,-0.119398,0.613744,0.0265655,0.0362224,-0.0736189,0.143406,-1.90674,0.157654,0.127774,0.000890056,0.00660959,0.00531894,0.0165527,-0.068042,-0.0271675,-0.0154892,0.000734254,0,0,0,0,0,0,0,0.360599,-34.9706,-0.185533,31.1127,1.47918,2.97356,0.0577852,
0.0374903,-0.0730429,0.144643,-1.90946,0.158266,0.12811,0.00101885,0.0379413,0.0181911,0.0381177,-0.0756121,-0.0214391,0.0468138,0.00244769,-1.3483,-0.711376,-1.45031,4.4004,11.0819,-5.24236,-0.231177,4.2774,0.926786,4.25833,-6.32785,0.201733,0.331719,0.0257506,0.0362224,-0.0736189,0.143406,-1.90674,0.157654,0.127774,0.000890056,0.00660959,0.00531894,0.0165527,-0.068042,-0.0271675,-0.0154892,0.000734254,0,0,0,0,0,0,0,0.360599,-34.9706,-0.185533,31.1127,1.47918,2.97356,0.0577852,
0.0377221,-0.0729335,0.14487,-1.90981,0.158797,0.128206,0.00102949,0.0361485,0.0172886,0.0361842,-0.0691283,-0.00386342,0.0398575,0.00222424,-1.1205,-0.564079,-1.20844,4.05238,10.9848,-4.34769,-0.139658,4.13461,0.937533,4.10535,-5.82823,0.288531,0.248117,0.02662,0.036731,-0.0725058,0.14392,-1.90848,0.157623,0.127638,0.000892641,0.0158695,0.00886556,0.00339243,-0.0340611,0.00186343,-0.00128048,0.000787733,1.15749,0.443326,-1.64504,4.24762,3.62886,1.77609,0.00668496,0.134464,-34.2961,-0.16173,28.2483,1.43615,2.66869,0.0440523,
0.0379434,-0.072826,0.145085,-1.91012,0.159557,0.12824,0.00103796,0.0344516,0.016517,0.0343176,-0.0631084,0.0159079,0.0327258,0.00199094,-1.06055,-0.482249,-1.1666,3.76244,12.3571,-4.4573,-0.145809,3.98252,0.933653,3.93901,-5.36377,0.474482,0.181797,0.0324952,0.036731,-0.0725058,0.14392,-1.90848,0.157623,0.127638,0.000892641,0.0158695,0.00886556,0.00339243,-0.0340611,0.00186343,-0.00128048,0.000787733,0,0,0,0,0,0,0,0.134464,-34.2961,-0.16173,28.2483,1.43615,2.66869,0.0440523,
0.0381544,-0.0727223,0.145289,-1.9104,0.160528,0.128194,0.00104323,0.0328363,0.0158068,0.0325511,-0.057483,0.0369972,0.0250332,0.00172466,-1.00959,-0.443853,-1.10409,3.51589,13.1808,-4.80793,-0.166429,3.73962,0.926801,3.66824,-4.89589,0.733051,0.134004,0.0362356,0.036731,-0.0725058,0.14392,-1.90848,0.157623,0.127638,0.000892641,0.0158695,0.00886556,0.00339243,-0.0340611,0.00186343,-0.00128048,0.000787733,0,0,0,0,0,0,0,0.134464,-34.2961,-0.16173,28.2483,1.43615,2.66869,0.0440523,
0.0375064,-0.0721434,0.14465,-1.91003,0.160095,0.128209,0.00094596,0.0305641,0.0147719,0.0301164,-0.0525381,0.0518628,0.0203825,0.00153177,-1.42014,-0.646807,-1.52167,3.09055,9.29101,-2.90668,-0.120557,3.42722,0.798726,3.30601,-4.48997,0.989799,0.149239,0.0185321,0.036731,-0.0725058,0.14392,-1.90848,0.157623,0.127638,0.000892641,0.0158695,0.00886556,0.00339243,-0.0340611,0.00186343,-0.00128048,0.000787733,0,0,0,0,0,0,0,0.134464,-34.2961,-0.16173,28.2483,1.43615,2.66869,0.0440523,
0.0376818,-0.0720557,0.144819,-1.91026,0.161099,0.12813,0.000951205,0.028835,0.0140083,0.028303,-0.0477522,0.0665916,0.0143357,0.00135655,-1.0807,-0.47725,-1.13338,2.99117,9.2055,-3.77922,-0.109513,3.23339,0.805834,3.17529,-3.98973,0.646207,0.428454,0.0083057,0.0374435,-0.0717665,0.144373,-1.90944,0.157838,0.126843,0.000887109,0.0229594,0.0105479,0.0052844,-0.00777837,0.00831078,-0.0330012,0.000397538,0.88624,0.210288,0.236496,3.28534,0.805919,-3.96509,-0.0487744,0.0313145,-32.9472,-0.185533,25.5823,1.29608,2.07818,0.0843355,
0.0378517,-0.0719671,0.144981,-1.91046,0.16232,0.127949,0.000961432,0.0273176,0.0134215,0.0267042,-0.0432478,0.0838053,0.00693931,0.00134089,-0.948347,-0.366757,-0.999258,2.81526,10.7586,-4.62276,-0.00978573,3.20225,0.764598,3.1191,-3.6348,1.03652,0.241245,0.0141903,0.0374435,-0.0717665,0.144373,-1.90944,0.157838,0.126843,0.000887109,0.0229594,0.0105479,0.0052844,-0.00777837,0.00831078,-0.0330012,0.000397538,0,0,0,0,0,0,0,0.0313145,-32.9472,-0.185533,25.5823,1.29608,2.07818,0.0843355,
0.0380075,-0.0718786,0.145126,-1.91064,0.163855,0.127653,0.00096965,0.0257483,0.01295,0.0249949,-0.0390532,0.10542,-0.00185201,0.00127817,-0.980788,-0.294728,-1.06828,2.62162,13.5093,-5.49458,-0.0392001,3.0606,0.719733,2.9317,-3.2977,1.51325,0.0217067,0.0128409,0.0374435,-0.0717665,0.144373,-1.90944,0.157838,0.126843,0.000887109,0.0229594,0.0105479,0.0052844,-0.00777837,0.00831078,-0.0330012,0.000397538,0,0,0,0,0,0,0,0.0313145,-32.9472,-0.185533,25.5823,1.29608,2.07818,0.0843355,
0.0380643,-0.0714824,0.144941,-1.91035,0.163289,0.125766,0.000923319,0.0235729,0.0121783,0.0226322,-0.034989,0.127,-0.0106746,0.00122628,-1.35969,-0.482294,-1.47668,2.54016,13.4874,-5.51412,-0.032433,2.93329,0.669517,2.79956,-2.96628,1.74046,-0.131325,0.008691,0.0374435,-0.0717665,0.144373,-1.90944,0.157838,0.126843,0.000887109,0.0229594,0.0105479,0.0052844,-0.00777837,0.00831078,-0.0330012,0.000397538,0,0,0,0,0,0,0,0.0313145,-32.9472,-0.185533,25.5823,1.29608,2.07818,0.0843355,
0.0381812,-0.0714069,0.145048,-1.91049,0.165148,0.125386,0.000927116,0.0217809,0.0116287,0.0207879,-0.0313382,0.148061,-0.0180322,0.00107595,-1.11996,-0.343525,-1.15274,2.28175,13.1633,-4.59852,-0.0939546,2.76787,0.675373,2.66917,-2.58019,1.61126,-0.235749,0.00668016,0.038408,-0.0716526,0.14469,-1.90968,0.159377,0.125501,0.000888165,0.0251046,0.00375644,0.00644499,0.00687906,0.0615438,-0.0400226,-0.000457131,0.26815,-0.848928,0.145073,1.83218,6.65413,-0.877673,-0.106834,-1.23822,-32.5981,-1.41142,26.828,1.25946,2.37023,0.0843355,
0.0382874,-0.0713292,0.145144,-1.9106,0.167285,0.124954,0.000931627,0.0200779,0.011245,0.0190191,-0.0279954,0.171867,-0.0252156,0.000973533,-1.0644,-0.23978,-1.1055,2.08925,14.8787,-4.48964,-0.0640097,2.63994,0.702766,2.51519,-2.2384,2.09074,-0.398775,0.0149149,0.038408,-0.0716526,0.14469,-1.90968,0.159377,0.125501,0.000888165,0.0251046,0.00375644,0.00644499,0.00687906,0.0615438,-0.0400226,-0.000457131,0,0,0,0,0,0,0,-1.23822,-32.5981,-1.41142,26.828,1.25946,2.37023,0.0843355,
0.0380643,-0.0714824,0.144941,-1.91035,0.163289,0.125766,0.000923319,0.0190365,0.0108143,0.0178515,-0.0261427,0.180158,-0.0293655,0.000982567,-0.650877,-0.269174,-0.7297,1.15792,5.18155,-2.59367,0.00564644,2.19908,0.672285,1.99846,-1.61992,2.88805,-0.602459,0.0125401,0.038408,-0.0716526,0.14469,-1.90968,0.159377,0.125501,0.000888165,0.0251046,0.00375644,0.00644499,0.00687906,0.0615438,-0.0400226,-0.000457131,0,0,0,0,0,0,0,-1.23822,-32.5981,-1.41142,26.828,1.25946,2.37023,0.0843355,
0.0388614,-0.0714632,0.145077,-1.91012,0.171706,0.12307,0.000888843,0.0166964,0.00995923,0.0155037,-0.0221548,0.212663,-0.0377063,0.000683197,-1.46253,-0.534438,-1.4674,2.49242,20.3157,-5.21298,-0.187106,1.9222,0.652689,1.78705,-1.32548,2.74903,-0.452297,0.00533728,0.038408,-0.0716526,0.14469,-1.90968,0.159377,0.125501,0.000888165,0.0251046,0.00375644,0.00644499,0.00687906,0.0615438,-0.0400226,-0.000457131,0,0,0,0,0,0,0,-1.23822,-32.5981,-1.41142,26.828,1.25946,2.37023,0.0843355,
0.0389132,-0.0714104,0.145119,-1.91016,0.174638,0.122438,0.000884711,0.0146543,0.00928951,0.0134639,-0.0186773,0.243423,-0.0459494,0.000443251,-1.27633,-0.418575,-1.27485,2.17349,19.2248,-5.15192,-0.149967,1.77376,0.642531,1.60541,-1.10199,3.35481,-0.609651,0.00842968,0.0393523,-0.0717562,0.144798,-1.90961,0.162707,0.124566,0.000893994,0.0218325,-0.00312433,-0.000451755,0.00375913,0.118009,-0.0145741,0.00141294,-0.409014,-0.860095,-0.862093,-0.389991,7.05814,3.18106,0.233759,-0.627255,-31.0509,-0.887743,25.8084,1.6925,1.95916,0.0641939,
0.0389545,-0.0713583,0.14515,-1.91019,0.177794,0.12174,0.000876345,0.0127542,0.00873231,0.0115405,-0.0156382,0.273652,-0.0542203,0.000145458,-1.18758,-0.348252,-1.20217,1.89945,18.8934,-5.16933,-0.186121,1.54515,0.612322,1.32533,-0.890561,3.95471,-0.789008,0.00350815,0.0393523,-0.0717562,0.144798,-1.90961,0.162707,0.124566,0.000893994,0.0218325,-0.00312433,-0.000451755,0.00375913,0.118009,-0.0145741,0.00141294,0,0,0,0,0,0,0,-0.627255,-31.0509,-0.887743,25.8084,1.6925,1.95916,0.0641939,
0.0394568,-0.0717089,0.144858,-1.90966,0.175294,0.122239,0.000858426,0.010464,0.00764752,0.00922822,-0.0126094,0.296218,-0.0590352,-5.51949e-07,-1.43134,-0.677991,-1.44516,1.893,14.1036,-3.0093,-0.0912561,1.36429,0.520328,1.19423,-0.700852,4.09527,-0.842119,-0.00183075,0.0393523,-0.0717562,0.144798,-1.90961,0.162707,0.124566,0.000893994,0.0218325,-0.00312433,-0.000451755,0.00375913,0.118009,-0.0145741,0.00141294,0,0,0,0,0,0,0,-0.627255,-31.0509,-0.887743,25.8084,1.6925,1.95916,0.0641939,
0.0394755,-0.0716836,0.144874,-1.90966,0.178337,0.121662,0.000853357,0.00883947,0.00675,0.00776848,-0.0102052,0.31304,-0.061673,-0.000127168,-1.01535,-0.560949,-0.912336,1.50259,10.5138,-1.64866,-0.0791352,1.15993,0.470035,1.03162,-0.474832,3.71926,-0.794952,-0.00496866,0.0393523,-0.0717562,0.144798,-1.90961,0.162707,0.124566,0.000893994,0.0218325,-0.00312433,-0.000451755,0.00375913,0.118009,-0.0145741,0.00141294,0,0,0,0,0,0,0,-0.627255,-31.0509,-0.887743,25.8084,1.6925,1.95916,0.0641939,
0.0394949,-0.0716601,0.144893,-1.90967,0.181402,0.121106,0.000846617,0.00755559,0.00598915,0.00669047,-0.00824851,0.327077,-0.0632152,-0.000270215,-0.802425,-0.47553,-0.673756,1.22294,8.7733,-0.963845,-0.0894041,1.01882,0.434605,0.877357,-0.314328,4.15108,-0.924077,-0.00327715,0.0398589,-0.0718665,0.144773,-1.90962,0.167943,0.124406,0.000893395,0.00895063,-0.00381418,-0.00246675,0.000291716,0.185907,5.29646e-05,0.000329441,-1.61024,-0.0862316,-0.251874,-0.433426,8.48732,1.82838,-0.135437,0.309024,-31.1778,-0.16173,26.4035,1.93145,1.99212,0.0706026,
0.0395133,-0.0716388,0.144912,-1.90967,0.184484,0.120569,0.000836846,0.00650425,0.00532185,0.00583749,-0.00661409,0.33869,-0.0639982,-0.000460461,-0.657084,-0.417064,-0.533113,1.02151,7.25828,-0.489421,-0.118904,0.822589,0.387755,0.659604,-0.152714,4.50788,-1.01846,-0.00809851,0.0398589,-0.0718665,0.144773,-1.90962,0.167943,0.124406,0.000893395,0.00895063,-0.00381418,-0.00246675,0.000291716,0.185907,5.29646e-05,0.000329441,0,0,0,0,0,0,0,0.309024,-31.1778,-0.16173,26.4035,1.93145,1.99212,0.0706026,
0.0397844,-0.0718572,0.144708,-1.90954,0.180901,0.122709,0.00084905,0.00491117,0.00436858,0.00470629,-0.00500544,0.340461,-0.060632,-0.000553973,-0.995677,-0.595797,-0.707001,1.00541,1.10653,2.1039,-0.0584455,0.742377,0.298273,0.599652,-0.0154247,4.32868,-0.893721,-0.00479311,0.0398589,-0.0718665,0.144773,-1.90962,0.167943,0.124406,0.000893395,0.00895063,-0.00381418,-0.00246675,0.000291716,0.185907,5.29646e-05,0.000329441,0,0,0,0,0,0,0,0.309024,-31.1778,-0.16173,26.4035,1.93145,1.99212,0.0706026,
0.0397971,-0.0718555,0.144732,-1.90952,0.183391,0.122409,0.000844239,0.00424696,0.00353811,0.00437343,-0.00366061,0.334607,-0.0560212,-0.000563454,-0.415133,-0.519042,-0.208038,0.840519,-3.65851,2.88176,-0.0059254,0.509758,0.193122,0.484173,0.092613,3.77968,-0.609096,-0.00790163,0.0398589,-0.0718665,0.144773,-1.90962,0.167943,0.124406,0.000893395,0.00895063,-0.00381418,-0.00246675,0.000291716,0.185907,5.29646e-05,0.000329441,0,0,0,0,0,0,0,0.309024,-31.1778,-0.16173,26.4035,1.93145,1.99212,0.0706026,
0.0398199,-0.0718564,0.144769,-1.90951,0.185702,0.122159,0.000837996,0.00396735,0.002808,0.00440355,-0.00257565,0.325458,-0.0510497,-0.000606846,-0.174757,-0.45632,0.0188222,0.678099,-5.71851,3.10719,-0.0271198,0.381722,0.146003,0.377654,0.123448,3.91917,-0.634895,-0.00861202,0.0399847,-0.071909,0.144771,-1.90956,0.176751,0.124432,0.000893399,0.000204689,-0.00308528,0.000457079,0.00171663,0.280484,0.00277933,0.000350449,-1.09324,0.0911128,0.365478,0.178115,11.8221,0.340796,0.002626,0.0828892,-32.3006,-0.260912,26.4551,1.96808,1.83282,0.0706026,
0.0400151,-0.0719741,0.144875,-1.90941,0.187751,0.123851,0.000855049,0.00354586,0.00193823,0.00427133,-0.0014259,0.311967,-0.0440099,-0.000680043,-0.263431,-0.543605,-0.0826325,0.718599,-8.43133,4.39989,-0.0457484,0.181172,-0.0234243,0.366047,0.163016,3.41699,-0.429465,-0.0107456,0.0399847,-0.071909,0.144771,-1.90956,0.176751,0.124432,0.000893399,0.000204689,-0.00308528,0.000457079,0.00171663,0.280484,0.00277933,0.000350449,0,0,0,0,0,0,0,0.0828892,-32.3006,-0.260912,26.4551,1.96808,1.83282,0.0706026,
0.0400304,-0.0719858,0.144905,-1.90939,0.189788,0.123721,0.000847133,0.00321709,0.00125788,0.00417996,-0.000550859,0.300494,-0.0384593,-0.000741931,-0.20548,-0.425221,-0.0571069,0.546898,-7.17097,3.4691,-0.0386798,0.129303,-0.0606523,0.320316,0.210532,2.51794,-0.188766,-0.0101126,0.0399847,-0.071909,0.144771,-1.90956,0.176751,0.124432,0.000893399,0.000204689,-0.00308528,0.000457079,0.00171663,0.280484,0.00277933,0.000350449,0,0,0,0,0,0,0,0.0828892,-32.3006,-0.260912,26.4551,1.96808,1.83282,0.0706026,
0.0400454,-0.0719968,0.144936,-1.90937,0.191805,0.123588,0.000839148,0.00295042,0.000730692,0.00410723,0.00011413,0.290821,-0.0340814,-0.000793181,-0.166671,-0.32949,-0.0454564,0.415618,-6.04568,2.73618,-0.0320317,0.129303,-0.0606523,0.320316,0.210532,2.51794,-0.188766,-0.0101126,0.0399847,-0.071909,0.144771,-1.90956,0.176751,0.124432,0.000893399,0.000204689,-0.00308528,0.000457079,0.00171663,0.280484,0.00277933,0.000350449,0,0,0,0,0,0,0,0.0828892,-32.3006,-0.260912,26.4551,1.96808,1.83282,0.0706026,
0.0400601,-0.0720072,0.144966,-1.90935,0.193806,0.123454,0.000831128,0.00272811,0.000325625,0.00404298,0.000618564,0.282704,-0.0306242,-0.000835043,-0.138941,-0.253167,-0.040159,0.315271,-5.07285,2.16077,-0.0261633,0.129303,-0.0606523,0.320316,0.210532,2.51794,-0.188766,-0.0101126,0.0399847,-0.071909,0.144771,-1.90956,0.176751,0.124432,0.000893399,0.000204689,-0.00308528,0.000457079,0.00171663,0.280484,0.00277933,0.000350449,0,0,0,0,0,0,0,0.0828892,-32.3006,-0.260912,26.4551,1.96808,1.83282,0.0706026,
0.0399305,-0.0720447,0.14475,-1.90916,0.194536,0.124443,0.000852839,0.00202354,-7.30222e-05,0.00346026,0.00116943,0.27391,-0.0265708,-0.000866679,-0.440357,-0.249155,-0.364202,0.344292,-5.49671,2.53333,-0.0197724,0.126826,-0.069155,0.320366,0.213462,2.4848,-0.184059,-0.0100502,0.0399895,-0.0719618,0.144731,-1.90934,0.185378,0.124554,0.000894824,0.00121416,-0.00135156,-0.00124924,0.00935769,0.193061,0.0152964,0.00142726,0.126184,0.216714,-0.21329,0.955132,-10.9279,1.56463,0.134601,-0.171017,-31.9237,-0.788561,26.7288,1.93145,1.91887,0.0577852,
0.0399272,-0.0720566,0.144762,-1.90914,0.196458,0.124346,0.000844942,0.00153677,-0.000357339,0.00307203,0.00155568,0.267178,-0.0237004,-0.00089078,-0.304232,-0.177698,-0.242643,0.241406,-4.20711,1.79404,-0.0150637,0.126824,-0.0691552,0.320363,0.213462,2.48479,-0.184063,-0.0100502,0.0399895,-0.0719618,0.144731,-1.90934,0.185378,0.124554,0.000894824,0.00121416,-0.00135156,-0.00124924,0.00935769,0.193061,0.0152964,0.00142726,0,0,0,0,0,0,0,-0.171017,-31.9237,-0.788561,26.7288,1.93145,1.91887,0.0577852,
0.0399266,-0.0720674,0.144777,-1.90911,0.198386,0.124237,0.000837059,0.00121491,-0.000556368,0.00283078,0.00182084,0.26196,-0.0216729,-0.000909682,-0.201161,-0.124393,-0.150779,0.165722,-3.26148,1.26716,-0.0118134,0.126821,-0.0691553,0.32036,0.213462,2.48477,-0.184067,-0.0100502,0.0399895,-0.0719618,0.144731,-1.90934,0.185378,0.124554,0.000894824,0.00121416,-0.00135156,-0.00124924,0.00935769,0.193061,0.0152964,0.00142726,0,0,0,0,0,0,0,-0.171017,-31.9237,-0.788561,26.7288,1.93145,1.91887,0.0577852,
0.0399283,-0.0720773,0.144795,-1.90909,0.200318,0.124121,0.000829176,0.00101486,-0.000692574,0.00269729,0.00199772,0.257861,-0.0202455,-0.000924835,-0.125031,-0.0851287,-0.0834348,0.110551,-2.56176,0.892144,-0.00947044,0.126818,-0.0691554,0.320357,0.213463,2.48476,-0.184072,-0.0100503,0.0399895,-0.0719618,0.144731,-1.90934,0.185378,0.124554,0.000894824,0.00121416,-0.00135156,-0.00124924,0.00935769,0.193061,0.0152964,0.00142726,0,0,0,0,0,0,0,-0.171017,-31.9237,-0.788561,26.7288,1.93145,1.91887,0.0577852,
0.0397872,-0.0721918,0.144565,-1.90869,0.195216,0.125883,0.000843593,-0.000163381,-0.000987364,0.00156944,0.00232877,0.249364,-0.0171598,-0.000939746,-0.736401,-0.184244,-0.704903,0.206907,-5.31042,1.92859,-0.00931943,0.125331,-0.0709703,0.320041,0.211944,2.47133,-0.183153,-0.00996366,0.0400193,-0.0720317,0.144708,-1.90888,0.188373,0.125525,0.000894823,0.00303967,-0.00716867,-0.000893587,0.0114318,0.0184485,0.0446567,0.00110322,0.228188,-0.727138,0.0444564,0.259263,-21.8265,3.67004,-0.0405053,-0.424923,-31.2016,-0.788561,26.4035,1.67419,2.01226,0.0577852,
0.039756,-0.0722057,0.144549,-1.90866,0.197004,0.125818,0.000835833,-0.000908435,-0.00113618,0.000860864,0.00252534,0.24419,-0.0153443,-0.000945809,-0.465659,-0.0930126,-0.44286,0.122857,-3.23419,1.13465,-0.00378963,0.125297,-0.0709722,0.320005,0.211948,2.47122,-0.183198,-0.0099638,0.0400193,-0.0720317,0.144708,-1.90888,0.188373,0.125525,0.000894823,0.00303967,-0.00716867,-0.000893587,0.0114318,0.0184485,0.0446567,0.00110322,0,0,0,0,0,0,0,-0.424923,-31.2016,-0.788561,26.4035,1.67419,2.01226,0.0577852,
0.0397323,-0.0722171,0.14454,-1.90864,0.198834,0.125734,0.000828166,-0.00132117,-0.00119454,0.000477148,0.00262608,0.241111,-0.0143687,-0.000948319,-0.257958,-0.0364729,-0.239823,0.06296,-1.92441,0.609764,-0.001569,0.125263,-0.0709741,0.319969,0.211952,2.47111,-0.183242,-0.00996394,0.0400193,-0.0720317,0.144708,-1.90888,0.188373,0.125525,0.000894823,0.00303967,-0.00716867,-0.000893587,0.0114318,0.0184485,0.0446567,0.00110322,0,0,0,0,0,0,0,-0.424923,-31.2016,-0.788561,26.4035,1.67419,2.01226,0.0577852,
0.0397951,-0.072191,0.144573,-1.9087,0.195163,0.125988,0.000844096,-0.00198429,-0.00137966,-0.000157143,0.00280684,0.235609,-0.0117791,-0.000957037,-0.41445,-0.115698,-0.396432,0.112978,-3.43829,1.61847,-0.00544855,0.147413,-0.0707858,0.34307,0.208018,2.45465,-0.141703,-0.00990525,0.0400193,-0.0720317,0.144708,-1.90888,0.188373,0.125525,0.000894823,0.00303967,-0.00716867,-0.000893587,0.0114318,0.0184485,0.0446567,0.00110322,0,0,0,0,0,0,0,-0.424923,-31.2016,-0.788561,26.4035,1.67419,2.01226,0.0577852,
0.0397659,-0.0722045,0.144559,-1.90867,0.196936,0.125952,0.000836387,-0.00231698,-0.00144107,-0.000470647,0.00288741,0.232807,-0.0103329,-0.000958334,-0.207933,-0.0383838,-0.19594,0.050354,-1.75139,0.903891,-0.000810778,0.146792,-0.0659155,0.342842,0.200685,2.45398,-0.150016,-0.00986481,0.0400177,-0.0720929,0.144708,-1.90857,0.18836,0.126803,0.000886096,-0.000429893,0.00208944,0.00137928,0.00515228,-0.00439533,0.0354461,-0.000152211,-0.433695,1.15726,0.284108,-0.784939,-2.85548,-1.15132,-0.156929,-0.373349,-31.0509,-0.911547,26.4789,1.60095,2.09191,0.0980684,
0.039744,-0.0722156,0.144552,-1.90865,0.19875,0.125897,0.000828768,-0.00240021,-0.00143036,-0.000538729,0.00289873,0.231606,-0.00963597,-0.000957158,-0.0520169,0.00669324,-0.0425515,0.00707846,-0.750738,0.435592,0.000735377,0.146407,-0.0659358,0.34246,0.20072,2.45288,-0.15042,-0.00986654,0.0400177,-0.0720929,0.144708,-1.90857,0.18836,0.126803,0.000886096,-0.000429893,0.00208944,0.00137928,0.00515228,-0.00439533,0.0354461,-0.000152211,0,0,0,0,0,0,0,-0.373349,-31.0509,-0.911547,26.4789,1.60095,2.09191,0.0980684,
0.0397286,-0.072225,0.144552,-1.90863,0.200592,0.125828,0.000821166,-0.00230654,-0.00138041,-0.000431298,0.00286434,0.231323,-0.00942147,-0.000955782,0.0585454,0.031223,0.0671442,-0.0214938,-0.176658,0.134063,0.000859982,0.146042,-0.0659433,0.34208,0.200761,2.45181,-0.150819,-0.00986779,0.0400177,-0.0720929,0.144708,-1.90857,0.18836,0.126803,0.000886096,-0.000429893,0.00208944,0.00137928,0.00515228,-0.00439533,0.0354461,-0.000152211,0,0,0,0,0,0,0,-0.373349,-31.0509,-0.911547,26.4789,1.60095,2.09191,0.0980684,
0.0398202,-0.07205,0.144605,-1.90858,0.19459,0.127783,0.000838278,-0.00251003,-0.000853613,-0.000601367,0.00234846,0.225483,-0.00375079,-0.000948144,-0.127182,0.329246,-0.106293,-0.322428,-3.65002,3.54417,0.00477383,0.372851,-0.0584996,0.578718,0.151844,2.4146,0.159025,-0.00940808,0.0400177,-0.0720929,0.144708,-1.90857,0.18836,0.126803,0.000886096,-0.000429893,0.00208944,0.00137928,0.00515228,-0.00439533,0.0354461,-0.000152211,0,0,0,0,0,0,0,-0.373349,-31.0509,-0.911547,26.4789,1.60095,2.09191,0.0980684,
0.0398031,-0.0720411,0.144604,-1.90858,0.196274,0.127924,0.000831128,-0.00243495,-0.000461888,-0.000510281,0.00198865,0.222472,0.000520082,-0.000937275,0.0469237,0.244828,0.0569285,-0.224877,-1.8819,2.6693,0.00679307,0.368872,-0.054802,0.575088,0.14839,2.40354,0.151842,-0.00941489,0.0400244,-0.0720986,0.14465,-1.9085,0.188387,0.127564,0.000894823,0.00193995,1.18429e-06,0.00202488,-0.00783775,-0.00504857,0.0120308,0.000462188,0.296231,-0.261031,0.0807009,-1.62375,-0.0816557,-2.92691,0.0767999,-0.627255,-31.4516,-1.0385,26.6296,1.43066,2.29058,0.0577852,
0.0397945,-0.0720338,0.144611,-1.90857,0.197999,0.128056,0.000824019,-0.00216265,-0.000186041,-0.000229198,0.00174106,0.22112,0.00373133,-0.000927549,0.170186,0.172404,0.175677,-0.154745,-0.845196,2.00703,0.0060787,0.36503,-0.0546413,0.571689,0.1487,2.39215,0.148799,-0.00943308,0.0400244,-0.0720986,0.14465,-1.9085,0.188387,0.127564,0.000894823,0.00193995,1.18429e-06,0.00202488,-0.00783775,-0.00504857,0.0120308,0.000462188,0,0,0,0,0,0,0,-0.627255,-31.4516,-1.0385,26.6296,1.43066,2.29058,0.0577852,
0.0397932,-0.072028,0.144625,-1.90856,0.199751,0.128182,0.000816887,-0.00176354,-4.7364e-06,0.000177197,0.00157394,0.220696,0.00613378,-0.000920321,0.249442,0.113316,0.253997,-0.10445,-0.264928,1.50153,0.0045173,0.36145,-0.0541964,0.568047,0.149186,2.38082,0.145889,-0.00943064,0.0400244,-0.0720986,0.14465,-1.9085,0.188387,0.127564,0.000894823,0.00193995,1.18429e-06,0.00202488,-0.00783775,-0.00504857,0.0120308,0.000462188,0,0,0,0,0,0,0,-0.627255,-31.4516,-1.0385,26.6296,1.43066,2.29058,0.0577852,
0.0402958,-0.0719177,0.145014,-1.90903,0.195753,0.131212,0.000879859,0.00120522,0.00118601,0.00277892,-0.000761547,0.224162,0.0270871,-0.000795543,1.85548,0.744218,1.62608,-1.45968,2.16624,13.0958,0.0779861,2.41906,0.174189,2.8244,-0.479709,3.15025,1.39064,-0.00636388,0.0400244,-0.0720986,0.14465,-1.9085,0.188387,0.127564,0.000894823,0.00193995,1.18429e-06,0.00202488,-0.00783775,-0.00504857,0.0120308,0.000462188,0,0,0,0,0,0,0,-0.627255,-31.4516,-1.0385,26.6296,1.43066,2.29058,0.0577852,
0.0404145,-0.0718723,0.145136,-1.9091,0.197732,0.132116,0.000876874,0.00393126,0.00208401,0.00527946,-0.00235543,0.228786,0.0442755,-0.000711069,1.70377,0.56125,1.56284,-0.996179,2.89031,10.7428,0.0527968,2.37166,0.154989,2.79282,-0.469798,3.0111,1.35431,-0.00442743,0.0399868,-0.0720456,0.144611,-1.90853,0.188341,0.127625,0.000892544,0.000755607,-0.00142862,-0.000468052,-0.00134755,-0.00686225,-0.000214425,0.000168134,-0.148043,-0.178725,-0.311617,0.811275,-0.22671,-1.53066,-0.0367567,0.0313145,-31.6777,-0.33629,26.8518,1.80877,2.39037,0.0779268,
0.040545,-0.0718303,0.145272,-1.90916,0.199746,0.133025,0.000873565,0.00640731,0.002717,0.00762813,-0.00340876,0.23339,0.0581345,-0.000651568,1.54753,0.395617,1.46792,-0.65833,2.87753,8.66184,0.0371878,2.4035,0.115973,2.64092,-0.484094,2.90181,1.32396,-0.000993083,0.0399868,-0.0720456,0.144611,-1.90853,0.188341,0.127625,0.000892544,0.000755607,-0.00142862,-0.000468052,-0.00134755,-0.00686225,-0.000214425,0.000168134,0,0,0,0,0,0,0,0.0313145,-31.6777,-0.33629,26.8518,1.80877,2.39037,0.0779268,
0.0406852,-0.0717922,0.14542,-1.90922,0.20177,0.133929,0.000870027,0.00863128,0.00312577,0.00978744,-0.00407496,0.237316,0.0691164,-0.000609716,1.38998,0.255482,1.34957,-0.416376,2.45318,6.86372,0.0261578,2.42235,0.0984749,2.43359,-0.500381,2.8798,1.28525,-0.00253477,0.0399868,-0.0720456,0.144611,-1.90853,0.188341,0.127625,0.000892544,0.000755607,-0.00142862,-0.000468052,-0.00134755,-0.00686225,-0.000214425,0.000168134,0,0,0,0,0,0,0,0.0313145,-31.6777,-0.33629,26.8518,1.80877,2.39037,0.0779268,
0.041693,-0.0724,0.146417,-1.91178,0.200142,0.140566,0.00121815,0.0195273,0.00283487,0.0206489,-0.018125,0.264888,0.12925,0.000874902,6.81004,-0.181809,6.78841,-8.78125,17.2328,37.5834,0.927886,10.3832,-1.60898,11.0027,-7.39112,5.44207,4.91649,0.0922541,0.0399868,-0.0720456,0.144611,-1.90853,0.188341,0.127625,0.000892544,0.000755607,-0.00142862,-0.000468052,-0.00134755,-0.00686225,-0.000214425,0.000168134,0,0,0,0,0,0,0,0.0313145,-31.6777,-0.33629,26.8518,1.80877,2.39037,0.0779268,
0.0422427,-0.0723672,0.146973,-1.91234,0.203179,0.143479,0.00126927,0.0293626,0.00308602,0.0304047,-0.0285294,0.287841,0.176234,0.0019778,6.14702,0.156967,6.09736,-6.50276,14.3454,29.365,0.689311,9.88866,-1.12074,10.303,-7.30137,5.29406,4.59806,0.0809228,0.0402492,-0.0718117,0.144838,-1.90851,0.188339,0.127702,0.000887467,0.0186785,0.00998957,0.0151469,3.98449e-05,-0.0045006,0.00958486,-0.000836798,2.24036,1.42727,1.95187,0.173424,0.295207,1.22491,-0.125617,2.36408,-31.3246,2.1869,26.7288,1.94976,2.52953,0.0907442,
0.0428254,-0.072322,0.14756,-1.91287,0.206174,0.146306,0.00131786,0.0380583,0.00359872,0.0390013,-0.0361821,0.305155,0.211668,0.00279721,5.43484,0.320438,5.37287,-4.78298,10.8215,22.146,0.512131,9.48872,-0.679952,9.76634,-7.19529,5.07048,4.30692,0.0729474,0.0402492,-0.0718117,0.144838,-1.90851,0.188339,0.127702,0.000887467,0.0186785,0.00998957,0.0151469,3.98449e-05,-0.0045006,0.00958486,-0.000836798,0,0,0,0,0,0,0,2.36408,-31.3246,2.1869,26.7288,1.94976,2.52953,0.0907442,
0.0427077,-0.0719552,0.14751,-1.91377,0.202526,0.143828,0.0013194,0.0472443,0.00444197,0.0492025,-0.0546964,0.328275,0.257045,0.00409236,5.74122,0.527027,6.37579,-11.5714,14.45,28.3606,0.809467,13.1441,0.715471,13.7323,-13.3198,6.76576,5.99107,0.124337,0.0402492,-0.0718117,0.144838,-1.90851,0.188339,0.127702,0.000887467,0.0186785,0.00998957,0.0151469,3.98449e-05,-0.0045006,0.00958486,-0.000836798,0,0,0,0,0,0,0,2.36408,-31.3246,2.1869,26.7288,1.94976,2.52953,0.0907442,
0.0434301,-0.0718811,0.148282,-1.91477,0.205807,0.147207,0.00138941,0.0558572,0.00540765,0.0586585,-0.0687341,0.344631,0.290099,0.00502402,5.38308,0.603551,5.90997,-8.77356,10.2225,20.659,0.582287,12.4562,0.663021,13.086,-13.2586,6.29118,5.45645,0.10988,0.0402492,-0.0718117,0.144838,-1.90851,0.188339,0.127702,0.000887467,0.0186785,0.00998957,0.0151469,3.98449e-05,-0.0045006,0.00958486,-0.000836798,0,0,0,0,0,0,0,2.36408,-31.3246,2.1869,26.7288,1.94976,2.52953,0.0907442,
0.0441895,-0.0718041,0.149092,-1.91574,0.208923,0.150419,0.00145621,0.0636706,0.00625071,0.0671678,-0.0793308,0.353614,0.312391,0.00568926,4.88335,0.526912,5.31831,-6.62293,5.61451,13.9323,0.415779,11.9108,0.679523,12.5624,-13.156,5.77977,4.98723,0.099498,0.0402492,-0.0718117,0.144838,-1.90851,0.188339,0.127702,0.000887467,0.0186785,0.00998957,0.0151469,3.98449e-05,-0.0045006,0.00958486,-0.000836798,0,0,0,0,0,0,0,2.36408,-31.3246,2.1869,26.7288,1.94976,2.52953,0.0907442,
0.0449751,-0.071729,0.149928,-1.9167,0.211825,0.153449,0.00152084,0.070575,0.00687624,0.0746439,-0.0872874,0.355436,0.325654,0.00616712,4.3153,0.390956,4.67258,-4.97285,1.1384,8.28982,0.298663,11.458,0.765302,12.1206,-13.0312,5.25133,4.57473,0.0919466,0.042331,-0.0711097,0.146401,-1.90861,0.189162,0.130075,0.000892101,0.09626,0.028802,0.0797333,-0.0135189,0.0604476,0.156013,0.00144511,9.69769,2.35156,8.0733,-1.69485,8.11853,18.3035,0.285238,7.8429,-30.3764,7.88789,26.951,2.73712,2.84081,0.050461,
0.0464099,-0.071262,0.150539,-1.9157,0.205777,0.149887,0.00131623,0.07907,0.00690031,0.0826551,-0.105212,0.374988,0.360805,0.00684191,5.30938,0.0150476,5.00699,-11.2028,12.2203,21.9695,0.421745,14.5203,1.03898,14.666,-18.983,7.02175,6.55165,0.13114,0.042331,-0.0711097,0.146401,-1.90861,0.189162,0.130075,0.000892101,0.09626,0.028802,0.0797333,-0.0135189,0.0604476,0.156013,0.00144511,0,0,0,0,0,0,0,7.8429,-30.3764,7.88789,26.951,2.73712,2.84081,0.050461,
0.0473401,-0.0711881,0.151483,-1.91709,0.209204,0.153715,0.00138939,0.08651,0.00736749,0.089722,-0.118806,0.385678,0.384355,0.00730248,4.64998,0.291984,4.41682,-8.49621,6.68136,14.7185,0.287854,13.8027,1.01365,13.9758,-18.8528,6.39403,5.96309,0.116099,0.042331,-0.0711097,0.146401,-1.90861,0.189162,0.130075,0.000892101,0.09626,0.028802,0.0797333,-0.0135189,0.0604476,0.156013,0.00144511,0,0,0,0,0,0,0,7.8429,-30.3764,7.88789,26.951,2.73712,2.84081,0.050461,
0.0482877,-0.0711046,0.152445,-1.91845,0.212371,0.157344,0.00145999,0.0928985,0.00798278,0.0958221,-0.129062,0.387715,0.398208,0.00760701,3.99282,0.384556,3.81256,-6.4101,1.27294,8.65823,0.190328,13.2342,1.06967,13.4241,-18.674,5.76159,5.46065,0.105133,0.042331,-0.0711097,0.146401,-1.90861,0.189162,0.130075,0.000892101,0.09626,0.028802,0.0797333,-0.0135189,0.0604476,0.156013,0.00144511,0,0,0,0,0,0,0,7.8429,-30.3764,7.88789,26.951,2.73712,2.84081,0.050461,
0.0492461,-0.0710161,0.153417,-1.91979,0.215243,0.16077,0.00152911,0.0982776,0.00859867,0.100976,-0.136743,0.38196,0.40423,0.00781354,3.36195,0.384934,3.22135,-4.80066,-3.59691,3.76324,0.129087,12.7667,1.24953,12.9651,-18.4729,5.13266,5.02033,0.0976608,0.0465955,-0.0694666,0.150409,-1.91001,0.190849,0.137072,0.000895957,0.154075,0.0340187,0.147906,-0.0736706,0.0330193,0.232774,9.2456e-05,7.22693,0.652079,8.52156,-7.51896,-3.42855,9.59517,-0.169081,5.96637,-28.6824,5.96376,24.5111,2.78015,2.21093,0.0440523,
0.0517041,-0.0695516,0.155772,-1.91916,0.207174,0.157977,0.00125131,0.104069,0.00813478,0.107349,-0.154789,0.391984,0.427477,0.0080077,3.6199,-0.289928,3.98279,-11.2788,6.26476,14.5294,0.12135,14.0374,1.28428,14.631,-24.1676,6.7029,6.71505,0.116189,0.0465955,-0.0694666,0.150409,-1.91001,0.190849,0.137072,0.000895957,0.154075,0.0340187,0.147906,-0.0736706,0.0330193,0.232774,9.2456e-05,0,0,0,0,0,0,0,5.96637,-28.6824,5.96376,24.5111,2.78015,2.21093,0.0440523,
0.0527253,-0.0694901,0.156837,-1.92095,0.210368,0.161967,0.00132038,0.108785,0.00804691,0.112503,-0.168392,0.393448,0.441721,0.00813279,2.94741,-0.0549222,3.2214,-8.50167,0.914991,8.90295,0.0781788,13.4672,1.16509,14.0573,-23.9535,5.95853,6.14858,0.104785,0.0465955,-0.0694666,0.150409,-1.91001,0.190849,0.137072,0.000895957,0.154075,0.0340187,0.147906,-0.0736706,0.0330193,0.232774,9.2456e-05,0,0,0,0,0,0,0,5.96637,-28.6824,5.96376,24.5111,2.78015,2.21093,0.0440523,
0.0537471,-0.0694244,0.157902,-1.9227,0.213253,0.165773,0.00138823,0.112573,0.00807986,0.116623,-0.178568,0.386869,0.448523,0.00820254,2.36744,0.0205925,2.57522,-6.36023,-4.11196,4.25088,0.0435935,13.019,1.11674,13.6018,-23.7012,5.25158,5.67312,0.0963543,0.0465955,-0.0694666,0.150409,-1.91001,0.190849,0.137072,0.000895957,0.154075,0.0340187,0.147906,-0.0736706,0.0330193,0.232774,9.2456e-05,0,0,0,0,0,0,0,5.96637,-28.6824,5.96376,24.5111,2.78015,2.21093,0.0440523,
0.0584845,-0.0669764,0.163085,-1.92519,0.206248,0.167712,0.001178,0.117946,0.00928529,0.121912,-0.197746,0.387271,0.466522,0.00814696,3.35789,0.753397,3.30512,-11.9861,0.251676,11.2496,-0.0347366,13.6336,1.55126,13.9689,-28.648,6.0365,6.95588,0.0972942,0.0524948,-0.0673801,0.156905,-1.91392,0.191286,0.146249,0.000891887,0.189787,0.0503604,0.209087,-0.154527,0.00217345,0.281338,-4.97999e-05,4.46391,2.04272,7.64768,-10.1071,-3.85573,6.07048,-0.017782,1.30085,-28.98,1.06416,22.4203,2.56591,1.62041,0.0843355,
0.0595834,-0.0668616,0.164212,-1.92734,0.209075,0.171884,0.00124199,0.121829,0.0102986,0.12569,-0.211958,0.380491,0.477513,0.00811733,2.4272,0.633343,2.36176,-8.88254,-4.23739,6.86924,-0.0185165,13.217,1.43912,13.5603,-28.35,5.25634,6.44595,0.0905263,0.0524948,-0.0673801,0.156905,-1.91392,0.191286,0.146249,0.000891887,0.189787,0.0503604,0.209087,-0.154527,0.00217345,0.281338,-4.97999e-05,0,0,0,0,0,0,0,1.30085,-28.98,1.06416,22.4203,2.56591,1.62041,0.0843355,
0.060668,-0.0667493,0.165323,-1.92945,0.211584,0.175908,0.00130604,0.124578,0.0110461,0.128329,-0.222361,0.3671,0.482603,0.0080951,1.71789,0.467184,1.64925,-6.50158,-8.36957,3.18115,-0.0138953,12.8889,1.38801,13.2329,-28.0213,4.54864,6.01742,0.0853637,0.0524948,-0.0673801,0.156905,-1.91392,0.191286,0.146249,0.000891887,0.189787,0.0503604,0.209087,-0.154527,0.00217345,0.281338,-4.97999e-05,0,0,0,0,0,0,0,1.30085,-28.98,1.06416,22.4203,2.56591,1.62041,0.0843355,
0.0617391,-0.0666415,0.16642,-1.93153,0.213765,0.17978,0.00137065,0.126441,0.0115326,0.130085,-0.229831,0.348211,0.482895,0.0080913,1.16458,0.304013,1.09719,-4.66917,-11.8058,0.18236,-0.00237412,12.629,1.36385,12.9701,-27.6744,3.89357,5.64601,0.0827656,0.0524948,-0.0673801,0.156905,-1.91392,0.191286,0.146249,0.000891887,0.189787,0.0503604,0.209087,-0.154527,0.00217345,0.281338,-4.97999e-05,0,0,0,0,0,0,0,1.30085,-28.98,1.06416,22.4203,2.56591,1.62041,0.0843355,
0.0651926,-0.0641301,0.17161,-1.93459,0.205226,0.181814,0.00111454,0.129674,0.0129738,0.133546,-0.248326,0.350141,0.504181,0.00787489,2.02057,0.900791,2.16335,-11.5594,1.20665,13.3042,-0.135257,12.8942,0.550405,13.3185,-32.8109,5.52756,7.60771,0.0778528,0.058829,-0.0651319,0.164989,-1.92108,0.191388,0.158249,0.000893399,0.179852,0.0873728,0.274323,-0.240833,-0.017214,0.379907,0.00107137,-1.24187,4.62655,8.15448,-10.7882,-2.42343,12.3212,0.140146,2.94727,-24.2867,2.5876,15.0214,1.80236,-0.0504244,0.0706026,
0.0663048,-0.0639989,0.172758,-1.93711,0.207813,0.186414,0.0011726,0.131545,0.0136574,0.135548,-0.261503,0.344784,0.51834,0.00775146,1.16898,0.427252,1.25113,-8.2355,-3.34831,8.84911,-0.0771442,12.6231,0.532403,13.0563,-32.4157,4.76083,7.14185,0.0754932,0.058829,-0.0651319,0.164989,-1.92108,0.191388,0.158249,0.000893399,0.179852,0.0873728,0.274323,-0.240833,-0.017214,0.379907,0.00107137,0,0,0,0,0,0,0,2.94727,-24.2867,2.5876,15.0214,1.80236,-0.0504244,0.0706026,
0.0673939,-0.0638854,0.173882,-1.93956,0.210097,0.190886,0.00123174,0.132462,0.0137636,0.136535,-0.270661,0.332938,0.526468,0.00767967,0.573515,0.0663377,0.616876,-5.72403,-7.40354,5.08036,-0.0448677,12.4048,0.547473,12.8389,-32.0003,4.08822,6.74113,0.0734779,0.058829,-0.0651319,0.164989,-1.92108,0.191388,0.158249,0.000893399,0.179852,0.0873728,0.274323,-0.240833,-0.017214,0.379907,0.00107137,0,0,0,0,0,0,0,2.94727,-24.2867,2.5876,15.0214,1.80236,-0.0504244,0.0706026,
0.068463,-0.0637875,0.174985,-1.94197,0.212077,0.195223,0.00129212,0.132698,0.013459,0.1368,-0.276779,0.31585,0.529612,0.00765319,0.147364,-0.190368,0.165477,-3.82376,-10.6805,1.96484,-0.0165503,12.2285,0.571099,12.6595,-31.5739,3.47938,6.38774,0.0731888,0.058829,-0.0651319,0.164989,-1.92108,0.191388,0.158249,0.000893399,0.179852,0.0873728,0.274323,-0.240833,-0.017214,0.379907,0.00107137,0,0,0,0,0,0,0,2.94727,-24.2867,2.5876,15.0214,1.80236,-0.0504244,0.0706026,
0.0652352,-0.0641023,0.171638,-1.93376,0.199525,0.178312,0.00112038,0.134379,0.0142217,0.138569,-0.282337,0.29273,0.522732,0.00755862,1.05039,0.476672,1.10563,-3.47359,-14.4498,-4.3003,-0.0591091,12.0891,0.664125,12.5129,-31.124,2.97816,6.09669,0.0727233,0.0642118,-0.0627039,0.173651,-1.93167,0.191426,0.172412,0.000891174,0.166928,0.116853,0.264338,-0.36812,-0.00471896,0.432619,-0.00763425,-1.61549,3.68504,-1.24813,-15.9109,1.56188,6.58894,-1.0882,0.868412,-25.4848,0.461134,17.9611,1.3446,0.466849,0.0907442,
0.0663257,-0.0639831,0.172763,-1.93614,0.200929,0.182197,0.00117983,0.134765,0.0143573,0.138976,-0.285431,0.26927,0.515309,0.00753326,0.241638,0.0847623,0.254541,-1.93352,-14.6627,-4.63924,-0.0158511,11.9627,0.674427,12.379,-30.6929,2.5011,5.82483,0.0734584,0.0642118,-0.0627039,0.173651,-1.93167,0.191426,0.172412,0.000891174,0.166928,0.116853,0.264338,-0.36812,-0.00471896,0.432619,-0.00763425,0,0,0,0,0,0,0,0.868412,-25.4848,0.461134,17.9611,1.3446,0.466849,0.0907442,
0.0673852,-0.0638803,0.173855,-1.93847,0.202127,0.185999,0.0012404,0.134298,0.0140568,0.13849,-0.286709,0.245375,0.507311,0.00754084,-0.292038,-0.187796,-0.303927,-0.798834,-14.9345,-4.99888,0.00474063,11.8484,0.674153,12.2562,-30.2634,2.08991,5.58764,0.0738381,0.0642118,-0.0627039,0.173651,-1.93167,0.191426,0.172412,0.000891174,0.166928,0.116853,0.264338,-0.36812,-0.00471896,0.432619,-0.00763425,0,0,0,0,0,0,0,0.868412,-25.4848,0.461134,17.9611,1.3446,0.466849,0.0907442,
0.0704398,-0.0603296,0.180112,-1.94472,0.195482,0.188823,0.00114295,0.134673,0.0184916,0.138893,-0.28972,0.215423,0.486599,0.00751069,0.234437,2.77173,0.251942,-1.88169,-18.72,-12.9447,-0.0188464,11.6389,0.645391,12.0289,-29.4106,1.41131,5.18599,0.0754323,0.0642118,-0.0627039,0.173651,-1.93167,0.191426,0.172412,0.000891174,0.166928,0.116853,0.264338,-0.36812,-0.00471896,0.432619,-0.00763425,0,0,0,0,0,0,0,0.868412,-25.4848,0.461134,17.9611,1.3446,0.466849,0.0907442,
0.0714871,-0.0600938,0.181192,-1.94706,0.196124,0.192034,0.00120346,0.13392,0.0206886,0.138106,-0.290341,0.188386,0.469574,0.00752145,-0.470517,1.37314,-0.491486,-0.388359,-16.898,-10.6405,0.00672727,11.5453,0.571933,11.9247,-29.0153,1.14336,4.98299,0.0765521,0.0693583,-0.0606013,0.181017,-1.94358,0.191256,0.187992,0.000893399,0.144207,0.084081,0.199374,-0.351633,-0.0166268,0.467987,0.000416722,-2.84016,-4.09652,-8.12048,2.06099,-1.48848,4.42104,1.00637,-6.79242,-36.494,-7.28697,32.7075,1.11847,3.03307,0.0706026,
0.0725002,-0.0599004,0.182236,-1.94934,0.196643,0.195223,0.00126466,0.132464,0.0213862,0.136582,-0.289277,0.163685,0.455372,0.00754699,-0.910166,0.436011,-0.952832,0.66501,-15.4379,-8.87644,0.0159602,11.4408,0.543383,11.8115,-28.5946,0.910385,4.82989,0.0770213,0.0693583,-0.0606013,0.181017,-1.94358,0.191256,0.187992,0.000893399,0.144207,0.084081,0.199374,-0.351633,-0.0166268,0.467987,0.000416722,0,0,0,0,0,0,0,-6.79242,-36.494,-7.28697,32.7075,1.11847,3.03307,0.0706026,
0.0734847,-0.0597403,0.18325,-1.95157,0.197046,0.198382,0.00132629,0.130582,0.0211111,0.134614,-0.287036,0.141042,0.44327,0.00757833,-1.17596,-0.17196,-1.23005,1.40064,-14.1522,-7.56404,0.0195902,11.3339,0.512309,11.6962,-28.1756,0.706257,4.68873,0.0776899,0.0693583,-0.0606013,0.181017,-1.94358,0.191256,0.187992,0.000893399,0.144207,0.084081,0.199374,-0.351633,-0.0166268,0.467987,0.000416722,0,0,0,0,0,0,0,-6.79242,-36.494,-7.28697,32.7075,1.11847,3.03307,0.0706026,
0.0747556,-0.058761,0.186603,-1.95557,0.192573,0.20384,0.00117462,0.128952,0.0224886,0.132934,-0.285507,0.118819,0.430365,0.007574,-1.01876,0.860968,-1.04971,0.955417,-13.8889,-8.06555,-0.00270536,11.223,0.480463,11.577,-27.7583,0.535223,4.56101,0.0779495,0.0693583,-0.0606013,0.181017,-1.94358,0.191256,0.187992,0.000893399,0.144207,0.084081,0.199374,-0.351633,-0.0166268,0.467987,0.000416722,0,0,0,0,0,0,0,-6.79242,-36.494,-7.28697,32.7075,1.11847,3.03307,0.0706026,
0.0757061,-0.0585783,0.187582,-1.95775,0.192751,0.206833,0.00123555,0.126924,0.0225568,0.130828,-0.282814,0.0994925,0.419118,0.00758251,-1.26763,0.0426309,-1.31634,1.68322,-12.0794,-7.029,0.00531683,11.1222,0.42863,11.4634,-27.3404,0.408094,4.43617,0.0783176,0.0730558,-0.0584467,0.187687,-1.95483,0.191025,0.200427,0.000893151,0.0979651,0.111915,0.177117,-0.308786,-0.0158881,0.277573,0.00165287,-5.78019,3.47923,-2.7822,5.35577,0.0923333,-23.8018,0.154518,-5.09045,-36.1449,-5.5374,37.2897,0.850216,3.97423,0.0440523,
0.0766322,-0.0584277,0.188536,-1.95987,0.192867,0.20979,0.00129653,0.124692,0.0218117,0.128504,-0.279339,0.0825022,0.40923,0.00759044,-1.39496,-0.465681,-1.45221,2.17203,-10.619,-6.18018,0.00495562,11.0029,0.397892,11.3365,-26.9256,0.284265,4.32692,0.078323,0.0730558,-0.0584467,0.187687,-1.95483,0.191025,0.200427,0.000893151,0.0979651,0.111915,0.177117,-0.308786,-0.0158881,0.277573,0.00165287,0,0,0,0,0,0,0,-5.09045,-36.1449,-5.5374,37.2897,0.850216,3.97423,0.0440523,
0.077537,-0.0583019,0.189467,-1.96194,0.192927,0.21271,0.00135738,0.122376,0.020594,0.126091,-0.275352,0.0674942,0.400395,0.00759368,-1.44789,-0.761075,-1.50823,2.49212,-9.37996,-5.52199,0.00202265,10.8797,0.368503,11.206,-26.512,0.177161,4.22382,0.0783602,0.0730558,-0.0584467,0.187687,-1.95483,0.191025,0.200427,0.000893151,0.0979651,0.111915,0.177117,-0.308786,-0.0158881,0.277573,0.00165287,0,0,0,0,0,0,0,-5.09045,-36.1449,-5.5374,37.2897,0.850216,3.97423,0.0440523,
0.0777828,-0.0563134,0.192578,-1.96637,0.19091,0.213038,0.00118819,0.120149,0.0229454,0.123798,-0.273891,0.0524683,0.385227,0.00758214,-1.39148,1.46959,-1.43328,0.912786,-9.39119,-9.48003,-0.00720718,10.7523,0.341148,11.0715,-26.0991,0.0886315,4.12818,0.0781283,0.0730558,-0.0584467,0.187687,-1.95483,0.191025,0.200427,0.000893151,0.0979651,0.111915,0.177117,-0.308786,-0.0158881,0.277573,0.00165287,0,0,0,0,0,0,0,-5.09045,-36.1449,-5.5374,37.2897,0.850216,3.97423,0.0440523,
0.0786532,-0.0561019,0.193475,-1.96845,0.190822,0.215648,0.00124816,0.11788,0.0236424,0.121445,-0.271088,0.0397677,0.373437,0.0075648,-1.41846,0.43564,-1.47096,1.75183,-7.93792,-7.36859,-0.0108385,10.6213,0.315693,10.9337,-25.6871,0.0125158,4.03701,0.077903,0.0730558,-0.0584467,0.187687,-1.95483,0.191025,0.200427,0.000893151,0.0979651,0.111915,0.177117,-0.308786,-0.0158881,0.277573,0.00165287,0,0,0,0,0,0,0,-5.09045,-36.1449,-5.5374,37.2897,0.850216,3.97423,0.0440523,
0.079506,-0.0559276,0.194352,-1.97047,0.190709,0.218262,0.00130762,0.115623,0.023273,0.119096,-0.267382,0.0289995,0.364097,0.00753857,-1.41022,-0.230879,-1.46779,2.31624,-6.73008,-5.83769,-0.0163976,10.5157,0.191609,10.8194,-25.2648,-0.0382525,3.95513,0.0774189,0.0755144,-0.0571139,0.192583,-1.96476,0.190321,0.205457,0.000887817,0.0658261,0.0366607,0.130315,-0.245937,-0.018186,0.107505,-0.000191995,-4.01737,-9.40677,-5.85025,7.8562,-0.287241,-21.2586,-0.230608,-1.66668,-37.9421,-2.11363,37.3413,0.9967,4.51165,0.0779268,
0.0803425,-0.0557824,0.195213,-1.97243,0.190576,0.22087,0.00136653,0.113411,0.0222481,0.116789,-0.263089,0.0198595,0.356482,0.00750353,-1.38278,-0.640549,-1.44187,2.68302,-5.7125,-4.75906,-0.0218968,10.3782,0.170411,10.6756,-24.8543,-0.091651,3.87293,0.0769742,0.0755144,-0.0571139,0.192583,-1.96476,0.190321,0.205457,0.000887817,0.0658261,0.0366607,0.130315,-0.245937,-0.018186,0.107505,-0.000191995,0,0,0,0,0,0,0,-1.66668,-37.9421,-2.11363,37.3413,0.9967,4.51165,0.0779268,
0.0795155,-0.0563609,0.196708,-1.97499,0.189398,0.216104,0.00119195,0.110663,0.0207678,0.113949,-0.259005,0.0105831,0.345834,0.00747991,-1.7177,-0.925194,-1.7751,2.55293,-5.79778,-6.65537,-0.0147628,10.2379,0.15141,10.5291,-24.4444,-0.135225,3.79508,0.076376,0.0755144,-0.0571139,0.192583,-1.96476,0.190321,0.205457,0.000887817,0.0658261,0.0366607,0.130315,-0.245937,-0.018186,0.107505,-0.000191995,0,0,0,0,0,0,0,-1.66668,-37.9421,-2.11363,37.3413,0.9967,4.51165,0.0779268,
0.0803045,-0.0562559,0.19752,-1.97688,0.189182,0.218568,0.00125002,0.108255,0.019239,0.111458,-0.254485,0.00307288,0.33828,0.00743585,-1.50478,-0.95547,-1.55708,2.82473,-4.69388,-4.72132,-0.0275354,10.0952,0.134189,10.3805,-24.0353,-0.172117,3.71971,0.0757606,0.0755144,-0.0571139,0.192583,-1.96476,0.190321,0.205457,0.000887817,0.0658261,0.0366607,0.130315,-0.245937,-0.018186,0.107505,-0.000191995,0,0,0,0,0,0,0,-1.66668,-37.9421,-2.11363,37.3413,0.9967,4.51165,0.0779268,
0.0810837,-0.0561636,0.198322,-1.97872,0.188965,0.221047,0.00130717,0.106085,0.0177005,0.10921,-0.249705,-0.00297439,0.332593,0.00737729,-1.3561,-0.96159,-1.40471,2.98738,-3.77954,-3.55382,-0.0366036,9.96416,0.0371524,10.2427,-23.5848,-0.191345,3.67367,0.0748712,0.0778346,-0.0561946,0.19667,-1.97342,0.189283,0.207113,0.000888631,0.0700925,-0.0268623,0.0982165,-0.211242,-0.0421168,0.0243107,-0.00122464,0.533298,-7.94037,-4.01227,4.33688,-2.99134,-10.3992,-0.129081,-1.76983,-35.2205,-2.06206,33.6279,1.31439,4.09417,0.0706026,
0.0815027,-0.0565031,0.200438,-1.98253,0.187897,0.216525,0.00118304,0.103422,0.0144102,0.106446,-0.243608,-0.00882478,0.323385,0.00730582,-1.66467,-2.05645,-1.72765,3.81051,-3.65649,-5.75526,-0.0446704,9.66984,0.0111045,9.93743,-22.7697,-0.236152,3.53631,0.0732831,0.0778346,-0.0561946,0.19667,-1.97342,0.189283,0.207113,0.000888631,0.0700925,-0.0268623,0.0982165,-0.211242,-0.0421168,0.0243107,-0.00122464,0,0,0,0,0,0,0,-1.76983,-35.2205,-2.06206,33.6279,1.31439,4.09417,0.0706026,
0.0822385,-0.0564819,0.201195,-1.98424,0.18765,0.218867,0.00123799,0.101131,0.0120588,0.104075,-0.237769,-0.0132428,0.317267,0.00721831,-1.43144,-1.46958,-1.48165,3.64939,-2.76125,-3.8237,-0.0546883,9.52078,4.88042e-05,9.7831,-22.3631,-0.252389,3.47047,0.0724349,0.0778346,-0.0561946,0.19667,-1.97342,0.189283,0.207113,0.000888631,0.0700925,-0.0268623,0.0982165,-0.211242,-0.0421168,0.0243107,-0.00122464,0,0,0,0,0,0,0,-1.76983,-35.2205,-2.06206,33.6279,1.31439,4.09417,0.0706026,
0.0829657,-0.056455,0.201943,-1.98592,0.187412,0.221228,0.00129187,0.0990866,0.0103205,0.101963,-0.232165,-0.0165417,0.312819,0.00712166,-1.27806,-1.08649,-1.32016,3.50293,-2.06182,-2.77987,-0.0604118,9.37073,-0.00972819,9.6279,-21.9571,-0.264979,3.40681,0.0715351,0.0778346,-0.0561946,0.19667,-1.97342,0.189283,0.207113,0.000888631,0.0700925,-0.0268623,0.0982165,-0.211242,-0.0421168,0.0243107,-0.00122464,0,0,0,0,0,0,0,-1.76983,-35.2205,-2.06206,33.6279,1.31439,4.09417,0.0706026,
0.0836832,-0.0564257,0.202681,-1.98756,0.187182,0.223585,0.00134476,0.0972046,0.00898879,0.100022,-0.226773,-0.0189719,0.309179,0.00701971,-1.17628,-0.832295,-1.2131,3.36987,-1.51889,-2.27509,-0.0637173,9.21878,-0.080176,9.46823,-21.5036,-0.267561,3.37592,0.0704074,0.0799313,-0.0553437,0.199604,-1.98073,0.187917,0.207592,0.000891581,0.0566746,-0.0562548,0.0793444,-0.186249,-0.0383911,0.00488219,0.000517597,-1.67724,-3.67406,-2.35901,3.12412,0.465708,-2.42856,0.21778,-0.857357,-34.8198,-1.28844,28.8196,1.46728,3.24547,0.0440523,
0.0832035,-0.0561496,0.202959,-1.98891,0.186408,0.21649,0.0011761,0.0947203,0.00608541,0.0974415,-0.221143,-0.0221096,0.302274,0.00694279,-1.55266,-1.81461,-1.6128,3.51874,-1.96106,-4.31576,-0.0480733,9.06739,-0.0880616,9.31195,-21.0989,-0.274744,3.31523,0.0694386,0.0799313,-0.0553437,0.199604,-1.98073,0.187917,0.207592,0.000891581,0.0566746,-0.0562548,0.0793444,-0.186249,-0.0383911,0.00488219,0.000517597,0,0,0,0,0,0,0,-0.857357,-34.8198,-1.28844,28.8196,1.46728,3.24547,0.0440523,
0.0838789,-0.0561712,0.203653,-1.99046,0.186148,0.218731,0.00122779,0.0926616,0.0043284,0.0953128,-0.215855,-0.0241834,0.297861,0.00684647,-1.28667,-1.09813,-1.33043,3.30482,-1.29614,-2.75826,-0.060202,8.91556,-0.0953034,9.15535,-20.695,-0.27979,3.2555,0.0684575,0.0799313,-0.0553437,0.199604,-1.98073,0.187917,0.207592,0.000891581,0.0566746,-0.0562548,0.0793444,-0.186249,-0.0383911,0.00488219,0.000517597,0,0,0,0,0,0,0,-0.857357,-34.8198,-1.28844,28.8196,1.46728,3.24547,0.0440523,
0.0845484,-0.0561786,0.204342,-1.99199,0.185904,0.220985,0.00127829,0.0908666,0.0032791,0.0934637,-0.210833,-0.025443,0.294623,0.00673972,-1.12186,-0.655814,-1.15566,3.13901,-0.787238,-2.02351,-0.0667157,8.76341,-0.101771,8.99855,-20.2916,-0.282883,3.19724,0.0674554,0.0799313,-0.0553437,0.199604,-1.98073,0.187917,0.207592,0.000891581,0.0566746,-0.0562548,0.0793444,-0.186249,-0.0383911,0.00488219,0.000517597,0,0,0,0,0,0,0,-0.857357,-34.8198,-1.28844,28.8196,1.46728,3.24547,0.0440523,
0.08521,-0.0561771,0.205022,-1.99348,0.185674,0.223229,0.00132772,0.0892327,0.00266039,0.0917853,-0.206019,-0.0260945,0.291805,0.00662743,-1.02123,-0.386696,-1.04899,3.00838,-0.407193,-1.76146,-0.0701797,8.59952,-0.155716,8.82947,-19.8525,-0.279713,3.16684,0.0662837,0.0819733,-0.0548333,0.202313,-1.98684,0.186544,0.207926,0.000883123,0.0458267,-0.0292947,0.0664518,-0.135271,-0.0481318,0.0150603,-0.00504871,-1.35598,3.37001,-1.61157,6.37218,-1.21759,1.27227,-0.695788,-1.21045,-32.1736,-1.43523,21.2222,1.24115,1.6671,0.158493,
0.0848467,-0.0554854,0.205261,-1.99421,0.18495,0.216985,0.00114671,0.0866342,0.00109684,0.0891009,-0.201058,-0.0281459,0.286758,0.00654544,-1.62401,-0.97722,-1.6778,3.10071,-1.2821,-3.1541,-0.0512451,8.44701,-0.161112,8.67253,-19.4504,-0.279697,3.11057,0.0652447,0.0819733,-0.0548333,0.202313,-1.98684,0.186544,0.207926,0.000883123,0.0458267,-0.0292947,0.0664518,-0.135271,-0.0481318,0.0150603,-0.00504871,0,0,0,0,0,0,0,-1.21045,-32.1736,-1.43523,21.2222,1.24115,1.6671,0.158493,
0.0854576,-0.0555075,0.205889,-1.99563,0.184681,0.219137,0.00119498,0.0845801,0.000325182,0.086986,-0.19636,-0.0292294,0.283225,0.00644311,-1.28382,-0.482285,-1.32178,2.93673,-0.677194,-2.20818,-0.0639554,8.29442,-0.166177,8.51559,-19.0491,-0.278355,3.05492,0.0641848,0.0819733,-0.0548333,0.202313,-1.98684,0.186544,0.207926,0.000883123,0.0458267,-0.0292947,0.0664518,-0.135271,-0.0481318,0.0150603,-0.00504871,0,0,0,0,0,0,0,-1.21045,-32.1736,-1.43523,21.2222,1.24115,1.6671,0.158493,
0.0860657,-0.0555173,0.206514,-1.99702,0.184434,0.221285,0.00124199,0.0828662,1.41581e-05,0.0852266,-0.19185,-0.0295691,0.280279,0.00632984,-1.07119,-0.19439,-1.09961,2.81858,-0.212316,-1.84162,-0.0707994,8.14179,-0.170771,8.35873,-18.6484,-0.276002,3.00031,0.0631184,0.0819733,-0.0548333,0.202313,-1.98684,0.186544,0.207926,0.000883123,0.0458267,-0.0292947,0.0664518,-0.135271,-0.0481318,0.0150603,-0.00504871,0,0,0,0,0,0,0,-1.21045,-32.1736,-1.43523,21.2222,1.24115,1.6671,0.158493,
0.0847094,-0.0554019,0.205121,-1.99367,0.185031,0.216131,0.00112673,0.0805859,-0.000800682,0.0828754,-0.186741,-0.0303103,0.272928,0.00621005,-1.42518,-0.509275,-1.46952,3.19311,-0.463232,-4.59424,-0.0748685,7.82997,-0.217948,8.04022,-17.8182,-0.262476,2.91675,0.0608163,0.0832719,-0.0545637,0.205068,-1.99128,0.185236,0.207999,0.00088638,0.0274674,0.0089857,0.0809101,-0.11169,-0.0262663,0.0227983,-0.000881624,-2.29491,4.78505,1.80729,2.94771,2.73319,0.967252,0.520886,-0.603451,-29.3807,-0.788561,18.1357,1.19171,0.997854,0.0907442,
0.0852796,-0.0554178,0.205707,-1.99497,0.184786,0.218102,0.00117117,0.0787217,-0.00103591,0.0809606,-0.181887,-0.0303658,0.267626,0.00607888,-1.16518,-0.147019,-1.19673,3.03389,-0.0347159,-3.31358,-0.0819785,7.67725,-0.221766,7.88358,-17.4196,-0.257942,2.86404,0.0597066,0.0832719,-0.0545637,0.205068,-1.99128,0.185236,0.207999,0.00088638,0.0274674,0.0089857,0.0809101,-0.11169,-0.0262663,0.0227983,-0.000881624,0,0,0,0,0,0,0,-0.603451,-29.3807,-0.788561,18.1357,1.19171,0.997854,0.0907442,
0.085845,-0.0554231,0.206289,-1.99624,0.18456,0.220072,0.00121437,0.0771126,-0.000962916,0.0793133,-0.177225,-0.0299314,0.263359,0.00594314,-1.00567,0.0456232,-1.0296,2.91357,0.271496,-2.6667,-0.0848369,7.52448,-0.225275,7.72702,-17.0214,-0.253253,2.81214,0.0585944,0.0832719,-0.0545637,0.205068,-1.99128,0.185236,0.207999,0.00088638,0.0274674,0.0089857,0.0809101,-0.11169,-0.0262663,0.0227983,-0.000881624,0,0,0,0,0,0,0,-0.603451,-29.3807,-0.788561,18.1357,1.19171,0.997854,0.0907442,
0.0864036,-0.0554221,0.206864,-1.99748,0.184351,0.222027,0.00125643,0.0756554,-0.000744204,0.077825,-0.172712,-0.0291792,0.259542,0.00580605,-0.910725,0.136695,-0.930159,2.82029,0.470167,-2.38571,-0.0856848,7.37161,-0.228672,7.57044,-16.624,-0.24844,2.76071,0.0574535,0.0832719,-0.0545637,0.205068,-1.99128,0.185236,0.207999,0.00088638,0.0274674,0.0089857,0.0809101,-0.11169,-0.0262663,0.0227983,-0.000881624,0,0,0,0,0,0,0,-0.603451,-29.3807,-0.788561,18.1357,1.19171,0.997854,0.0907442,
0.085818,-0.0546465,0.207688,-1.99761,0.18412,0.215833,0.00110951,0.0737223,-0.000382318,0.0758415,-0.168757,-0.0291393,0.252855,0.00569249,-1.20821,0.226179,-1.2397,2.47236,0.0249173,-4.17947,-0.0709702,7.21742,-0.278772,7.41582,-16.2025,-0.242235,2.73519,0.0562153,0.0838494,-0.0545355,0.207504,-1.99482,0.184839,0.207978,0.000889343,0.0126461,0.00945794,0.079635,-0.0921329,0.0120712,0.0176031,-0.000759235,-1.85266,0.0590292,-0.159394,2.4446,4.79219,-0.64941,0.0152985,-0.198788,-30.0035,-0.562425,21.25,0.966488,1.52794,0.0641939,
0.086343,-0.0546333,0.208229,-1.9988,0.183898,0.217658,0.00114999,0.0721037,2.50335e-05,0.0741854,-0.164717,-0.0288588,0.247905,0.00556613,-1.01161,0.254595,-1.03507,2.52454,0.175327,-3.09371,-0.0789786,7.0642,-0.281832,7.25913,-15.8063,-0.238346,2.68502,0.0550548,0.0838494,-0.0545355,0.207504,-1.99482,0.184839,0.207978,0.000889343,0.0126461,0.00945794,0.079635,-0.0921329,0.0120712,0.0176031,-0.000759235,0,0,0,0,0,0,0,-0.198788,-30.0035,-0.562425,21.25,0.966488,1.52794,0.0641939,
0.0868625,-0.0546181,0.208764,-1.99996,0.183685,0.21948,0.00118922,0.0706693,0.000400212,0.0727207,-0.160622,-0.0283964,0.243881,0.00543356,-0.896485,0.234487,-0.915425,2.55975,0.288998,-2.51526,-0.0828552,6.91075,-0.284674,7.10234,-15.4105,-0.235525,2.63567,0.0538899,0.0838494,-0.0545355,0.207504,-1.99482,0.184839,0.207978,0.000889343,0.0126461,0.00945794,0.079635,-0.0921329,0.0120712,0.0176031,-0.000759235,0,0,0,0,0,0,0,-0.198788,-30.0035,-0.562425,21.25,0.966488,1.52794,0.0641939,
0.0873745,-0.0546025,0.209291,-2.00107,0.18348,0.221288,0.00122727,0.0693372,0.00070877,0.0713623,-0.156494,-0.0278452,0.240302,0.00529805,-0.832566,0.192849,-0.848975,2.57969,0.344459,-2.23675,-0.0846902,6.75696,-0.287465,6.94531,-15.0154,-0.233933,2.58698,0.0526931,0.0838494,-0.0545355,0.207504,-1.99482,0.184839,0.207978,0.000889343,0.0126461,0.00945794,0.079635,-0.0921329,0.0120712,0.0176031,-0.000759235,0,0,0,0,0,0,0,-0.198788,-30.0035,-0.562425,21.25,0.966488,1.52794,0.0641939,
0.0861556,-0.0546524,0.209879,-2.00046,0.184133,0.215583,0.00109671,0.0675382,0.00057219,0.0695216,-0.152456,-0.0278448,0.236153,0.00519075,-1.12441,-0.0853625,-1.15047,2.52414,0.000255012,-2.59307,-0.0670684,6.60763,-0.330672,6.79564,-14.5938,-0.24995,2.64651,0.0515041,0.0841336,-0.0542761,0.210484,-1.99829,0.18482,0.208045,0.000890284,0.00683408,0.0304955,0.0788508,-0.0883543,-0.0039457,0.00258101,-0.000811381,-0.726503,2.62969,-0.0980167,0.472321,-2.00211,-1.87776,-0.00651823,0.209842,-31.5508,-0.0387439,26.4551,1.1734,2.01867,0.0843355,
0.0866354,-0.0546473,0.210374,-2.00152,0.183901,0.217355,0.00113325,0.0660263,0.000586938,0.0679813,-0.148381,-0.0280883,0.233201,0.00506597,-0.944935,0.00921724,-0.9627,2.54654,-0.15214,-1.84488,-0.0779853,6.45296,-0.333273,6.63797,-14.1997,-0.253082,2.59883,0.0502719,0.0841336,-0.0542761,0.210484,-1.99829,0.18482,0.208045,0.000890284,0.00683408,0.0304955,0.0788508,-0.0883543,-0.0039457,0.00258101,-0.000811381,0,0,0,0,0,0,0,0.209842,-31.5508,-0.0387439,26.4551,1.1734,2.01867,0.0843355,
