xiao-wang007/linearmpc_panda/paper_data/panda_inverse_dynamics_controller_opt_time_to_start_no_acceleration_ff/3/trajectory.csv
Commanded Joint 0 Position,Commanded Joint 1 Position,Commanded Joint 2 Position,Commanded Joint 3 Position,Commanded Joint 4 Position,Commanded Joint 5 Position,Commanded Joint 6 Position,Commanded Joint 0 Velocity,Commanded Joint 1 Velocity,Commanded Joint 2 Velocity,Commanded Joint 3 Velocity,Commanded Joint 4 Velocity,Commanded Joint 5 Velocity,Commanded Joint 6 Velocity,Commanded Joint 0 Acceleration,Commanded Joint 1 Acceleration,Commanded Joint 2 Acceleration,Commanded Joint 3 Acceleration,Commanded Joint 4 Acceleration,Commanded Joint 5 Acceleration,Commanded Joint 6 Acceleration,Commanded Joint 0 Torque,Commanded Joint 1 Torque,Commanded Joint 2 Torque,Commanded Joint 3 Torque,Commanded Joint 4 Torque,Commanded Joint 5 Torque,Commanded Joint 6 Torque,Actual Joint 0 Position,Actual Joint 1 Position,Actual Joint 2 Position,Actual Joint 3 Position,Actual Joint 4 Position,Actual Joint 5 Position,Actual Joint 6 Position,Actual Joint 0 Velocity,Actual Joint 1 Velocity,Actual Joint 2 Velocity,Actual Joint 3 Velocity,Actual Joint 4 Velocity,Actual Joint 5 Velocity,Actual Joint 6 Velocity,Actual Joint 0 Acceleration,Actual Joint 1 Acceleration,Actual Joint 2 Acceleration,Actual Joint 3 Acceleration,Actual Joint 4 Acceleration,Actual Joint 5 Acceleration,Actual Joint 6 Acceleration,Actual Joint 0 Torque,Actual Joint 1 Torque,Actual Joint 2 Torque,Actual Joint 3 Torque,Actual Joint 4 Torque,Actual Joint 5 Torque,Actual Joint 6 Torque,
-0.000669814,-0.0507855,0.0280279,-1.77162,-0.0105244,0.176741,0.010507,0.000318263,0.0201053,0.000394291,-0.03358,-0.00486971,0.0519361,-0.000365485,0,0,0,0,0,0,0,0.0549047,22.6837,0.14652,-24.2072,-0.553113,1.99662,-0.0247786,-0.000686589,-0.0514391,0.0280168,-1.76874,-0.0102069,0.171166,0.0105493,-0.000187824,-0.00144152,0.00137911,-0.00106451,-0.00901923,0.00128648,-0.00117057,0,0,0,0,0,0,0,0.134464,-33.2726,-0.16173,27.1255,0.776974,3.25829,0.00376909,
-0.000684794,-0.0514481,0.0280189,-1.76874,-0.0102912,0.171179,0.0105482,0.000246052,0.0160521,0.000305744,-0.0268314,-0.00428468,0.0416691,-0.000296047,0,0,0,0,0,0,0,0.0491047,23.1244,0.136111,-24.1236,-0.553283,1.74548,-0.0232664,-0.000686589,-0.0514391,0.0280168,-1.76874,-0.0102069,0.171166,0.0105493,-0.000187824,-0.00144152,0.00137911,-0.00106451,-0.00901923,0.00128648,-0.00117057,0,0,0,0,0,0,0,0.134464,-33.2726,-0.16173,27.1255,0.776974,3.25829,0.00376909,
-0.00068542,-0.0514485,0.0280182,-1.76874,-0.0103008,0.171184,0.0105481,0.000181188,0.0128307,0.000226858,-0.0214353,-0.00366873,0.0334696,-0.000238979,0,0,0,0,0,0,0,0.0418415,23.6999,0.124097,-24.0153,-0.552678,1.39845,-0.0213045,-0.000684748,-0.0513166,0.0280176,-1.76877,-0.0102029,0.171163,0.0105517,0.00171142,0.0104282,0.00117507,-0.00514404,0.000167193,-0.00868288,0.00030259,0.237406,1.48371,-0.0255045,-0.509941,1.1483,-1.24617,0.184145,0.106693,-32.0744,-0.137926,25.7092,0.722042,3.13927,-0.0365141,
-0.000686116,-0.0514484,0.0280174,-1.76874,-0.010307,0.17119,0.010548,0.000127545,0.0102683,0.000161516,-0.0171222,-0.00308841,0.0269174,-0.000192513,0,0,0,0,0,0,0,0.0358974,24.2239,0.114662,-23.8475,-0.550606,1.01304,-0.0193048,-0.000684748,-0.0513166,0.0280176,-1.76877,-0.0102029,0.171163,0.0105517,0.00171142,0.0104282,0.00117507,-0.00514404,0.000167193,-0.00868288,0.00030259,0,0,0,0,0,0,0,0.106693,-32.0744,-0.137926,25.7092,0.722042,3.13927,-0.0365141,
-0.000929736,-0.0510951,0.02778,-1.76881,-0.00223662,0.167805,0.0105285,-0.000804669,0.00883644,-0.000796762,-0.0139583,0.0479766,0.000183816,-0.000171812,0,0,0,0,0,0,0,0.454523,0.149593,0.45314,-0.221094,3.01293,-1.27183,-0.000927334,-0.000684748,-0.0513166,0.0280176,-1.76877,-0.0102029,0.171163,0.0105517,0.00171142,0.0104282,0.00117507,-0.00514404,0.000167193,-0.00868288,0.00030259,0,0,0,0,0,0,0,0.106693,-32.0744,-0.137926,25.7092,0.722042,3.13927,-0.0365141,
-0.000954074,-0.0510744,0.0277548,-1.76882,-0.000156151,0.166918,0.0105282,-0.0012522,0.00758666,-0.00126772,-0.0114775,0.090393,-0.0220131,-0.000144977,0,0,0,0,0,0,0,0.447702,0.148122,0.445929,-0.219331,2.98787,-1.25982,-0.000938836,-0.000684748,-0.0513166,0.0280176,-1.76877,-0.0102029,0.171163,0.0105517,0.00171142,0.0104282,0.00117507,-0.00514404,0.000167193,-0.00868288,0.00030259,0,0,0,0,0,0,0,0.106693,-32.0744,-0.137926,25.7092,0.722042,3.13927,-0.0365141,
-0.00096748,-0.0510564,0.0277406,-1.76883,0.00195853,0.166013,0.010528,-0.00133691,0.00651828,-0.0013704,-0.0095314,0.125181,-0.0402335,-0.000119291,0,0,0,0,0,0,0,0.441714,0.147683,0.439629,-0.21702,2.96203,-1.24782,-0.000939497,-0.000684748,-0.0513166,0.0280176,-1.76877,-0.0102029,0.171163,0.0105517,0.00171142,0.0104282,0.00117507,-0.00514404,0.000167193,-0.00868288,0.00030259,0,0,0,0,0,0,0,0.106693,-32.0744,-0.137926,25.7092,0.722042,3.13927,-0.0365141,
-0.000971367,-0.0510403,0.0277359,-1.76885,0.00408923,0.165099,0.0105279,-0.0011667,0.00561833,-0.00121224,-0.00800264,0.153413,-0.0550349,-9.76737e-05,0,0,0,0,0,0,0,0.436271,0.163467,0.433008,-0.212606,2.93551,-1.23139,-0.000952248,-0.000676477,-0.0507721,0.0280264,-1.7692,-0.0102057,0.171153,0.0105512,0.00243602,0.0153402,0.00283118,-0.0106518,-0.00138248,9.39676e-05,-0.00117258,0.0905739,0.614011,0.207014,-0.688464,-0.193709,1.09711,-0.184396,0.0313145,-33.1972,-0.260912,26.4551,0.776974,3.25188,-0.0026396,
-0.00117002,-0.050385,0.0275717,-1.76884,0.0174431,0.152884,0.010491,-0.00128154,0.00541264,-0.00128074,-0.00666552,0.294379,-0.162313,1.32118e-05,0,0,0,0,0,0,0,3.64943,1.29216,3.7057,-1.70451,11.0331,-7.44382,-0.00197913,-0.000676477,-0.0507721,0.0280264,-1.7692,-0.0102057,0.171153,0.0105512,0.00243602,0.0153402,0.00283118,-0.0106518,-0.00138248,9.39676e-05,-0.00117258,0,0,0,0,0,0,0,0.0313145,-33.1972,-0.260912,26.4551,0.776974,3.25188,-0.0026396,
-0.0011339,-0.0503484,0.0276098,-1.76888,0.0244466,0.147973,0.0104934,-0.000122077,0.0052459,-7.20241e-05,-0.00645864,0.41059,-0.252619,6.84877e-05,0,0,0,0,0,0,0,3.55119,1.27954,3.60562,-1.66503,10.7341,-7.33117,-0.00202486,-0.000676477,-0.0507721,0.0280264,-1.7692,-0.0102057,0.171153,0.0105512,0.00243602,0.0153402,0.00283118,-0.0106518,-0.00138248,9.39676e-05,-0.00117258,0,0,0,0,0,0,0,0.0313145,-33.1972,-0.260912,26.4551,0.776974,3.25188,-0.0026396,
-0.00105379,-0.0503063,0.0276921,-1.76895,0.0314847,0.142969,0.0104948,0.00190505,0.00525017,0.00200133,-0.00691753,0.504425,-0.327204,9.2131e-05,0,0,0,0,0,0,0,3.46688,1.25753,3.51832,-1.62801,10.4172,-7.2272,-0.000995454,-0.000676477,-0.0507721,0.0280264,-1.7692,-0.0102057,0.171153,0.0105512,0.00243602,0.0153402,0.00283118,-0.0106518,-0.00138248,9.39676e-05,-0.00117258,0,0,0,0,0,0,0,0.0313145,-33.1972,-0.260912,26.4551,0.776974,3.25188,-0.0026396,
-0.000936215,-0.0502566,0.0278123,-1.76904,0.0384862,0.137933,0.0104958,0.00446332,0.0054429,0.00460498,-0.00774734,0.578576,-0.387667,9.80663e-05,0,0,0,0,0,0,0,3.39226,1.21513,3.443,-1.61411,10.0861,-7.11375,0.00199015,-0.000673063,-0.050359,0.0280637,-1.76952,-0.0101095,0.171074,0.0105505,0.00363339,0.00850039,0.0129453,-0.0158776,0.00886422,-0.0161227,-0.00144098,0.149671,-0.854982,1.26426,-0.653232,1.28084,-2.02709,-0.0335507,0.995365,-34.1969,0.786451,26.9272,0.948178,3.02666,0.00376909,
0.00165611,-0.051334,0.0305337,-1.77128,0.0161655,0.138659,0.0108828,0.0201738,-0.00242567,0.0210197,-0.0223954,0.640212,-0.509122,0.000601754,0,0,0,0,0,0,0,19.3356,2.07065,20.0632,-8.79458,11.035,-14.2312,0.258196,-0.000673063,-0.050359,0.0280637,-1.76952,-0.0101095,0.171074,0.0105505,0.00363339,0.00850039,0.0129453,-0.0158776,0.00886422,-0.0161227,-0.00144098,0,0,0,0,0,0,0,0.995365,-34.1969,0.786451,26.9272,0.948178,3.02666,0.00376909,
0.00238614,-0.0515755,0.031294,-1.77201,0.0236781,0.130784,0.0109019,0.0343897,-0.00797731,0.035824,-0.0361797,0.699983,-0.60417,0.000958854,0,0,0,0,0,0,0,16.8814,-2.33343,17.0844,-11.6935,11.035,-14.2312,0.0916022,-0.000673063,-0.050359,0.0280637,-1.76952,-0.0101095,0.171074,0.0105505,0.00363339,0.00850039,0.0129453,-0.0158776,0.00886422,-0.0161227,-0.00144098,0,0,0,0,0,0,0,0.995365,-34.1969,0.786451,26.9272,0.948178,3.02666,0.00376909,
0.00316691,-0.0517824,0.0321056,-1.7728,0.0314906,0.123177,0.0109197,0.047031,-0.0115544,0.0489506,-0.0487355,0.7553,-0.673515,0.00121103,0,0,0,0,0,0,0,15.386,-1.53299,15.7542,-11.0513,11.035,-13.2228,0.0384318,-0.000673063,-0.050359,0.0280637,-1.76952,-0.0101095,0.171074,0.0105505,0.00363339,0.00850039,0.0129453,-0.0158776,0.00886422,-0.0161227,-0.00144098,0,0,0,0,0,0,0,0.995365,-34.1969,0.786451,26.9272,0.948178,3.02666,0.00376909,
0.00325311,-0.0501446,0.0324466,-1.77363,0.019462,0.137473,0.0106863,0.0606266,-0.00884779,0.0628086,-0.0639792,0.784596,-0.72083,0.00143769,0,0,0,0,0,0,0,20.7402,4.84611,21.1483,-15.608,11.0299,-14.2137,0.0534203,-0.000301328,-0.0500789,0.0287675,-1.77027,-0.00829658,0.168971,0.0105654,0.0299765,0.00259587,0.04607,-0.0365961,0.108948,-0.116758,-0.00121678,3.29289,-0.738065,4.14059,-2.58981,12.5105,-12.5794,0.0280256,6.26789,-32.8996,6.11055,25.011,1.72912,2.11846,-0.0630644,
0.00423458,-0.0500875,0.0334548,-1.77472,0.0270712,0.13042,0.0107038,0.073038,-0.00564869,0.0754535,-0.0785633,0.817907,-0.752987,0.00158714,0,0,0,0,0,0,0,19.5318,4.36349,19.9379,-15.3928,11.0299,-13.6407,0.0372717,-0.000301328,-0.0500789,0.0287675,-1.77027,-0.00829658,0.168971,0.0105654,0.0299765,0.00259587,0.04607,-0.0365961,0.108948,-0.116758,-0.00121678,0,0,0,0,0,0,0,6.26789,-32.8996,6.11055,25.011,1.72912,2.11846,-0.0630644,
0.00526036,-0.0499895,0.0345081,-1.77589,0.0349663,0.123739,0.0107214,0.0840748,-0.00207079,0.0866955,-0.0918892,0.851705,-0.769429,0.00171032,0,0,0,0,0,0,0,18.5187,3.88015,18.9199,-15.2205,11.0299,-12.269,0.0270383,-0.000301328,-0.0500789,0.0287675,-1.77027,-0.00829658,0.168971,0.0105654,0.0299765,0.00259587,0.04607,-0.0365961,0.108948,-0.116758,-0.00121678,0,0,0,0,0,0,0,6.26789,-32.8996,6.11055,25.011,1.72912,2.11846,-0.0630644,
0.00631619,-0.0498548,0.0355921,-1.77709,0.043069,0.117511,0.0107393,0.0936558,0.00171145,0.0964553,-0.103623,0.883929,-0.771241,0.00181648,0,0,0,0,0,0,0,17.6583,3.44874,18.0537,-15.0645,11.0299,-11.0138,0.0202069,-0.000301328,-0.0500789,0.0287675,-1.77027,-0.00829658,0.168971,0.0105654,0.0299765,0.00259587,0.04607,-0.0365961,0.108948,-0.116758,-0.00121678,0,0,0,0,0,0,0,6.26789,-32.8996,6.11055,25.011,1.72912,2.11846,-0.0630644,
0.00660079,-0.0507222,0.0364731,-1.77949,0.0276348,0.130171,0.0105602,0.105344,-0.000604821,0.108277,-0.124616,0.892596,-0.79091,0.00136699,0,0,0,0,0,0,0,23.914,3.9905,24.3438,-23.1281,11.0151,-14.159,0.0155131,0.00141785,-0.0502344,0.0311551,-1.77279,-0.00215778,0.16228,0.0105661,0.0665261,-0.00400279,0.0980178,-0.104684,0.24207,-0.254888,0.000365707,4.5687,-0.824832,6.49347,-8.51104,16.6402,-17.2663,0.19781,8.60065,-30.3288,8.38777,23.7653,2.03491,1.77971,-0.050247,
0.00786534,-0.0507676,0.0377661,-1.78124,0.0354037,0.123588,0.0105577,0.115889,-0.00161729,0.118946,-0.143493,0.908299,-0.797302,0.00103225,0,0,0,0,0,0,0,22.5828,3.08938,23.0075,-22.941,11.0151,-13.2258,0.000171994,0.00141785,-0.0502344,0.0311551,-1.77279,-0.00215778,0.16228,0.0105661,0.0665261,-0.00400279,0.0980178,-0.104684,0.24207,-0.254888,0.000365707,0,0,0,0,0,0,0,8.60065,-30.3288,8.38777,23.7653,2.03491,1.77971,-0.050247,
0.00916186,-0.0507805,0.0390916,-1.78304,0.0434257,0.117493,0.0105582,0.125124,-0.00161676,0.128294,-0.1599,0.927188,-0.790215,0.000837222,0,0,0,0,0,0,0,21.478,2.3205,21.8935,-22.7492,11.0151,-11.64,-0.00661912,0.00141785,-0.0502344,0.0311551,-1.77279,-0.00215778,0.16228,0.0105661,0.0665261,-0.00400279,0.0980178,-0.104684,0.24207,-0.254888,0.000365707,0,0,0,0,0,0,0,8.60065,-30.3288,8.38777,23.7653,2.03491,1.77971,-0.050247,
0.0104773,-0.0507652,0.0404364,-1.78488,0.0516298,0.111944,0.0105613,0.132987,-0.000911423,0.136256,-0.173727,0.946854,-0.770908,0.000748084,0,0,0,0,0,0,0,20.5341,1.69022,20.9394,-22.5438,11.0151,-10.2092,-0.0104375,0.00141785,-0.0502344,0.0311551,-1.77279,-0.00215778,0.16228,0.0105661,0.0665261,-0.00400279,0.0980178,-0.104684,0.24207,-0.254888,0.000365707,0,0,0,0,0,0,0,8.60065,-30.3288,8.38777,23.7653,2.03491,1.77971,-0.050247,
0.00678523,-0.0509321,0.0366779,-1.78185,0.027585,0.136462,0.0104258,0.138168,-0.00214176,0.141578,-0.19283,0.942521,-0.751491,1.46797e-05,0,0,0,0,0,0,0,24.8408,4.61977,25.3572,-29.6296,10.9975,-12.5723,-0.0321423,0.00418647,-0.0503303,0.0362637,-1.77769,0.00742467,0.152938,0.0105653,0.0893471,0.00282477,0.194578,-0.171786,0.283698,-0.264109,-0.000136507,2.85263,0.853444,12.0701,-8.38774,5.20348,-1.15261,-0.0627767,7.53742,-29.3529,7.26106,23.2654,2.60254,1.34209,-0.0429228,
0.008108,-0.0509338,0.0380331,-1.78407,0.0353415,0.131461,0.0104062,0.143604,-0.00175456,0.147143,-0.209908,0.947928,-0.726229,-0.000476423,0,0,0,0,0,0,0,23.509,3.79765,24.013,-29.3531,10.9975,-10.8245,-0.0407829,0.00418647,-0.0503303,0.0362637,-1.77769,0.00742467,0.152938,0.0105653,0.0893471,0.00282477,0.194578,-0.171786,0.283698,-0.264109,-0.000136507,0,0,0,0,0,0,0,7.53742,-29.3529,7.26106,23.2654,2.60254,1.34209,-0.0429228,
0.00946529,-0.0508864,0.0394234,-1.78634,0.0433556,0.126931,0.0103926,0.148815,-0.000219198,0.152471,-0.2246,0.958696,-0.694222,-0.000721912,0,0,0,0,0,0,0,22.3922,3.12516,22.8818,-29.0678,10.9975,-9.27999,-0.0414658,0.00418647,-0.0503303,0.0362637,-1.77769,0.00742467,0.152938,0.0105653,0.0893471,0.00282477,0.194578,-0.171786,0.283698,-0.264109,-0.000136507,0,0,0,0,0,0,0,7.53742,-29.3529,7.26106,23.2654,2.60254,1.34209,-0.0429228,
0.0108431,-0.0507975,0.0408345,-1.78862,0.0515563,0.12291,0.0103844,0.153499,0.00204628,0.157256,-0.236806,0.971974,-0.655907,-0.00078224,0,0,0,0,0,0,0,21.4323,2.59636,21.9076,-28.7656,10.9975,-7.91113,-0.0405662,0.00418647,-0.0503303,0.0362637,-1.77769,0.00742467,0.152938,0.0105653,0.0893471,0.00282477,0.194578,-0.171786,0.283698,-0.264109,-0.000136507,0,0,0,0,0,0,0,7.53742,-29.3529,7.26106,23.2654,2.60254,1.34209,-0.0429228,
0.0107617,-0.051026,0.0430196,-1.78955,0.0389938,0.129156,0.0103145,0.158373,-0.000317598,0.162207,-0.256343,0.969387,-0.647598,-0.00159975,0,0,0,0,0,0,0,25.0605,4.00281,25.5599,-35.9356,10.9781,-11.5152,-0.058681,0.00694345,-0.0503214,0.0439603,-1.78468,0.0166251,0.143378,0.0105699,0.084651,-0.00714635,0.256475,-0.224117,0.286511,-0.276405,0.000626483,-0.587022,-1.24639,7.73706,-6.54139,0.351626,-1.53695,0.0953737,3.85974,-31.3762,3.4366,23.317,1.49749,1.26977,-0.0429228,
0.0122114,-0.051061,0.0445027,-1.79228,0.0469678,0.124614,0.0102832,0.162943,-0.00112808,0.166843,-0.27336,0.97486,-0.631637,-0.00206092,0,0,0,0,0,0,0,23.745,3.04589,24.2329,-35.6053,10.9781,-9.86358,-0.0650581,0.00694345,-0.0503214,0.0439603,-1.78468,0.0166251,0.143378,0.0105699,0.084651,-0.00714635,0.256475,-0.224117,0.286511,-0.276405,0.000626483,0,0,0,0,0,0,0,3.85974,-31.3762,3.4366,23.317,1.49749,1.26977,-0.0429228,
0.0136759,-0.051058,0.0460006,-1.79504,0.0551537,0.120517,0.01026,0.166965,-0.0008284,0.170922,-0.287649,0.984537,-0.607725,-0.00222879,0,0,0,0,0,0,0,22.6509,2.27877,23.1252,-35.2483,10.9781,-8.41633,-0.0630653,0.00694345,-0.0503214,0.0439603,-1.78468,0.0166251,0.143378,0.0105699,0.084651,-0.00714635,0.256475,-0.224117,0.286511,-0.276405,0.000626483,0,0,0,0,0,0,0,3.85974,-31.3762,3.4366,23.317,1.49749,1.26977,-0.0429228,
0.0139765,-0.0510744,0.0511908,-1.79895,0.0489426,0.125957,0.010236,0.170268,-0.00194303,0.174276,-0.307581,0.982377,-0.569849,-0.00295817,0,0,0,0,0,0,0,24.4712,3.81915,24.9483,-41.2274,10.9781,-8.75051,-0.0894384,0.00694345,-0.0503214,0.0439603,-1.78468,0.0166251,0.143378,0.0105699,0.084651,-0.00714635,0.256475,-0.224117,0.286511,-0.276405,0.000626483,0,0,0,0,0,0,0,3.85974,-31.3762,3.4366,23.317,1.49749,1.26977,-0.0429228,
0.0154577,-0.0510778,0.0527054,-1.80208,0.0570107,0.122988,0.0101967,0.173244,-0.00163854,0.177287,-0.324365,0.987606,-0.530119,-0.00335016,0,0,0,0,0,0,0,23.2926,2.99082,23.7582,-40.7847,10.9781,-7.27274,-0.0871649,0.00975083,-0.0501986,0.053154,-1.79367,0.0265942,0.134691,0.0105686,0.0673405,0.00444835,0.287197,-0.295306,0.305916,-0.261586,-0.000526009,-2.1638,1.44934,3.84026,-8.89858,2.42567,1.85241,-0.144062,4.59766,-31.3246,4.11104,23.9636,1.59546,1.44829,-0.0301054,
0.016943,-0.0510407,0.054224,-1.80522,0.0652694,0.120437,0.0101657,0.175729,-0.000383327,0.179793,-0.338004,0.996552,-0.48785,-0.00345409,0,0,0,0,0,0,0,22.288,2.29793,22.755,-40.2633,10.95,-5.89551,-0.0806249,0.00975083,-0.0501986,0.053154,-1.79367,0.0265942,0.134691,0.0105686,0.0673405,0.00444835,0.287197,-0.295306,0.305916,-0.261586,-0.000526009,0,0,0,0,0,0,0,4.59766,-31.3246,4.11104,23.9636,1.59546,1.44829,-0.0301054,
0.0184248,-0.0509708,0.0557387,-1.80835,0.0736573,0.118319,0.0101433,0.177629,0.00144072,0.181703,-0.34867,1.00694,-0.443241,-0.00332284,0,0,0,0,0,0,0,21.4079,1.79165,21.8613,-39.7775,10.95,-4.76777,-0.0714903,0.00975083,-0.0501986,0.053154,-1.79367,0.0265942,0.134691,0.0105686,0.0673405,0.00444835,0.287197,-0.295306,0.305916,-0.261586,-0.000526009,0,0,0,0,0,0,0,4.59766,-31.3246,4.11104,23.9636,1.59546,1.44829,-0.0301054,
0.0198968,-0.0508753,0.0572433,-1.81146,0.0821311,0.116628,0.0101319,0.178903,0.00353961,0.182978,-0.356636,1.01739,-0.396869,-0.00294501,0,0,0,0,0,0,0,20.6186,1.41207,21.0572,-39.2763,10.95,-3.7894,-0.0588964,0.00975083,-0.0501986,0.053154,-1.79367,0.0265942,0.134691,0.0105686,0.0673405,0.00444835,0.287197,-0.295306,0.305916,-0.261586,-0.000526009,0,0,0,0,0,0,0,4.59766,-31.3246,4.11104,23.9636,1.59546,1.44829,-0.0301054,
0.0179762,-0.0508345,0.0616219,-1.81403,0.0676052,0.124214,0.0102163,0.178294,0.00251358,0.182388,-0.37268,1.01621,-0.346801,-0.00309413,0,0,0,0,0,0,0,22.3665,1.93017,22.8313,-45.6557,10.95,-4.75917,-0.094163,0.00975083,-0.0501986,0.053154,-1.79367,0.0265942,0.134691,0.0105686,0.0673405,0.00444835,0.287197,-0.295306,0.305916,-0.261586,-0.000526009,0,0,0,0,0,0,0,4.59766,-31.3246,4.11104,23.9636,1.59546,1.44829,-0.0301054,
0.0193849,-0.0508209,0.0630635,-1.8175,0.0758673,0.123379,0.0101975,0.177851,0.00235111,0.181949,-0.385004,1.01952,-0.298322,-0.00294525,0,0,0,0,0,0,0,21.4284,1.3197,21.8805,-45.1037,10.95,-3.71448,-0.0857037,0.00975083,-0.0501986,0.053154,-1.79367,0.0265942,0.134691,0.0105686,0.0673405,0.00444835,0.287197,-0.295306,0.305916,-0.261586,-0.000526009,0,0,0,0,0,0,0,4.59766,-31.3246,4.11104,23.9636,1.59546,1.44829,-0.0301054,
0.0207881,-0.0507874,0.0644993,-1.82095,0.0842453,0.122879,0.010189,0.177362,0.00271894,0.181455,-0.394082,1.02506,-0.251148,-0.00256862,0,0,0,0,0,0,0,20.6245,0.853508,21.0638,-44.5241,10.95,-2.80403,-0.0758462,0.00975083,-0.0501986,0.053154,-1.79367,0.0265942,0.134691,0.0105686,0.0673405,0.00444835,0.287197,-0.295306,0.305916,-0.261586,-0.000526009,0,0,0,0,0,0,0,4.59766,-31.3246,4.11104,23.9636,1.59546,1.44829,-0.0301054,
0.0221793,-0.0507394,0.0659229,-1.82435,0.0927018,0.122701,0.010188,0.176669,0.00337499,0.180754,-0.400364,1.03146,-0.20538,-0.00208041,0,0,0,0,0,0,0,19.9259,0.506111,20.3519,-43.9234,10.95,-2.00766,-0.060812,0.00975083,-0.0501986,0.053154,-1.79367,0.0265942,0.134691,0.0105686,0.0673405,0.00444835,0.287197,-0.295306,0.305916,-0.261586,-0.000526009,0,0,0,0,0,0,0,4.59766,-31.3246,4.11104,23.9636,1.59546,1.44829,-0.0301054,
0.0165763,-0.0509412,0.0601596,-1.8119,0.0596374,0.128999,0.0102954,0.176265,0.00185915,0.180245,-0.414472,1.02167,-0.183298,-0.00248126,0,0,0,0,0,0,0,22.4225,2.29336,22.8103,-49.6053,10.95,-3.30147,-0.0790501,0.00975083,-0.0501986,0.053154,-1.79367,0.0265942,0.134691,0.0105686,0.0673405,0.00444835,0.287197,-0.295306,0.305916,-0.261586,-0.000526009,0,0,0,0,0,0,0,4.59766,-31.3246,4.11104,23.9636,1.59546,1.44829,-0.0301054,
0.0179804,-0.0509313,0.0615918,-1.81566,0.0677483,0.128504,0.010271,0.176113,0.00173613,0.18,-0.425452,1.02011,-0.159,-0.00259487,0,0,0,0,0,0,0,21.4564,1.72753,21.8536,-48.905,10.913,-2.32651,-0.0735277,0.0125712,-0.0501121,0.0626628,-1.80519,0.0393116,0.125815,0.01057,0.0912379,0.00183519,0.286936,-0.376643,0.441279,-0.261583,0.000538725,2.98717,-0.326645,-0.0326705,-10.1671,16.9204,0.000258257,0.133092,5.51014,-31.5746,5.03541,24.761,1.49749,1.94543,-0.0429228,
0.0193845,-0.0508871,0.0630236,-1.81939,0.0760284,0.128283,0.0102582,0.175992,0.00249309,0.179796,-0.433567,1.02309,-0.132737,-0.00239578,0,0,0,0,0,0,0,20.6192,1.3191,21.0065,-48.24,10.913,-1.58975,-0.0622759,0.0125712,-0.0501121,0.0626628,-1.80519,0.0393116,0.125815,0.01057,0.0912379,0.00183519,0.286936,-0.376643,0.441279,-0.261583,0.000538725,0,0,0,0,0,0,0,5.51014,-31.5746,5.03541,24.761,1.49749,1.94543,-0.0429228,
0.0197417,-0.0507453,0.0700378,-1.82533,0.0742107,0.120577,0.0103247,0.176819,0.00103607,0.180718,-0.449337,1.01875,-0.121185,-0.00266216,0,0,0,0,0,0,0,22.1624,1.70662,22.6105,-53.4656,10.913,-2.69151,-0.0707836,0.0125712,-0.0501121,0.0626628,-1.80519,0.0393116,0.125815,0.01057,0.0912379,0.00183519,0.286936,-0.376643,0.441279,-0.261583,0.000538725,0,0,0,0,0,0,0,5.51014,-31.5746,5.03541,24.761,1.49749,1.94543,-0.0429228,
0.0211793,-0.0507534,0.0715092,-1.82941,0.0824241,0.120253,0.0103047,0.177396,0.000626465,0.181358,-0.461292,1.02034,-0.105034,-0.00263102,0,0,0,0,0,0,0,21.1985,1.09579,21.6391,-52.7626,10.913,-1.92647,-0.0663712,0.0125712,-0.0501121,0.0626628,-1.80519,0.0393116,0.125815,0.01057,0.0912379,0.00183519,0.286936,-0.376643,0.441279,-0.261583,0.000538725,0,0,0,0,0,0,0,5.51014,-31.5746,5.03541,24.761,1.49749,1.94543,-0.0429228,
0.0226074,-0.0507396,0.0729706,-1.83344,0.0907724,0.120209,0.0102937,0.17762,0.000847769,0.181622,-0.4699,1.02498,-0.0851371,-0.00238037,0,0,0,0,0,0,0,20.3892,0.543746,20.8391,-51.9209,10.8426,-1.12996,-0.0552006,0.0167443,-0.0499613,0.0734612,-1.81974,0.0582919,0.11824,0.0105733,0.116349,0.0111818,0.296156,-0.415418,0.532522,-0.136113,9.76893e-05,3.1389,1.16832,1.15256,-4.8469,11.4053,15.6838,-0.0551294,0.892215,-31.4,0.389723,26.3043,1.39953,2.2503,-0.0429228,
0.0240201,-0.0507101,0.0744166,-1.83743,0.09921,0.120439,0.0102889,0.177413,0.00141428,0.181448,-0.475624,1.03092,-0.0623472,-0.00202338,0,0,0,0,0,0,0,19.6337,0.190604,20.071,-51.1729,10.8426,-0.538863,-0.0458777,0.0167443,-0.0499613,0.0734612,-1.81974,0.0582919,0.11824,0.0105733,0.116349,0.0111818,0.296156,-0.415418,0.532522,-0.136113,9.76893e-05,0,0,0,0,0,0,0,0.892215,-31.4,0.389723,26.3043,1.39953,2.2503,-0.0429228,
0.0237599,-0.0502427,0.080686,-1.83944,0.0949818,0.119095,0.0104797,0.175591,0.00100994,0.179668,-0.478046,1.02938,-0.0341072,-0.00151831,0,0,0,0,0,0,0,18.951,-0.0693138,19.3733,-50.4084,10.8426,-0.0253839,-0.0352778,0.0167443,-0.0499613,0.0734612,-1.81974,0.0582919,0.11824,0.0105733,0.116349,0.0111818,0.296156,-0.415418,0.532522,-0.136113,9.76893e-05,0,0,0,0,0,0,0,0.892215,-31.4,0.389723,26.3043,1.39953,2.2503,-0.0429228,
0.0250857,-0.0502303,0.0820451,-1.84329,0.103313,0.119944,0.0104894,0.173618,0.00111874,0.177713,-0.478707,1.03179,-0.00605672,-0.00097088,0,0,0,0,0,0,0,18.3353,-0.2517,18.7427,-49.6321,10.8426,0.440525,-0.0227804,0.0167443,-0.0499613,0.0734612,-1.81974,0.0582919,0.11824,0.0105733,0.116349,0.0111818,0.296156,-0.415418,0.532522,-0.136113,9.76893e-05,0,0,0,0,0,0,0,0.892215,-31.4,0.389723,26.3043,1.39953,2.2503,-0.0429228,
0.0263898,-0.0502052,0.0833806,-1.84709,0.111736,0.121003,0.0105042,0.171497,0.00152349,0.175558,-0.477847,1.03599,0.0216213,-0.000408031,0,0,0,0,0,0,0,17.7213,-0.526751,18.1306,-48.797,10.7678,0.904424,-0.0115808,0.0197543,-0.049791,0.0826127,-1.83381,0.0746797,0.116783,0.0105974,0.0896058,0.0160731,0.285019,-0.41562,0.528246,-0.0136356,-0.00131275,-3.34291,0.611418,-1.39217,-0.0251534,-0.534455,15.3097,-0.176305,0.209842,-33.5741,-0.463243,26.3797,0.465695,2.5689,-0.0301054,
0.0276702,-0.0501703,0.0846905,-1.85082,0.120213,0.122262,0.0105242,0.169207,0.00209055,0.173194,-0.475694,1.04072,0.0487803,0.000175279,0,0,0,0,0,0,0,17.1371,-0.612803,17.5379,-48.0243,10.7678,1.26766,-0.00330819,0.0197543,-0.049791,0.0826127,-1.83381,0.0746797,0.116783,0.0105974,0.0896058,0.0160731,0.285019,-0.41562,0.528246,-0.0136356,-0.00131275,0,0,0,0,0,0,0,0.209842,-33.5741,-0.463243,26.3797,0.465695,2.5689,-0.0301054,
0.0259578,-0.049846,0.0890123,-1.85257,0.111074,0.12227,0.010641,0.164901,0.00226627,0.168801,-0.472276,1.03566,0.076365,0.000736807,0,0,0,0,0,0,0,16.5902,-0.654014,16.9842,-47.2425,10.7678,1.58851,0.00938072,0.0197543,-0.049791,0.0826127,-1.83381,0.0746797,0.116783,0.0105974,0.0896058,0.0160731,0.285019,-0.41562,0.528246,-0.0136356,-0.00131275,0,0,0,0,0,0,0,0.209842,-33.5741,-0.463243,26.3797,0.465695,2.5689,-0.0301054,
0.0271181,-0.0498099,0.0902024,-1.85618,0.119343,0.123932,0.0106656,0.160928,0.00271481,0.164794,-0.468033,1.03524,0.10264,0.00120425,0,0,0,0,0,0,0,16.027,-0.672244,16.4103,-46.4733,10.7678,1.87394,0.01613,0.0197543,-0.049791,0.0826127,-1.83381,0.0746797,0.116783,0.0105974,0.0896058,0.0160731,0.285019,-0.41562,0.528246,-0.0136356,-0.00131275,0,0,0,0,0,0,0,0.209842,-33.5741,-0.463243,26.3797,0.465695,2.5689,-0.0301054,
0.0282567,-0.0497634,0.0913734,-1.85972,0.127699,0.125752,0.0106909,0.157207,0.00333593,0.16111,-0.463069,1.03711,0.127613,0.00159744,0,0,0,0,0,0,0,15.4915,-0.752294,15.861,-45.6794,10.6942,2.18278,0.0220978,0.0224241,-0.0494574,0.0910248,-1.84783,0.0928966,0.116646,0.0106011,0.0799179,0.0113093,0.242923,-0.434531,0.547995,-0.0181563,0.000680846,-1.21099,-0.595476,-5.26197,-2.36397,2.46861,-0.565097,0.249199,1.78089,-32.9234,1.43709,29.4186,1.05163,2.90032,-0.0630644,
0.0293742,-0.0497074,0.0925243,-1.8632,0.136107,0.127721,0.0107173,0.153705,0.00406685,0.157661,-0.457486,1.03988,0.151294,0.0019375,0,0,0,0,0,0,0,14.9902,-0.712603,15.332,-44.9099,10.6942,2.41901,0.0289231,0.0224241,-0.0494574,0.0910248,-1.84783,0.0928966,0.116646,0.0106011,0.0799179,0.0113093,0.242923,-0.434531,0.547995,-0.0181563,0.000680846,0,0,0,0,0,0,0,1.78089,-32.9234,1.43709,29.4186,1.05163,2.90032,-0.0630644,
0.027792,-0.0491757,0.0965848,-1.86583,0.129041,0.123544,0.0107088,0.148628,0.00549801,0.152637,-0.452513,1.03268,0.169104,0.00225682,0,0,0,0,0,0,0,14.484,-0.660608,14.8051,-44.1489,10.6942,2.63004,0.0342298,0.0224241,-0.0494574,0.0910248,-1.84783,0.0928966,0.116646,0.0106011,0.0799179,0.0113093,0.242923,-0.434531,0.547995,-0.0181563,0.000680846,0,0,0,0,0,0,0,1.78089,-32.9234,1.43709,29.4186,1.05163,2.90032,-0.0630644,
0.0288242,-0.0490796,0.0976482,-1.86921,0.136948,0.12565,0.0107419,0.144707,0.00679976,0.148695,-0.446462,1.0238,0.187926,0.00263353,0,0,0,0,0,0,0,13.9692,-0.58827,14.3086,-43.3916,10.6942,2.8215,0.0345753,0.0224241,-0.0494574,0.0910248,-1.84783,0.0928966,0.116646,0.0106011,0.0799179,0.0113093,0.242923,-0.434531,0.547995,-0.0181563,0.000680846,0,0,0,0,0,0,0,1.78089,-32.9234,1.43709,29.4186,1.05163,2.90032,-0.0630644,
0.029873,-0.0489837,0.0987261,-1.87251,0.144432,0.127912,0.0107782,0.141986,0.00783618,0.145902,-0.439519,1.00615,0.206908,0.0030147,0,0,0,0,0,0,0,13.5115,-0.582076,13.8969,-42.5718,10.6185,3.06893,0.0348567,0.0253829,-0.0492917,0.0987623,-1.86259,0.113029,0.116684,0.0105959,0.100408,0.00234789,0.219705,-0.425582,0.611187,0.00651177,-0.00161908,2.56121,-1.12018,-2.90222,1.11865,7.89897,3.08351,-0.287491,-1.08349,-35.0459,-1.41142,29.494,1.18621,2.52953,-0.0163725,
0.0307508,-0.0489768,0.104315,-1.87938,0.145594,0.125152,0.0107413,0.140128,0.00851027,0.143976,-0.431191,0.956563,0.222455,0.00331757,0,0,0,0,0,0,0,12.7728,-0.369306,13.166,-41.0012,10.6185,3.38026,0.0382998,0.0253829,-0.0492917,0.0987623,-1.86259,0.113029,0.116684,0.0105959,0.100408,0.00234789,0.219705,-0.425582,0.611187,0.00651177,-0.00161908,0,0,0,0,0,0,0,-1.08349,-35.0459,-1.41142,29.494,1.18621,2.52953,-0.0163725,
0.0318151,-0.0488923,0.105407,-1.88248,0.151137,0.127597,0.0107782,0.138709,0.00891923,0.142482,-0.422514,0.903818,0.239087,0.00357807,0,0,0,0,0,0,0,12.4678,-0.293556,12.8542,-40.2208,9.72113,3.51768,0.0409486,0.0253829,-0.0492917,0.0987623,-1.86259,0.113029,0.116684,0.0105959,0.100408,0.00234789,0.219705,-0.425582,0.611187,0.00651177,-0.00161908,0,0,0,0,0,0,0,-1.08349,-35.0459,-1.41142,29.494,1.18621,2.52953,-0.0163725,
0.032879,-0.0488164,0.106498,-1.88551,0.156141,0.130174,0.0108159,0.137565,0.00903329,0.141264,-0.413686,0.848148,0.255681,0.00380519,0,0,0,0,0,0,0,12.1887,-0.245923,12.5661,-39.4534,8.52422,3.62886,0.0420604,0.0253829,-0.0492917,0.0987623,-1.86259,0.113029,0.116684,0.0105959,0.100408,0.00234789,0.219705,-0.425582,0.611187,0.00651177,-0.00161908,0,0,0,0,0,0,0,-1.08349,-35.0459,-1.41142,29.494,1.18621,2.52953,-0.0163725,
0.0339391,-0.0487504,0.107585,-1.88847,0.160618,0.132853,0.0108545,0.136553,0.00887731,0.140181,-0.404841,0.790434,0.271528,0.00400857,0,0,0,0,0,0,0,11.9459,-0.220847,12.3132,-38.6975,7.49598,3.71358,0.042035,0.0253829,-0.0492917,0.0987623,-1.86259,0.113029,0.116684,0.0105959,0.100408,0.00234789,0.219705,-0.425582,0.611187,0.00651177,-0.00161908,0,0,0,0,0,0,0,-1.08349,-35.0459,-1.41142,29.494,1.18621,2.52953,-0.0163725,
0.0341393,-0.0486749,0.111521,-1.89169,0.154278,0.126878,0.0107688,0.13529,0.00900136,0.138878,-0.397452,0.72675,0.278869,0.00417813,0,0,0,0,0,0,0,11.7374,-0.326771,12.1071,-37.8988,6.51549,3.83724,0.0421465,0.0287797,-0.0489958,0.105997,-1.87614,0.132392,0.117505,0.0105974,0.0940199,0.00701267,0.209358,-0.395293,0.53821,0.0108003,-6.01948e-06,-0.798465,0.583098,-1.29337,3.78619,-9.12219,0.536071,0.201632,-3.13855,-34.4469,-3.36333,29.8193,1.10656,2.80144,-0.0301054,
0.0351708,-0.0486062,0.11258,-1.89456,0.157666,0.129492,0.0108088,0.134019,0.00891836,0.137558,-0.389616,0.66611,0.288444,0.00434246,0,0,0,0,0,0,0,11.5785,-0.330227,11.9381,-37.1591,5.7135,3.8926,0.0427755,0.0287797,-0.0489958,0.105997,-1.87614,0.132392,0.117505,0.0105974,0.0940199,0.00701267,0.209358,-0.395293,0.53821,0.0108003,-6.01948e-06,0,0,0,0,0,0,0,-3.13855,-34.4469,-3.36333,29.8193,1.10656,2.80144,-0.0301054,
0.0361909,-0.0485469,0.113626,-1.89735,0.160681,0.132213,0.0108497,0.132718,0.00861849,0.136206,-0.381539,0.608244,0.298795,0.00449708,0,0,0,0,0,0,0,11.4496,-0.343355,11.7994,-36.4265,5.00234,3.93629,0.0437971,0.0287797,-0.0489958,0.105997,-1.87614,0.132392,0.117505,0.0105974,0.0940199,0.00701267,0.209358,-0.395293,0.53821,0.0108003,-6.01948e-06,0,0,0,0,0,0,0,-3.13855,-34.4469,-3.36333,29.8193,1.10656,2.80144,-0.0301054,
0.0371984,-0.0484974,0.114659,-1.90008,0.163345,0.135011,0.0108914,0.131363,0.00813044,0.134799,-0.37336,0.553214,0.308992,0.00463985,0,0,0,0,0,0,0,11.3401,-0.363791,11.6805,-35.6999,4.37317,3.96974,0.0451196,0.0287797,-0.0489958,0.105997,-1.87614,0.132392,0.117505,0.0105974,0.0940199,0.00701267,0.209358,-0.395293,0.53821,0.0108003,-6.01948e-06,0,0,0,0,0,0,0,-3.13855,-34.4469,-3.36333,29.8193,1.10656,2.80144,-0.0301054,
0.0342881,-0.0485466,0.111652,-1.8907,0.148357,0.126606,0.0107976,0.131251,0.00860207,0.134647,-0.366966,0.504538,0.307941,0.00475265,0,0,0,0,0,0,0,11.2303,-0.495071,11.5705,-34.9292,3.75266,4.04101,0.0464755,0.031502,-0.0481422,0.113165,-1.88872,0.149048,0.118792,0.010594,0.0673744,0.0108703,0.206645,-0.35935,0.465703,0.0369416,-0.00119992,-3.33069,0.482202,-0.339181,4.49284,-9.06336,3.26766,-0.149238,-0.857357,-33.1496,-1.13768,25.9314,1.19171,2.09191,-0.0026396,
0.0353096,-0.0484745,0.112699,-1.89335,0.150534,0.129177,0.0108396,0.130541,0.00868557,0.133891,-0.359903,0.458064,0.310622,0.00485295,0,0,0,0,0,0,0,11.1385,-0.524354,11.47,-34.2133,3.26654,4.0546,0.047902,0.031502,-0.0481422,0.113165,-1.88872,0.149048,0.118792,0.010594,0.0673744,0.0108703,0.206645,-0.35935,0.465703,0.0369416,-0.00119992,0,0,0,0,0,0,0,-0.857357,-33.1496,-1.13768,25.9314,1.19171,2.09191,-0.0026396,
0.0363075,-0.0484145,0.113722,-1.89593,0.152443,0.131844,0.0108819,0.129378,0.00844781,0.13268,-0.352425,0.414167,0.315169,0.00493898,0,0,0,0,0,0,0,11.048,-0.555749,11.3712,-33.5021,2.84226,4.05862,0.0491912,0.031502,-0.0481422,0.113165,-1.88872,0.149048,0.118792,0.010594,0.0673744,0.0108703,0.206645,-0.35935,0.465703,0.0369416,-0.00119992,0,0,0,0,0,0,0,-0.857357,-33.1496,-1.13768,25.9314,1.19171,2.09191,-0.0026396,
0.0367113,-0.0477534,0.118509,-1.90204,0.160227,0.128411,0.0108118,0.1283,0.00835035,0.131554,-0.344323,0.370773,0.313614,0.005007,0,0,0,0,0,0,0,10.8573,-0.620238,11.1649,-32.0914,2.15362,4.04186,0.0512212,0.031502,-0.0481422,0.113165,-1.88872,0.149048,0.118792,0.010594,0.0673744,0.0108703,0.206645,-0.35935,0.465703,0.0369416,-0.00119992,0,0,0,0,0,0,0,-0.857357,-33.1496,-1.13768,25.9314,1.19171,2.09191,-0.0026396,
0.0376761,-0.0477012,0.119498,-1.90446,0.161588,0.130981,0.0108536,0.126759,0.00798365,0.129967,-0.335969,0.330643,0.31514,0.00504937,0,0,0,0,0,0,0,10.7399,-0.734862,11.0486,-31.3389,1.82988,4.07032,0.0519251,0.0333716,-0.0474093,0.120425,-1.90017,0.162266,0.120647,0.0105966,0.0584923,0.0262928,0.211044,-0.331897,0.338661,0.0455408,0.000240824,-1.11026,1.92782,0.549858,3.43163,-15.8802,1.0749,0.180093,-1.26202,-32.249,-1.56218,25.5823,1.06994,2.2503,-0.0227812,
0.0386149,-0.0476604,0.120461,-1.90681,0.162767,0.133621,0.0108949,0.124876,0.00740671,0.128037,-0.327518,0.293997,0.31811,0.0050709,0,0,0,0,0,0,0,10.6289,-0.765119,10.9306,-30.6411,1.59266,4.04402,0.052328,0.0333716,-0.0474093,0.120425,-1.90017,0.162266,0.120647,0.0105966,0.0584923,0.0262928,0.211044,-0.331897,0.338661,0.0455408,0.000240824,0,0,0,0,0,0,0,-1.26202,-32.249,-1.56218,25.5823,1.06994,2.2503,-0.0227812,
0.0395288,-0.0476302,0.121398,-1.90909,0.163793,0.136301,0.0109356,0.12275,0.0066815,0.125863,-0.319071,0.260847,0.321488,0.00507416,0,0,0,0,0,0,0,10.5102,-0.793808,10.8052,-29.9456,1.38924,4.01196,0.052501,0.0333716,-0.0474093,0.120425,-1.90017,0.162266,0.120647,0.0105966,0.0584923,0.0262928,0.211044,-0.331897,0.338661,0.0455408,0.000240824,0,0,0,0,0,0,0,-1.26202,-32.249,-1.56218,25.5823,1.06994,2.2503,-0.0227812,
0.0383559,-0.0468272,0.125544,-1.91248,0.169754,0.130053,0.0108074,0.1216,0.00726284,0.124685,-0.312422,0.233872,0.316237,0.00505737,0,0,0,0,0,0,0,10.384,-0.82077,10.6725,-29.252,1.21491,3.97472,0.0524476,0.0333716,-0.0474093,0.120425,-1.90017,0.162266,0.120647,0.0105966,0.0584923,0.0262928,0.211044,-0.331897,0.338661,0.0455408,0.000240824,0,0,0,0,0,0,0,-1.26202,-32.249,-1.56218,25.5823,1.06994,2.2503,-0.0227812,
0.0392619,-0.0467679,0.126474,-1.91469,0.170615,0.132511,0.0108465,0.11993,0.00729467,0.122982,-0.305167,0.208622,0.314448,0.0050228,0,0,0,0,0,0,0,10.2326,-0.945867,10.5203,-28.5233,1.03079,3.96222,0.0523592,0.0350322,-0.0465361,0.127006,-1.91,0.17052,0.121942,0.0105981,0.0471968,0.0302805,0.194255,-0.249798,0.186657,0.0208722,0.00116908,-1.41193,0.498452,-2.09852,10.2624,-19.0005,-3.08358,0.116032,-1.3136,-32.975,-1.76055,24.2136,0.776974,2.20452,-0.0365141,
0.0401398,-0.0467239,0.127374,-1.91683,0.171356,0.135029,0.0108848,0.117891,0.00693361,0.120905,-0.29754,0.185413,0.314501,0.00497578,0,0,0,0,0,0,0,10.0915,-0.969172,10.3732,-27.8326,0.90304,3.91688,0.0519116,0.0350322,-0.0465361,0.127006,-1.91,0.17052,0.121942,0.0105981,0.0471968,0.0302805,0.194255,-0.249798,0.186657,0.0208722,0.00116908,0,0,0,0,0,0,0,-1.3136,-32.975,-1.76055,24.2136,0.776974,2.20452,-0.0365141,
0.0409915,-0.0466935,0.128248,-1.91889,0.171996,0.137579,0.0109223,0.115605,0.0063074,0.118577,-0.289709,0.164335,0.315355,0.00491894,0,0,0,0,0,0,0,9.94326,-0.990716,10.2192,-27.1428,0.793696,3.8685,0.0512891,0.0350322,-0.0465361,0.127006,-1.91,0.17052,0.121942,0.0105981,0.0471968,0.0302805,0.194255,-0.249798,0.186657,0.0208722,0.00116908,0,0,0,0,0,0,0,-1.3136,-32.975,-1.76055,24.2136,0.776974,2.20452,-0.0365141,
0.0394916,-0.0462749,0.131592,-1.92087,0.174931,0.131464,0.0107924,0.113575,0.00581492,0.11651,-0.282676,0.146359,0.310523,0.00485989,0,0,0,0,0,0,0,9.78861,-1.01062,10.059,-26.4535,0.698916,3.81787,0.0505583,0.0350322,-0.0465361,0.127006,-1.91,0.17052,0.121942,0.0105981,0.0471968,0.0302805,0.194255,-0.249798,0.186657,0.0208722,0.00116908,0,0,0,0,0,0,0,-1.3136,-32.975,-1.76055,24.2136,0.776974,2.20452,-0.0365141,
0.0403105,-0.0462534,0.132433,-1.92283,0.175438,0.133866,0.0108285,0.111331,0.0051891,0.114228,-0.275259,0.129745,0.308459,0.00478878,0,0,0,0,0,0,0,9.61813,-1.07962,9.88521,-25.7335,0.60284,3.79591,0.0496972,0.0364123,-0.0453466,0.133282,-1.9175,0.174032,0.12238,0.0105919,0.0329116,0.0514056,0.176828,-0.213399,0.0715955,0.00277823,0.00052743,-1.78566,2.64065,-2.17837,4.54979,-14.3827,-2.26174,-0.0802066,-0.452694,-31.4516,-0.610033,23.6383,0.575558,2.14501,-0.0227812,
0.0411056,-0.0462411,0.13325,-1.92473,0.175868,0.136307,0.0108637,0.108944,0.00446052,0.1118,-0.267616,0.114565,0.307815,0.00471122,0,0,0,0,0,0,0,9.45183,-1.09668,9.71371,-25.0446,0.529851,3.7426,0.0487927,0.0364123,-0.0453466,0.133282,-1.9175,0.174032,0.12238,0.0105919,0.0329116,0.0514056,0.176828,-0.213399,0.0715955,0.00277823,0.00052743,0,0,0,0,0,0,0,-0.452694,-31.4516,-0.610033,23.6383,0.575558,2.14501,-0.0227812,
0.040321,-0.0448235,0.137311,-1.92737,0.176034,0.131301,0.0107691,0.105864,0.00496342,0.108668,-0.259889,0.0983071,0.30093,0.00462353,0,0,0,0,0,0,0,9.10449,-1.12744,9.35641,-23.6659,0.404484,3.63502,0.0468325,0.0364123,-0.0453466,0.133282,-1.9175,0.174032,0.12238,0.0105919,0.0329116,0.0514056,0.176828,-0.213399,0.0715955,0.00277823,0.00052743,0,0,0,0,0,0,0,-0.452694,-31.4516,-0.610033,23.6383,0.575558,2.14501,-0.0227812,
0.0410506,-0.0447837,0.138061,-1.92913,0.17625,0.133558,0.0108024,0.10293,0.00496735,0.105684,-0.251818,0.0840471,0.297156,0.00453365,0,0,0,0,0,0,0,8.92465,-1.14149,9.17178,-22.9756,0.348371,3.58167,0.0458316,0.0364123,-0.0453466,0.133282,-1.9175,0.174032,0.12238,0.0105919,0.0329116,0.0514056,0.176828,-0.213399,0.0715955,0.00277823,0.00052743,0,0,0,0,0,0,0,-0.452694,-31.4516,-0.610033,23.6383,0.575558,2.14501,-0.0227812,
0.0417616,-0.044758,0.138792,-1.93081,0.17642,0.135854,0.0108352,0.100118,0.00461466,0.102822,-0.243569,0.071483,0.295129,0.00444577,0,0,0,0,0,0,0,8.74515,-1.21056,8.99078,-22.2479,0.295093,3.56111,0.0447365,0.0378321,-0.0446591,0.138734,-1.9246,0.175203,0.122518,0.0105952,0.0513131,0.0279592,0.155297,-0.217107,0.00711361,-0.00139815,0.00029459,2.30019,-2.93081,-2.69142,-0.463414,-8.06023,-0.522047,-0.029105,0.182071,-33.1496,-0.137926,29.0695,1.39953,2.5158,-0.0227812,
0.0424544,-0.0447449,0.139505,-1.93243,0.176546,0.138168,0.0108675,0.0974157,0.00402096,0.10007,-0.235255,0.0603368,0.293955,0.00436375,0,0,0,0,0,0,0,8.55964,-1.22339,8.80073,-21.5556,0.242365,3.50935,0.0438057,0.0378321,-0.0446591,0.138734,-1.9246,0.175203,0.122518,0.0105952,0.0513131,0.0279592,0.155297,-0.217107,0.00711361,-0.00139815,0.00029459,0,0,0,0,0,0,0,0.182071,-33.1496,-0.137926,29.0695,1.39953,2.5158,-0.0227812,
0.0415215,-0.0443122,0.142538,-1.93344,0.175807,0.130442,0.0107566,0.0952734,0.00422533,0.0978941,-0.228446,0.0500246,0.285467,0.00428586,0,0,0,0,0,0,0,8.37254,-1.23577,8.60922,-20.8622,0.189886,3.4584,0.0429321,0.0378321,-0.0446591,0.138734,-1.9246,0.175203,0.122518,0.0105952,0.0513131,0.0279592,0.155297,-0.217107,0.00711361,-0.00139815,0.00029459,0,0,0,0,0,0,0,0.182071,-33.1496,-0.137926,29.0695,1.39953,2.5158,-0.0227812,
0.0421946,-0.0442852,0.14323,-1.93498,0.175843,0.132531,0.0107881,0.0930451,0.00405513,0.0956284,-0.221075,0.0409203,0.280585,0.0042171,0,0,0,0,0,0,0,8.18477,-1.24782,8.41712,-20.1678,0.137702,3.40777,0.0421505,0.0378321,-0.0446591,0.138734,-1.9246,0.175203,0.122518,0.0105952,0.0513131,0.0279592,0.155297,-0.217107,0.00711361,-0.00139815,0.00029459,0,0,0,0,0,0,0,0.182071,-33.1496,-0.137926,29.0695,1.39953,2.5158,-0.0227812,
0.042848,-0.0442708,0.143903,-1.93644,0.175846,0.134661,0.0108195,0.0907725,0.00360486,0.0933157,-0.213356,0.0328051,0.277713,0.0041588,0,0,0,0,0,0,0,7.9974,-1.25959,8.22551,-19.4723,0.0858695,3.35691,0.0414538,0.0378321,-0.0446591,0.138734,-1.9246,0.175203,0.122518,0.0105952,0.0513131,0.0279592,0.155297,-0.217107,0.00711361,-0.00139815,0.00029459,0,0,0,0,0,0,0,0.182071,-33.1496,-0.137926,29.0695,1.39953,2.5158,-0.0227812,
0.0434828,-0.0442677,0.144556,-1.93783,0.175818,0.136804,0.0108511,0.0884874,0.00296033,0.0909893,-0.20544,0.0255411,0.275768,0.00411589,0,0,0,0,0,0,0,7.80816,-1.32908,8.03333,-18.7365,0.0367395,3.33679,0.0407366,0.039771,-0.0438592,0.14363,-1.93146,0.175131,0.122654,0.0105959,0.0618236,0.0229649,0.129725,-0.19116,-0.000386977,-0.00234677,0.000924366,1.31382,-0.624278,-3.19646,3.24332,-0.937573,-0.118578,0.0787219,-0.730404,-34.8436,-1.01073,30.3152,1.44256,2.66137,-0.0301054,
0.0431728,-0.0436088,0.147135,-1.93912,0.175151,0.130032,0.0107523,0.086689,0.00299683,0.0891568,-0.198734,0.019201,0.267191,0.00408693,0,0,0,0,0,0,0,7.62513,-1.34025,7.8462,-18.0396,-0.0118901,3.28204,0.0402801,0.039771,-0.0438592,0.14363,-1.93146,0.175131,0.122654,0.0105959,0.0618236,0.0229649,0.129725,-0.19116,-0.000386977,-0.00234677,0.000924366,0,0,0,0,0,0,0,-0.730404,-34.8436,-1.01073,30.3152,1.44256,2.66137,-0.0301054,
0.0437881,-0.0435957,0.147768,-1.94042,0.175083,0.131949,0.0107841,0.0847336,0.0027248,0.0871649,-0.191466,0.0136546,0.261666,0.00406525,0,0,0,0,0,0,0,7.44624,-1.351,7.66328,-17.3425,-0.0573891,3.22304,0.0400383,0.039771,-0.0438592,0.14363,-1.93146,0.175131,0.122654,0.0105959,0.0618236,0.0229649,0.129725,-0.19116,-0.000386977,-0.00234677,0.000924366,0,0,0,0,0,0,0,-0.730404,-34.8436,-1.01073,30.3152,1.44256,2.66137,-0.0301054,
0.044384,-0.043594,0.148382,-1.94165,0.175,0.133882,0.0108165,0.082685,0.00222188,0.0850782,-0.183847,0.00886443,0.257652,0.00406221,0,0,0,0,0,0,0,7.27245,-1.36117,7.4855,-16.6458,-0.0965603,3.15808,0.039914,0.039771,-0.0438592,0.14363,-1.93146,0.175131,0.122654,0.0105959,0.0618236,0.0229649,0.129725,-0.19116,-0.000386977,-0.00234677,0.000924366,0,0,0,0,0,0,0,-0.730404,-34.8436,-1.01073,30.3152,1.44256,2.66137,-0.0301054,
0.0449177,-0.0430825,0.15075,-1.94341,0.174475,0.129812,0.0107623,0.0803394,0.00135679,0.082683,-0.175049,0.00503608,0.24804,0.00414311,0,0,0,0,0,0,0,6.93913,-1.43245,7.14385,-15.2231,-0.148842,3.02605,0.0403951,0.0419068,-0.0430033,0.147648,-1.93714,0.174849,0.122882,0.0105962,0.0595664,0.0094924,0.105858,-0.147708,-0.0134873,0.000380603,0.000659654,-0.282151,-1.68407,-2.98343,5.43154,-1.63754,0.340922,-0.0330889,-0.452694,-34.4945,-0.713182,29.0933,1.6687,2.62841,-0.0301054,
0.0454662,-0.0431044,0.151316,-1.94447,0.174414,0.131495,0.0107959,0.077984,0.000538557,0.080284,-0.1663,0.00249801,0.240519,0.00415322,0,0,0,0,0,0,0,6.78283,-1.43986,6.98363,-14.5327,-0.154672,2.93118,0.040603,0.0419068,-0.0430033,0.147648,-1.93714,0.174849,0.122882,0.0105962,0.0595664,0.0094924,0.105858,-0.147708,-0.0134873,0.000380603,0.000659654,0,0,0,0,0,0,0,-0.452694,-34.4945,-0.713182,29.0933,1.6687,2.62841,-0.0301054,
0.0459981,-0.0431318,0.151865,-1.94545,0.174349,0.133166,0.0108289,0.0756866,-0.00025504,0.0779459,-0.157682,0.000385206,0.234184,0.00414692,0,0,0,0,0,0,0,6.63757,-1.44428,6.83488,-13.8456,-0.158173,2.82884,0.041382,0.0419068,-0.0430033,0.147648,-1.93714,0.174849,0.122882,0.0105962,0.0595664,0.0094924,0.105858,-0.147708,-0.0134873,0.000380603,0.000659654,0,0,0,0,0,0,0,-0.452694,-34.4945,-0.713182,29.0933,1.6687,2.62841,-0.0301054,
0.0465153,-0.0431649,0.152398,-1.94638,0.174272,0.13482,0.0108674,0.0734798,-0.00103028,0.0756994,-0.149299,-0.00161373,0.228702,0.00427988,0,0,0,0,0,0,0,6.49788,-1.44625,6.69145,-13.1639,-0.145614,2.71,0.0437001,0.0419068,-0.0430033,0.147648,-1.93714,0.174849,0.122882,0.0105962,0.0595664,0.0094924,0.105858,-0.147708,-0.0134873,0.000380603,0.000659654,0,0,0,0,0,0,0,-0.452694,-34.4945,-0.713182,29.0933,1.6687,2.62841,-0.0301054,
0.0465073,-0.0423945,0.153886,-1.94737,0.173745,0.128859,0.010785,0.0714986,-0.00138039,0.0736739,-0.142109,-0.00349678,0.21855,0.00465832,0,0,0,0,0,0,0,6.33855,-1.48217,6.52746,-12.4569,-0.102465,2.60057,0.0454477,0.043817,-0.0422745,0.151109,-1.94217,0.17415,0.123125,0.0105927,0.0434518,-0.000573698,0.102485,-0.140059,-0.0148081,0.0096096,0.00121819,-2.01433,-1.25826,-0.421652,0.956034,-0.165098,1.15362,0.0698167,-0.147213,-32.8481,-0.33629,25.6815,1.60095,2.29058,-0.0301054,
0.0469879,-0.0424248,0.154383,-1.94822,0.173746,0.130327,0.0108094,0.0692123,-0.00185995,0.0713702,-0.134983,-0.00277366,0.211542,0.00433683,0,0,0,0,0,0,0,6.15644,-1.48552,6.34199,-11.8015,-0.0472105,2.46323,0.0429157,0.043817,-0.0422745,0.151109,-1.94217,0.17415,0.123125,0.0105927,0.0434518,-0.000573698,0.102485,-0.140059,-0.0148081,0.0096096,0.00121819,0,0,0,0,0,0,0,-0.147213,-32.8481,-0.33629,25.6815,1.60095,2.29058,-0.0301054,
0.0474579,-0.0424602,0.154869,-1.94902,0.173626,0.131902,0.0108262,0.0671204,-0.00237414,0.0692429,-0.127888,-0.00520455,0.208612,0.00388982,0,0,0,0,0,0,0,5.99857,-1.46787,6.18376,-11.1474,-0.104353,2.37651,0.0419636,0.043817,-0.0422745,0.151109,-1.94217,0.17415,0.123125,0.0105927,0.0434518,-0.000573698,0.102485,-0.140059,-0.0148081,0.0096096,0.00121819,0,0,0,0,0,0,0,-0.147213,-32.8481,-0.33629,25.6815,1.60095,2.29058,-0.0301054,
0.0479153,-0.0425008,0.155342,-1.94976,0.173452,0.133504,0.0108508,0.0651308,-0.002913,0.06721,-0.120758,-0.00852603,0.206945,0.00372856,0,0,0,0,0,0,0,5.86099,-1.44546,6.04393,-10.5135,-0.140133,2.32563,0.0489841,0.043817,-0.0422745,0.151109,-1.94217,0.17415,0.123125,0.0105927,0.0434518,-0.000573698,0.102485,-0.140059,-0.0148081,0.0096096,0.00121819,0,0,0,0,0,0,0,-0.147213,-32.8481,-0.33629,25.6815,1.60095,2.29058,-0.0301054,
0.0463305,-0.0422512,0.153709,-1.94657,0.173608,0.128128,0.0107336,0.0635721,-0.00255173,0.0656201,-0.114956,-0.010002,0.198285,0.0036261,0,0,0,0,0,0,0,5.62117,-1.46437,5.79954,-9.84759,-0.134557,2.32748,0.0627416,0.0452229,-0.0418209,0.154449,-1.94687,0.173824,0.123315,0.0105934,0.0346775,0.0037869,0.093491,-0.120363,0.0026744,0.0123794,0.00152622,-1.09678,0.545074,-1.12421,2.46206,2.18531,0.346226,0.0385045,0.435978,-32.3998,0.238966,24.4357,1.57714,1.91887,-0.0365141,
0.0467647,-0.0422712,0.154159,-1.94724,0.173552,0.129435,0.0107504,0.0617139,-0.00254204,0.0637412,-0.108751,-0.00941197,0.191308,0.00332045,0,0,0,0,0,0,0,5.15588,-1.55393,5.33311,-9.26579,0.144765,2.2694,0.0316375,0.0452229,-0.0418209,0.154449,-1.94687,0.173824,0.123315,0.0105934,0.0346775,0.0037869,0.093491,-0.120363,0.0026744,0.0123794,0.00152622,0,0,0,0,0,0,0,0.435978,-32.3998,0.238966,24.4357,1.57714,1.91887,-0.0365141,
0.0471862,-0.0423,0.154595,-1.94785,0.173436,0.130729,0.0107646,0.0599072,-0.00275276,0.0618991,-0.102207,-0.0104204,0.185377,0.00301066,0,0,0,0,0,0,0,5.00955,-1.53108,5.19413,-8.59979,-0.456095,2.55835,0.0198637,0.0452229,-0.0418209,0.154449,-1.94687,0.173824,0.123315,0.0105934,0.0346775,0.0037869,0.093491,-0.120363,0.0026744,0.0123794,0.00152622,0,0,0,0,0,0,0,0.435978,-32.3998,0.238966,24.4357,1.57714,1.91887,-0.0365141,
0.0474491,-0.0417387,0.156756,-1.95035,0.173678,0.12729,0.0107058,0.0580163,-0.00238521,0.0599735,-0.0955559,-0.00797406,0.172239,0.00310484,0,0,0,0,0,0,0,4.86902,-1.55985,5.03272,-7.5507,-0.0917242,2.15725,0.033876,0.0452229,-0.0418209,0.154449,-1.94687,0.173824,0.123315,0.0105934,0.0346775,0.0037869,0.093491,-0.120363,0.0026744,0.0123794,0.00152622,0,0,0,0,0,0,0,0.435978,-32.3998,0.238966,24.4357,1.57714,1.91887,-0.0365141,
0.0478278,-0.0417603,0.157149,-1.95085,0.173804,0.128242,0.0107257,0.0558794,-0.00244835,0.0578277,-0.0889364,-0.00322231,0.161587,0.00298146,0,0,0,0,0,0,0,4.6917,-1.60549,4.8578,-7.0141,0.0549062,1.9935,0.0224572,0.046438,-0.0413825,0.157515,-1.95053,0.173762,0.123344,0.0105867,0.0307809,0.021622,0.0932439,-0.0925393,0.00145505,0.00554339,-0.00125878,-0.487078,2.22938,-0.0308896,3.47794,-0.152418,-0.854502,-0.348126,0.384403,-32.975,0.139784,25.856,1.59546,1.91887,0.0239107,
0.0481945,-0.0417934,0.15753,-1.9513,0.173895,0.12923,0.0107402,0.0538709,-0.00278418,0.0557807,-0.082439,-0.000315158,0.153985,0.00274736,0,0,0,0,0,0,0,4.59224,-1.5621,4.76102,-6.45157,-0.295805,1.92387,0.0176467,0.046438,-0.0413825,0.157515,-1.95053,0.173762,0.123344,0.0105867,0.0307809,0.021622,0.0932439,-0.0925393,0.00145505,0.00554339,-0.00125878,0,0,0,0,0,0,0,0.384403,-32.975,0.139784,25.856,1.59546,1.91887,0.0239107,
0.048545,-0.0418357,0.157894,-1.95171,0.17405,0.130198,0.0107618,0.0518611,-0.0032866,0.0537248,-0.0760956,0.00361958,0.147377,0.00273842,0,0,0,0,0,0,0,4.56927,-1.51163,4.72705,-5.93367,-0.145334,1.7592,0.0322688,0.046438,-0.0413825,0.157515,-1.95053,0.173762,0.123344,0.0105867,0.0307809,0.021622,0.0932439,-0.0925393,0.00145505,0.00554339,-0.00125878,0,0,0,0,0,0,0,0.384403,-32.975,0.139784,25.856,1.59546,1.91887,0.0239107,
0.0484442,-0.0410974,0.159602,-1.95326,0.174561,0.126494,0.0106924,0.0502643,-0.00250056,0.0521119,-0.0713928,0.0107194,0.137475,0.00276764,0,0,0,0,0,0,0,4.35033,-1.50587,4.50251,-5.44118,0.177377,1.68755,0.0373845,0.046438,-0.0413825,0.157515,-1.95053,0.173762,0.123344,0.0105867,0.0307809,0.021622,0.0932439,-0.0925393,0.00145505,0.00554339,-0.00125878,0,0,0,0,0,0,0,0.384403,-32.975,0.139784,25.856,1.59546,1.91887,0.0239107,
0.0487682,-0.041113,0.159941,-1.95363,0.175045,0.127246,0.010705,0.0483123,-0.00239137,0.0501631,-0.0664091,0.0206942,0.128797,0.00252906,0,0,0,0,0,0,0,4.12609,-1.56884,4.28841,-4.97532,0.34247,1.60694,0.0270039,0.0473507,-0.0409316,0.160081,-1.95281,0.173775,0.12341,0.0105919,0.0224784,0.0332173,0.0806152,-0.054649,0.00264113,0.00726223,0.0011532,-1.03781,1.44942,-1.57859,4.73629,0.148259,0.214855,0.301498,-0.246395,-32.6497,-0.463243,26.0822,1.46087,1.83282,-0.0227812,
0.0490804,-0.0411438,0.160267,-1.95395,0.175527,0.127981,0.0107148,0.046453,-0.00268355,0.0482712,-0.0611581,0.0286021,0.121392,0.00226758,0,0,0,0,0,0,0,3.97622,-1.5495,4.1361,-4.49095,-0.0257453,1.73783,0.0181903,0.0473507,-0.0409316,0.160081,-1.95281,0.173775,0.12341,0.0105919,0.0224784,0.0332173,0.0806152,-0.054649,0.00264113,0.00726223,0.0011532,0,0,0,0,0,0,0,-0.246395,-32.6497,-0.463243,26.0822,1.46087,1.83282,-0.0227812,
0.0493753,-0.0411873,0.160574,-1.95423,0.176119,0.128647,0.0107306,0.0445363,-0.00323394,0.0463095,-0.055856,0.0376842,0.113772,0.00221094,0,0,0,0,0,0,0,3.95934,-1.53919,4.10535,-4.0991,0.287331,1.53992,0.0288898,0.0473507,-0.0409316,0.160081,-1.95281,0.173775,0.12341,0.0105919,0.0224784,0.0332173,0.0806152,-0.054649,0.00264113,0.00726223,0.0011532,0,0,0,0,0,0,0,-0.246395,-32.6497,-0.463243,26.0822,1.46087,1.83282,-0.0227812,
0.0492305,-0.0406164,0.162056,-1.95501,0.177017,0.128651,0.01067,0.0422016,-0.00300275,0.0439486,-0.050567,0.0521999,0.115501,0.00199276,0,0,0,0,0,0,0,3.68836,-1.66624,3.84592,-3.35466,0.78204,2.1464,0.0193212,0.0473507,-0.0409316,0.160081,-1.95281,0.173775,0.12341,0.0105919,0.0224784,0.0332173,0.0806152,-0.054649,0.00264113,0.00726223,0.0011532,0,0,0,0,0,0,0,-0.246395,-32.6497,-0.463243,26.0822,1.46087,1.83282,-0.0227812,
0.0494746,-0.0406492,0.162312,-1.95521,0.178083,0.129589,0.010682,0.039865,-0.00322089,0.0415695,-0.0453664,0.0684345,0.115849,0.00189205,0,0,0,0,0,0,0,3.55759,-1.65411,3.71388,-2.93369,0.386779,2.13153,0.013631,0.0481331,-0.0406223,0.162282,-1.9541,0.173777,0.123371,0.0105956,0.0246327,0.0153111,0.0582476,-0.0367043,-0.000957148,-0.00264391,0.00193115,0.269279,-2.23827,-2.79595,2.24309,-0.449784,-1.23827,0.0972446,0.66608,-32.376,0.43733,26.9034,1.54602,2.01867,-0.0566557,
0.0496942,-0.0406951,0.162544,-1.95537,0.179426,0.13044,0.0106925,0.0373811,-0.00372512,0.0390653,-0.0403736,0.0883145,0.113955,0.00177812,0,0,0,0,0,0,0,3.51614,-1.62175,3.65641,-2.59263,0.767034,1.87771,0.0230692,0.0481331,-0.0406223,0.162282,-1.9541,0.173777,0.123371,0.0105956,0.0246327,0.0153111,0.0582476,-0.0367043,-0.000957148,-0.00264391,0.00193115,0,0,0,0,0,0,0,0.66608,-32.376,0.43733,26.9034,1.54602,2.01867,-0.0566557,
0.049894,-0.0407532,0.162755,-1.95551,0.181021,0.131202,0.0106957,0.0349002,-0.00443242,0.036508,-0.0357001,0.110513,0.110211,0.00150194,0,0,0,0,0,0,0,3.3105,-1.61426,3.45288,-2.28066,1.26342,1.60765,0.0252803,0.0481331,-0.0406223,0.162282,-1.9541,0.173777,0.123371,0.0105956,0.0246327,0.0153111,0.0582476,-0.0367043,-0.000957148,-0.00264391,0.00193115,0,0,0,0,0,0,0,0.66608,-32.376,0.43733,26.9034,1.54602,2.01867,-0.0566557,
0.0496679,-0.0404817,0.163892,-1.95609,0.180489,0.135115,0.0106606,0.0352541,-0.00310941,0.0368342,-0.0352828,0.137445,0.160115,0.00136275,0,0,0,0,0,0,0,4.58191,-1.72873,4.75309,-2.32171,2.51694,5.09169,0.0216593,0.0481331,-0.0406223,0.162282,-1.9541,0.173777,0.123371,0.0105956,0.0246327,0.0153111,0.0582476,-0.0367043,-0.000957148,-0.00264391,0.00193115,0,0,0,0,0,0,0,0.66608,-32.376,0.43733,26.9034,1.54602,2.01867,-0.0566557,
0.0499601,-0.0404761,0.164197,-1.9563,0.182524,0.138052,0.0106649,0.0355067,-0.00234605,0.0370901,-0.03354,0.160821,0.201517,0.00119836,0,0,0,0,0,0,0,4.42075,-1.65954,4.57548,-2.0173,2.18644,5.07066,0.0147493,0.0481331,-0.0406223,0.162282,-1.9541,0.173777,0.123371,0.0105956,0.0246327,0.0153111,0.0582476,-0.0367043,-0.000957148,-0.00264391,0.00193115,0,0,0,0,0,0,0,0.66608,-32.376,0.43733,26.9034,1.54602,2.01867,-0.0566557,
0.0502421,-0.0404816,0.164491,-1.95647,0.184734,0.140958,0.0106708,0.0354572,-0.00201577,0.0370352,-0.0309845,0.183912,0.233871,0.00110593,0,0,0,0,0,0,0,4.34871,-1.59224,4.48733,-1.77937,2.58471,4.75451,0.0203401,0.0488112,-0.0403406,0.164175,-1.95502,0.173793,0.12336,0.0105919,0.0224071,0.00704745,0.0555299,-0.0260902,0.00134481,-0.00293421,0.000859621,-0.2782,-1.03296,-0.339716,1.32676,0.287744,-0.0362873,-0.133942,-0.325741,-32.7727,-0.463243,27.2287,1.53412,2.06536,-0.0227812,
0.0517655,-0.0403485,0.165858,-1.9594,0.196888,0.159486,0.011102,0.0462022,0.00134256,0.0471315,-0.0418334,0.270162,0.378631,0.00214215,0,0,0,0,0,0,0,10.1721,-0.986285,10.0185,-5.88917,7.38156,10.9513,0.0712397,0.0488112,-0.0403406,0.164175,-1.95502,0.173793,0.12336,0.0105919,0.0224071,0.00704745,0.0555299,-0.0260902,0.00134481,-0.00293421,0.000859621,0,0,0,0,0,0,0,-0.325741,-32.7727,-0.463243,27.2287,1.53412,2.06536,-0.0227812,
0.0519142,-0.0396822,0.167185,-1.95966,0.194927,0.15936,0.0108777,0.052625,0.00704777,0.0530114,-0.0474327,0.322305,0.491553,0.00261501,0,0,0,0,0,0,0,9.75445,-0.413728,9.57647,-5.62076,6.58614,10.9513,0.0586837,0.0488112,-0.0403406,0.164175,-1.95502,0.173793,0.12336,0.0105919,0.0224071,0.00704745,0.0555299,-0.0260902,0.00134481,-0.00293421,0.000859621,0,0,0,0,0,0,0,-0.325741,-32.7727,-0.463243,27.2287,1.53412,2.06536,-0.0227812,
0.0525546,-0.0394283,0.167817,-1.96013,0.199172,0.166831,0.0109119,0.0581102,0.0119847,0.0581869,-0.0496621,0.363965,0.580021,0.00294696,0,0,0,0,0,0,0,9.48073,0.165113,9.28247,-5.39137,6.53166,10.9513,0.0594481,0.0488112,-0.0403406,0.164175,-1.95502,0.173793,0.12336,0.0105919,0.0224071,0.00704745,0.0555299,-0.0260902,0.00134481,-0.00293421,0.000859621,0,0,0,0,0,0,0,-0.325741,-32.7727,-0.463243,27.2287,1.53412,2.06536,-0.0227812,
0.0531994,-0.0391693,0.168455,-1.96052,0.203418,0.17406,0.0109482,0.0626095,0.0160641,0.0625093,-0.049635,0.397325,0.644724,0.00326574,0,0,0,0,0,0,0,9.16034,0.695122,8.91277,-5.15851,6.52722,10.9541,0.0563767,0.0493561,-0.0400775,0.165993,-1.95542,0.173821,0.12336,0.0105896,0.0158989,0.00350147,0.0539626,-0.000575958,-0.00297665,-0.00369403,0.00046018,-0.813518,-0.443246,-0.195914,3.18928,-0.540182,-0.0949775,-0.0499301,0.511356,-32.6735,0.314344,27.2763,1.71722,2.16424,-0.0026396,
0.0519353,-0.0405786,0.168706,-1.96043,0.190611,0.152816,0.0108741,0.0665089,0.0129412,0.0670032,-0.0622002,0.420414,0.702718,0.00391292,0,0,0,0,0,0,0,11.2943,-2.57542,11.6746,-8.86919,7.7558,10.9541,0.0807377,0.0493561,-0.0400775,0.165993,-1.95542,0.173821,0.12336,0.0105896,0.0158989,0.00350147,0.0539626,-0.000575958,-0.00297665,-0.00369403,0.00046018,0,0,0,0,0,0,0,0.511356,-32.6735,0.314344,27.2763,1.71722,2.16424,-0.0026396,
0.052628,-0.0405537,0.169418,-1.96123,0.194725,0.160354,0.0109127,0.0705238,0.0109754,0.0714058,-0.0697674,0.43919,0.750625,0.0040956,0,0,0,0,0,0,0,10.8801,-2.3233,11.2191,-8.71886,6.75713,10.9541,0.0656108,0.0493561,-0.0400775,0.165993,-1.95542,0.173821,0.12336,0.0105896,0.0158989,0.00350147,0.0539626,-0.000575958,-0.00297665,-0.00369403,0.00046018,0,0,0,0,0,0,0,0.511356,-32.6735,0.314344,27.2763,1.71722,2.16424,-0.0026396,
0.0533522,-0.0405225,0.170166,-1.96194,0.198552,0.167748,0.0109487,0.0745229,0.00956042,0.0758253,-0.0734815,0.447037,0.785345,0.00417608,0,0,0,0,0,0,0,10.6452,-2.01079,10.9554,-8.59978,6.45989,10.9541,0.0620807,0.0493561,-0.0400775,0.165993,-1.95542,0.173821,0.12336,0.0105896,0.0158989,0.00350147,0.0539626,-0.000575958,-0.00297665,-0.00369403,0.00046018,0,0,0,0,0,0,0,0.511356,-32.6735,0.314344,27.2763,1.71722,2.16424,-0.0026396,
0.0540929,-0.0404948,0.170932,-1.96257,0.20212,0.174824,0.0109851,0.0781372,0.00834165,0.0798128,-0.0745799,0.446829,0.805178,0.00425005,0,0,0,0,0,0,0,10.385,-1.6633,10.6779,-8.46638,6.16438,10.9561,0.0640054,0.0504566,-0.0392912,0.168035,-1.95539,0.174378,0.124336,0.0105915,0.045004,0.0255477,0.0674458,-0.00379256,0.0234356,0.0785122,0.000494278,3.63814,2.75577,1.6854,-0.402076,3.30153,10.2758,0.00426221,2.54261,-31.4516,2.43684,26.4789,2.15118,2.53594,-0.00996382,
0.0536188,-0.0395268,0.171222,-1.96176,0.193796,0.155549,0.0109058,0.0816691,0.00798271,0.0830607,-0.0894788,0.465651,0.83522,0.00472064,0,0,0,0,0,0,0,12.8038,-1.62248,12.8305,-13.0966,8.8963,10.9561,0.109785,0.0504566,-0.0392912,0.168035,-1.95539,0.174378,0.124336,0.0105915,0.045004,0.0255477,0.0674458,-0.00379256,0.0234356,0.0785122,0.000494278,0,0,0,0,0,0,0,2.54261,-31.4516,2.43684,26.4789,2.15118,2.53594,-0.00996382,
0.0544271,-0.0394512,0.17203,-1.96289,0.197901,0.163474,0.0109495,0.085542,0.00827565,0.0866544,-0.0998483,0.475143,0.866313,0.00487025,0,0,0,0,0,0,0,12.0558,-1.50829,12.128,-13.0703,8.19505,10.9561,0.0801355,0.0504566,-0.0392912,0.168035,-1.95539,0.174378,0.124336,0.0105915,0.045004,0.0255477,0.0674458,-0.00379256,0.0234356,0.0785122,0.000494278,0,0,0,0,0,0,0,2.54261,-31.4516,2.43684,26.4789,2.15118,2.53594,-0.00996382,
0.0552744,-0.0393616,0.172879,-1.96397,0.201517,0.171591,0.0109886,0.0896169,0.008861,0.0905622,-0.106671,0.47053,0.89596,0.00487379,0,0,0,0,0,0,0,11.5548,-1.18841,11.6131,-12.9283,6.81414,10.9561,0.0672702,0.0504566,-0.0392912,0.168035,-1.95539,0.174378,0.124336,0.0105915,0.045004,0.0255477,0.0674458,-0.00379256,0.0234356,0.0785122,0.000494278,0,0,0,0,0,0,0,2.54261,-31.4516,2.43684,26.4789,2.15118,2.53594,-0.00996382,
0.0561978,-0.0388329,0.174266,-1.96294,0.19278,0.162476,0.010871,0.092937,0.00680416,0.0942422,-0.121738,0.467381,0.912868,0.00502852,0,0,0,0,0,0,0,12.8179,-1.58104,13.1103,-17.0314,8.35862,10.9416,0.104699,0.0525004,-0.038336,0.170443,-1.95546,0.175237,0.129165,0.010594,0.0790861,0.0315171,0.087961,-0.00369125,0.0103167,0.190039,0.00102233,4.26026,0.746179,2.5644,0.0126644,-1.63986,13.9408,0.0660069,3.02265,-31.7491,2.83754,26.3797,2.40753,2.60918,-0.00996382,
0.057085,-0.0388223,0.175175,-1.96434,0.196119,0.170551,0.0109137,0.0965274,0.00570651,0.098108,-0.132624,0.457397,0.932155,0.00508871,0,0,0,0,0,0,0,12.1392,-1.46239,12.4588,-16.9469,7.35417,10.9416,0.0792403,0.0525004,-0.038336,0.170443,-1.95546,0.175237,0.129165,0.010594,0.0790861,0.0315171,0.087961,-0.00369125,0.0103167,0.190039,0.00102233,0,0,0,0,0,0,0,3.02265,-31.7491,2.83754,26.3797,2.40753,2.60918,-0.00996382,
0.0579996,-0.0387963,0.176111,-1.96571,0.19912,0.17878,0.0109539,0.100089,0.00521522,0.101884,-0.140342,0.440923,0.951451,0.00507725,0,0,0,0,0,0,0,11.6949,-1.25407,12.0106,-16.8103,5.82849,10.9416,0.0624918,0.0525004,-0.038336,0.170443,-1.95546,0.175237,0.129165,0.010594,0.0790861,0.0315171,0.087961,-0.00369125,0.0103167,0.190039,0.00102233,0,0,0,0,0,0,0,3.02265,-31.7491,2.83754,26.3797,2.40753,2.60918,-0.00996382,
0.0589337,-0.0387585,0.177066,-1.96705,0.201768,0.187111,0.0109927,0.103423,0.00511847,0.105385,-0.145683,0.418951,0.969439,0.00503182,0,0,0,0,0,0,0,11.4958,-0.992496,11.7968,-16.6924,5.05926,10.9416,0.0544895,0.0525004,-0.038336,0.170443,-1.95546,0.175237,0.129165,0.010594,0.0790861,0.0315171,0.087961,-0.00369125,0.0103167,0.190039,0.00102233,0,0,0,0,0,0,0,3.02265,-31.7491,2.83754,26.3797,2.40753,2.60918,-0.00996382,
0.0562897,-0.0390192,0.174288,-1.96413,0.191786,0.163129,0.0108305,0.104393,0.00322946,0.106213,-0.159884,0.423415,0.97395,0.00505992,0,0,0,0,0,0,0,12.8166,-1.0691,12.9314,-20.8904,7.49672,10.915,0.0810543,0.0555449,-0.0368824,0.173753,-1.95572,0.17532,0.136977,0.0105914,0.0960412,0.0384151,0.107825,-0.018277,-0.00445325,0.249117,0.000291722,2.11938,0.862244,2.48304,-1.82322,-1.84624,7.38482,-0.0913264,1.67774,-31.2254,1.58784,25.4315,2.24273,2.15142,0.0101778,
0.0571929,-0.0390281,0.175201,-1.96582,0.195052,0.171274,0.0108694,0.106094,0.00236269,0.107801,-0.170185,0.420384,0.982785,0.00501924,0,0,0,0,0,0,0,12.3819,-1.03946,12.5093,-20.7985,6.59867,10.915,0.0679041,0.0555449,-0.0368824,0.173753,-1.95572,0.17532,0.136977,0.0105914,0.0960412,0.0384151,0.107825,-0.018277,-0.00445325,0.249117,0.000291722,0,0,0,0,0,0,0,1.67774,-31.2254,1.58784,25.4315,2.24273,2.15142,0.0101778,
0.0581232,-0.0390189,0.176141,-1.96747,0.198007,0.179556,0.010906,0.108135,0.00212053,0.109756,-0.177475,0.410195,0.993273,0.00492985,0,0,0,0,0,0,0,12.0684,-0.928355,12.2021,-20.665,5.77818,10.915,0.0568933,0.0555449,-0.0368824,0.173753,-1.95572,0.17532,0.136977,0.0105914,0.0960412,0.0384151,0.107825,-0.018277,-0.00445325,0.249117,0.000291722,0,0,0,0,0,0,0,1.67774,-31.2254,1.58784,25.4315,2.24273,2.15142,0.0101778,
0.0590724,-0.0389961,0.177101,-1.96909,0.200637,0.187926,0.0109412,0.110237,0.00226572,0.111794,-0.182468,0.393889,1.00385,0.00482584,0,0,0,0,0,0,0,11.8571,-0.783983,11.9947,-20.5093,4.9967,10.915,0.0503571,0.0555449,-0.0368824,0.173753,-1.95572,0.17532,0.136977,0.0105914,0.0960412,0.0384151,0.107825,-0.018277,-0.00445325,0.249117,0.000291722,0,0,0,0,0,0,0,1.67774,-31.2254,1.58784,25.4315,2.24273,2.15142,0.0101778,
0.0596538,-0.0375361,0.177953,-1.96552,0.192047,0.171974,0.0108007,0.110754,0.000992206,0.112401,-0.195395,0.404656,1.00345,0.00480189,0,0,0,0,0,0,0,13.0147,-0.592623,13.2215,-24.3211,7.44553,10.8872,0.0777723,0.0583221,-0.0352862,0.177957,-1.95669,0.175364,0.145543,0.0105899,0.070018,0.0488763,0.134332,-0.0466291,-0.00719225,0.277637,-0.0014814,-3.25289,1.30765,3.31336,-3.544,-0.342376,3.56504,-0.22164,-0.754208,-31.4992,-0.93535,25.257,1.99188,2.06536,0.0376436,
0.0605865,-0.0375437,0.178902,-1.96746,0.195359,0.180167,0.0108362,0.111921,0.000604678,0.113627,-0.204722,0.406544,1.00758,0.00472997,0,0,0,0,0,0,0,12.5551,-0.687963,12.767,-24.2014,6.56478,10.8872,0.0642465,0.0583221,-0.0352862,0.177957,-1.95669,0.175364,0.145543,0.0105899,0.070018,0.0488763,0.134332,-0.0466291,-0.00719225,0.277637,-0.0014814,0,0,0,0,0,0,0,-0.754208,-31.4992,-0.93535,25.257,1.99188,2.06536,0.0376436,
0.0615411,-0.0375336,0.179872,-1.96936,0.198355,0.188474,0.0108699,0.113402,0.000736171,0.115151,-0.211243,0.400121,1.01375,0.00462645,0,0,0,0,0,0,0,12.2208,-0.660882,12.4328,-24.0263,5.75634,10.8872,0.0534769,0.0583221,-0.0352862,0.177957,-1.95669,0.175364,0.145543,0.0105899,0.070018,0.0488763,0.134332,-0.0466291,-0.00719225,0.277637,-0.0014814,0,0,0,0,0,0,0,-0.754208,-31.4992,-0.93535,25.257,1.99188,2.06536,0.0376436,
0.0624223,-0.0358195,0.182133,-1.96773,0.191457,0.180909,0.010769,0.113189,-9.05571e-05,0.114899,-0.224454,0.405656,1.01161,0.00453485,0,0,0,0,0,0,0,12.8866,-0.632316,13.04,-27.4811,7.17869,10.8872,0.0685984,0.0583221,-0.0352862,0.177957,-1.95669,0.175364,0.145543,0.0105899,0.070018,0.0488763,0.134332,-0.0466291,-0.00719225,0.277637,-0.0014814,0,0,0,0,0,0,0,-0.754208,-31.4992,-0.93535,25.257,1.99188,2.06536,0.0376436,
0.0633504,-0.0358268,0.183073,-1.96991,0.194608,0.189098,0.0108007,0.113755,-0.000254741,0.11542,-0.233939,0.403296,1.014,0.00441951,0,0,0,0,0,0,0,12.449,-0.711532,12.6052,-27.3462,6.30465,10.8513,0.0566588,0.0606145,-0.0337179,0.183143,-1.95914,0.175421,0.157675,0.0105888,0.0647989,0.0387434,0.157051,-0.0877431,-0.00570903,0.378422,-0.00122303,-0.652387,-1.26661,2.83992,-5.13926,0.185403,12.5981,0.0322965,-0.476498,-32.1736,-0.538622,25.4831,1.76025,1.98571,0.0376436,
0.0643,-0.0358207,0.184034,-1.97204,0.197442,0.197392,0.010831,0.114744,-5.21258e-05,0.11637,-0.240509,0.39348,1.01855,0.00429259,0,0,0,0,0,0,0,12.1314,-0.723278,12.2904,-27.1178,5.50542,10.8513,0.0471891,0.0606145,-0.0337179,0.183143,-1.95914,0.175421,0.157675,0.0105888,0.0647989,0.0387434,0.157051,-0.0877431,-0.00570903,0.378422,-0.00122303,0,0,0,0,0,0,0,-0.476498,-32.1736,-0.538622,25.4831,1.76025,1.98571,0.0376436,
0.065264,-0.0358043,0.18501,-1.97414,0.199945,0.205751,0.0108607,0.115895,0.000369457,0.117489,-0.244813,0.377365,1.02383,0.00417684,0,0,0,0,0,0,0,11.9045,-0.670655,12.0637,-26.8577,4.7643,10.8513,0.0406106,0.0606145,-0.0337179,0.183143,-1.95914,0.175421,0.157675,0.0105888,0.0647989,0.0387434,0.157051,-0.0877431,-0.00570903,0.378422,-0.00122303,0,0,0,0,0,0,0,-0.476498,-32.1736,-0.538622,25.4831,1.76025,1.98571,0.0376436,
0.0648562,-0.0343773,0.187467,-1.97114,0.191035,0.194181,0.0107422,0.115453,-0.000906398,0.117056,-0.256007,0.384555,1.02155,0.00408856,0,0,0,0,0,0,0,12.752,-0.770706,12.915,-30.3018,6.86545,10.8513,0.062127,0.0606145,-0.0337179,0.183143,-1.95914,0.175421,0.157675,0.0105888,0.0647989,0.0387434,0.157051,-0.0877431,-0.00570903,0.378422,-0.00122303,0,0,0,0,0,0,0,-0.476498,-32.1736,-0.538622,25.4831,1.76025,1.98571,0.0376436,
0.0657903,-0.0344026,0.188413,-1.97351,0.194073,0.202412,0.0107708,0.115713,-0.00135861,0.11731,-0.263881,0.383587,1.02302,0.00398774,0,0,0,0,0,0,0,12.3351,-0.894311,12.5053,-30.0711,6.02016,10.8513,0.0507999,0.0606145,-0.0337179,0.183143,-1.95914,0.175421,0.157675,0.0105888,0.0647989,0.0387434,0.157051,-0.0877431,-0.00570903,0.378422,-0.00122303,0,0,0,0,0,0,0,-0.476498,-32.1736,-0.538622,25.4831,1.76025,1.98571,0.0376436,
0.0667421,-0.0344116,0.189378,-1.97583,0.196799,0.210725,0.0107985,0.116365,-0.00131118,0.117953,-0.269145,0.375034,1.02625,0.0038822,0,0,0,0,0,0,0,12.0313,-0.835207,12.1988,-29.8218,5.25892,10.809,0.04235,0.0625475,-0.0323102,0.188505,-1.96262,0.175489,0.171826,0.0105937,0.0606796,0.0385468,0.159145,-0.122485,0.00136066,0.441248,0.000442543,-0.514913,-0.0245809,0.261749,-4.34277,0.883712,7.85321,0.208196,1.01917,-30.4042,0.838026,23.5391,1.6687,1.74676,0.00376909,
0.0677055,-0.0344073,0.190353,-1.97811,0.199203,0.219088,0.0108259,0.117178,-0.000942783,0.118757,-0.272371,0.36013,1.03006,0.00379054,0,0,0,0,0,0,0,11.8135,-0.764931,11.9804,-29.503,4.54659,10.809,0.0364336,0.0625475,-0.0323102,0.188505,-1.96262,0.175489,0.171826,0.0105937,0.0606796,0.0385468,0.159145,-0.122485,0.00136066,0.441248,0.000442543,0,0,0,0,0,0,0,1.01917,-30.4042,0.838026,23.5391,1.6687,1.74676,0.00376909,
0.0667752,-0.0328737,0.192806,-1.97549,0.190229,0.208973,0.010729,0.116357,-0.0016764,0.117903,-0.28227,0.36529,1.02728,0.00371356,0,0,0,0,0,0,0,12.5875,-0.558607,12.7279,-32.6848,6.44146,10.809,0.0558436,0.0625475,-0.0323102,0.188505,-1.96262,0.175489,0.171826,0.0105937,0.0606796,0.0385468,0.159145,-0.122485,0.00136066,0.441248,0.000442543,0,0,0,0,0,0,0,1.01917,-30.4042,0.838026,23.5391,1.6687,1.74676,0.00376909,
0.0677032,-0.0328902,0.193744,-1.97802,0.193053,0.217212,0.0107554,0.116286,-0.00175214,0.117794,-0.289082,0.362811,1.0278,0.00362996,0,0,0,0,0,0,0,12.2013,-0.713509,12.3483,-32.3993,5.63243,10.809,0.0455314,0.0625475,-0.0323102,0.188505,-1.96262,0.175489,0.171826,0.0105937,0.0606796,0.0385468,0.159145,-0.122485,0.00136066,0.441248,0.000442543,0,0,0,0,0,0,0,1.01917,-30.4042,0.838026,23.5391,1.6687,1.74676,0.00376909,
0.0686481,-0.0328919,0.1947,-1.98051,0.195574,0.225518,0.010781,0.116651,-0.00144496,0.118125,-0.293457,0.353293,1.0299,0.00354512,0,0,0,0,0,0,0,11.9205,-0.69473,12.0645,-32.085,4.90812,10.7713,0.0378759,0.0647051,-0.0309577,0.194053,-1.9676,0.175652,0.187017,0.0105952,0.0715768,0.0432587,0.167126,-0.161521,-0.00244438,0.458305,0.000422127,1.36215,0.588991,0.997521,-4.87948,-0.475631,2.13219,-0.00255198,0.384403,-30.2535,0.187391,23.0154,1.62567,1.57464,-0.00996382,
0.0696039,-0.0328817,0.195666,-1.98295,0.197787,0.233863,0.0108065,0.117216,-0.000901188,0.118661,-0.29592,0.337943,1.03253,0.00347436,0,0,0,0,0,0,0,11.7202,-0.656875,11.8638,-31.717,4.22884,10.7713,0.0326058,0.0647051,-0.0309577,0.194053,-1.9676,0.175652,0.187017,0.0105952,0.0715768,0.0432587,0.167126,-0.161521,-0.00244438,0.458305,0.000422127,0,0,0,0,0,0,0,0.384403,-30.2535,0.187391,23.0154,1.62567,1.57464,-0.00996382,
0.0691041,-0.0313744,0.198526,-1.98143,0.189767,0.223945,0.010709,0.116775,-0.00131375,0.118213,-0.305332,0.344171,1.02759,0.00339138,0,0,0,0,0,0,0,12.4668,-0.699454,12.6076,-34.7786,6.09159,10.7713,0.0505328,0.0647051,-0.0309577,0.194053,-1.9676,0.175652,0.187017,0.0105952,0.0715768,0.0432587,0.167126,-0.161521,-0.00244438,0.458305,0.000422127,0,0,0,0,0,0,0,0.384403,-30.2535,0.187391,23.0154,1.62567,1.57464,-0.00996382,
0.0700417,-0.0313807,0.199475,-1.98412,0.192468,0.232118,0.0107331,0.11686,-0.00120872,0.118285,-0.311564,0.342852,1.0264,0.00331455,0,0,0,0,0,0,0,12.1029,-0.843203,12.2489,-34.4373,5.33364,10.7713,0.0408366,0.0647051,-0.0309577,0.194053,-1.9676,0.175652,0.187017,0.0105952,0.0715768,0.0432587,0.167126,-0.161521,-0.00244438,0.458305,0.000422127,0,0,0,0,0,0,0,0.384403,-30.2535,0.187391,23.0154,1.62567,1.57464,-0.00996382,
0.0709915,-0.0313742,0.200435,-1.98676,0.194884,0.24036,0.0107567,0.117234,-0.000804079,0.118644,-0.315302,0.33469,1.02717,0.00324131,0,0,0,0,0,0,0,11.8381,-0.8238,11.9823,-34.0762,4.65421,10.7308,0.0335405,0.0673779,-0.0298829,0.199546,-1.97418,0.175675,0.203915,0.0105973,0.0862718,0.0376311,0.161146,-0.203798,-0.00692598,0.525013,0.00127624,1.83688,-0.703447,-0.747501,-5.2846,-0.5602,8.33839,0.106764,1.07074,-31.3762,0.762648,25.0586,1.74194,1.82641,-0.0301054,
0.071843,-0.0302921,0.204077,-1.98871,0.189072,0.241265,0.01069,0.116836,-0.00128445,0.118211,-0.323865,0.337849,1.02319,0.00314613,0,0,0,0,0,0,0,12.2858,-1.01563,12.409,-36.5368,5.76398,10.7308,0.043541,0.0673779,-0.0298829,0.199546,-1.97418,0.175675,0.203915,0.0105973,0.0862718,0.0376311,0.161146,-0.203798,-0.00692598,0.525013,0.00127624,0,0,0,0,0,0,0,1.07074,-31.3762,0.762648,25.0586,1.74194,1.82641,-0.0301054,
0.0727789,-0.0302995,0.205022,-1.99152,0.191638,0.249419,0.0107122,0.116868,-0.00121339,0.118211,-0.329294,0.334429,1.02238,0.0030699,0,0,0,0,0,0,0,11.9569,-1.07107,12.0844,-36.1201,5.04552,10.7308,0.0350685,0.0673779,-0.0298829,0.199546,-1.97418,0.175675,0.203915,0.0105973,0.0862718,0.0376311,0.161146,-0.203798,-0.00692598,0.525013,0.00127624,0,0,0,0,0,0,0,1.07074,-31.3762,0.762648,25.0586,1.74194,1.82641,-0.0301054,
0.0737237,-0.030293,0.205977,-1.99427,0.193937,0.257588,0.0107339,0.117112,-0.000806071,0.118426,-0.33213,0.324996,1.02215,0.00300081,0,0,0,0,0,0,0,11.7194,-1.0303,11.8479,-35.6644,4.38458,10.7308,0.0289932,0.0673779,-0.0298829,0.199546,-1.97418,0.175675,0.203915,0.0105973,0.0862718,0.0376311,0.161146,-0.203798,-0.00692598,0.525013,0.00127624,0,0,0,0,0,0,0,1.07074,-31.3762,0.762648,25.0586,1.74194,1.82641,-0.0301054,
0.0746691,-0.0302752,0.206932,-1.99693,0.195957,0.265518,0.0107555,0.117326,-0.00020114,0.11862,-0.332203,0.31051,1.01597,0.00293894,0,0,0,0,0,0,0,11.5601,-0.915705,11.6815,-35.2088,3.79072,10.6894,0.0260926,0.0703114,-0.0286839,0.204762,-1.98185,0.175656,0.22183,0.0105944,0.0812417,0.0285123,0.160552,-0.237101,-0.00493401,0.501462,3.24974e-05,-0.628765,-1.13986,-0.074211,-4.16284,0.248996,-2.94384,-0.155468,0.209842,-32.8481,0.0128308,26.951,1.82068,2.08459,-0.0026396,
0.0747503,-0.0290789,0.209264,-1.997,0.188268,0.258444,0.010677,0.11678,-0.000517862,0.118057,-0.33995,0.31423,1.01181,0.00287143,0,0,0,0,0,0,0,12.1404,-1.09021,12.2603,-37.8672,5.42484,10.6894,0.0384248,0.0703114,-0.0286839,0.204762,-1.98185,0.175656,0.22183,0.0105944,0.0812417,0.0285123,0.160552,-0.237101,-0.00493401,0.501462,3.24974e-05,0,0,0,0,0,0,0,0.209842,-32.8481,0.0128308,26.951,1.82068,2.08459,-0.0026396,
0.075679,-0.029074,0.210202,-1.9999,0.190678,0.26648,0.0106978,0.116643,-0.000291127,0.117902,-0.344449,0.311639,1.01035,0.00281827,0,0,0,0,0,0,0,11.8376,-1.10133,11.9607,-37.3859,4.7475,10.6894,0.0309232,0.0703114,-0.0286839,0.204762,-1.98185,0.175656,0.22183,0.0105944,0.0812417,0.0285123,0.160552,-0.237101,-0.00493401,0.501462,3.24974e-05,0,0,0,0,0,0,0,0.209842,-32.8481,0.0128308,26.951,1.82068,2.08459,-0.0026396,
0.0766116,-0.0290552,0.211144,-2.00271,0.192834,0.274316,0.0107181,0.116629,0.000236662,0.117874,-0.345651,0.303212,1.00418,0.00276176,0,0,0,0,0,0,0,11.6198,-1.03713,11.7429,-36.8762,4.11909,10.6894,0.0261905,0.0703114,-0.0286839,0.204762,-1.98185,0.175656,0.22183,0.0105944,0.0812417,0.0285123,0.160552,-0.237101,-0.00493401,0.501462,3.24974e-05,0,0,0,0,0,0,0,0.209842,-32.8481,0.0128308,26.951,1.82068,2.08459,-0.0026396,
0.0775428,-0.0290332,0.212085,-2.00542,0.194729,0.281821,0.0107389,0.116582,0.00073892,0.117814,-0.344397,0.289925,0.990982,0.0027289,0,0,0,0,0,0,0,11.4576,-0.904122,11.5711,-36.3634,3.56268,10.6541,0.0238006,0.0728713,-0.0273259,0.210466,-1.9901,0.175664,0.239289,0.0105904,0.0746912,0.0341339,0.16667,-0.249564,-0.00273303,0.516114,-0.00071181,-0.818807,0.702703,0.764755,-1.5579,0.275122,1.83148,-0.0930384,0.868412,-32.0744,0.711073,25.5347,1.72912,2.13128,0.0239107,
0.0772931,-0.027655,0.214947,-2.00564,0.187836,0.275947,0.0106614,0.116009,0.000343492,0.117209,-0.351394,0.295349,0.991132,0.00267343,0,0,0,0,0,0,0,11.9908,-1.30065,12.0959,-38.8474,5.17027,10.6541,0.0340414,0.0728713,-0.0273259,0.210466,-1.9901,0.175664,0.239289,0.0105904,0.0746912,0.0341339,0.16667,-0.249564,-0.00273303,0.516114,-0.00071181,0,0,0,0,0,0,0,0.868412,-32.0744,0.711073,25.5347,1.72912,2.13128,0.0239107,
0.0782097,-0.0276462,0.215872,-2.00858,0.19016,0.283745,0.0106807,0.115723,0.000494325,0.116897,-0.354443,0.294383,0.987852,0.00262137,0,0,0,0,0,0,0,11.71,-1.28087,11.8173,-38.3183,4.5227,10.6541,0.0281431,0.0728713,-0.0273259,0.210466,-1.9901,0.175664,0.239289,0.0105904,0.0746912,0.0341339,0.16667,-0.249564,-0.00273303,0.516114,-0.00071181,0,0,0,0,0,0,0,0.868412,-32.0744,0.711073,25.5347,1.72912,2.13128,0.0239107,
0.0791277,-0.0276312,0.216798,-2.01141,0.192244,0.291257,0.0107002,0.115527,0.00077117,0.116678,-0.354474,0.287612,0.978075,0.00258367,0,0,0,0,0,0,0,11.4981,-1.18319,11.6032,-37.7611,3.93796,10.6541,0.0239591,0.0728713,-0.0273259,0.210466,-1.9901,0.175664,0.239289,0.0105904,0.0746912,0.0341339,0.16667,-0.249564,-0.00273303,0.516114,-0.00071181,0,0,0,0,0,0,0,0.868412,-32.0744,0.711073,25.5347,1.72912,2.13128,0.0239107,
0.0772861,-0.0276918,0.214938,-2.00575,0.187144,0.275789,0.0106566,0.114962,0.000347328,0.1161,-0.359282,0.289685,0.975255,0.00252769,0,0,0,0,0,0,0,11.8642,-1.36704,11.9624,-39.4294,4.85027,10.6189,0.0319067,0.0753505,-0.0260792,0.216261,-1.99909,0.175668,0.257421,0.010593,0.0734334,0.0290939,0.171062,-0.273522,-0.00514606,0.532895,-0.00106282,-0.15723,-0.629997,0.548968,-2.99473,-0.301629,2.0977,-0.0438768,0.285221,-31.3524,0.112013,23.8882,1.6687,1.6607,0.0101778,
0.0781915,-0.0276887,0.215852,-2.00867,0.189325,0.283254,0.0106754,0.114604,0.000355357,0.115729,-0.360579,0.286282,0.96682,0.00249297,0,0,0,0,0,0,0,11.5932,-1.30251,11.6912,-38.8512,4.24861,10.6189,0.0265655,0.0753505,-0.0260792,0.216261,-1.99909,0.175668,0.257421,0.010593,0.0734334,0.0290939,0.171062,-0.273522,-0.00514606,0.532895,-0.00106282,0,0,0,0,0,0,0,0.285221,-31.3524,0.112013,23.8882,1.6687,1.6607,0.0101778,
0.0790968,-0.0276828,0.216766,-2.01151,0.191277,0.290387,0.0106948,0.114315,0.000431329,0.115426,-0.359394,0.277822,0.951792,0.00248104,0,0,0,0,0,0,0,11.3835,-1.14556,11.4812,-38.2252,3.70691,10.6189,0.0230176,0.0753505,-0.0260792,0.216261,-1.99909,0.175668,0.257421,0.010593,0.0734334,0.0290939,0.171062,-0.273522,-0.00514606,0.532895,-0.00106282,0,0,0,0,0,0,0,0.285221,-31.3524,0.112013,23.8882,1.6687,1.6607,0.0101778,
0.0799991,-0.0276801,0.217677,-2.01427,0.192992,0.297152,0.0107153,0.11401,0.000413235,0.115105,-0.356528,0.265122,0.930544,0.00249617,0,0,0,0,0,0,0,11.2166,-0.953942,11.314,-37.5698,3.21731,10.6189,0.0212954,0.0753505,-0.0260792,0.216261,-1.99909,0.175668,0.257421,0.010593,0.0734334,0.0290939,0.171062,-0.273522,-0.00514606,0.532895,-0.00106282,0,0,0,0,0,0,0,0.285221,-31.3524,0.112013,23.8882,1.6687,1.6607,0.0101778,
0.0797661,-0.0263926,0.220733,-2.01501,0.187422,0.293756,0.0106559,0.113598,0.000268145,0.114686,-0.361834,0.273998,0.936157,0.00245906,0,0,0,0,0,0,0,11.7629,-1.39556,11.8547,-39.9151,4.91567,10.5845,0.0313463,0.0780212,-0.0247806,0.221786,-2.00861,0.175663,0.275342,0.0105921,0.07787,0.0328424,0.138019,-0.286444,-0.00373105,0.526454,-0.000874011,0.554578,0.468559,-4.13029,-1.61531,0.176876,-0.805154,0.0236016,-2.50378,-34.7722,-2.61351,27.3517,1.45446,2.62841,0.017502,
0.0806641,-0.0263848,0.221639,-2.01797,0.189707,0.301198,0.0106749,0.113326,0.000410717,0.114403,-0.3635,0.276311,0.934969,0.0024423,0,0,0,0,0,0,0,11.488,-1.30674,11.5805,-39.2751,4.33937,10.5845,0.0265295,0.0780212,-0.0247806,0.221786,-2.00861,0.175663,0.275342,0.0105921,0.07787,0.0328424,0.138019,-0.286444,-0.00373105,0.526454,-0.000874011,0,0,0,0,0,0,0,-2.50378,-34.7722,-2.61351,27.3517,1.45446,2.62841,0.017502,
0.0815609,-0.0263772,0.222544,-2.02084,0.19177,0.308334,0.0106946,0.113082,0.000518798,0.114145,-0.362573,0.27264,0.926371,0.00244626,0,0,0,0,0,0,0,11.271,-1.15272,11.3636,-38.5964,3.82054,10.5845,0.0232212,0.0780212,-0.0247806,0.221786,-2.00861,0.175663,0.275342,0.0105921,0.07787,0.0328424,0.138019,-0.286444,-0.00373105,0.526454,-0.000874011,0,0,0,0,0,0,0,-2.50378,-34.7722,-2.61351,27.3517,1.45446,2.62841,0.017502,
0.082454,-0.0263752,0.223445,-2.02364,0.193604,0.315127,0.0107153,0.112794,0.000463539,0.113841,-0.359864,0.263954,0.910924,0.0024741,0,0,0,0,0,0,0,11.0966,-0.986276,11.1886,-37.8992,3.34945,10.5845,0.0215617,0.0780212,-0.0247806,0.221786,-2.00861,0.175663,0.275342,0.0105921,0.07787,0.0328424,0.138019,-0.286444,-0.00373105,0.526454,-0.000874011,0,0,0,0,0,0,0,-2.50378,-34.7722,-2.61351,27.3517,1.45446,2.62841,0.017502,
0.0821941,-0.0249022,0.226003,-2.02454,0.18625,0.31074,0.0106666,0.111844,0.000915606,0.112855,-0.36365,0.266172,0.910009,0.00248892,0,0,0,0,0,0,0,11.6805,-1.30761,11.7584,-39.8858,4.5379,10.5845,0.0311126,0.0780212,-0.0247806,0.221786,-2.00861,0.175663,0.275342,0.0105921,0.07787,0.0328424,0.138019,-0.286444,-0.00373105,0.526454,-0.000874011,0,0,0,0,0,0,0,-2.50378,-34.7722,-2.61351,27.3517,1.45446,2.62841,0.017502,
0.0830655,-0.024878,0.226881,-2.02747,0.188262,0.317702,0.0106879,0.111261,0.00133874,0.112237,-0.364161,0.263236,0.902049,0.00252338,0,0,0,0,0,0,0,11.4168,-1.20846,11.4903,-39.2173,3.99686,10.5497,0.0268879,0.0807446,-0.0236638,0.226845,-2.01788,0.175669,0.292849,0.010592,0.0849551,0.031123,0.149091,-0.259611,-0.005754,0.505953,-0.00013516,0.885629,-0.214924,1.38399,3.35409,-0.252869,-2.56264,0.0923564,0.00751081,-31.8523,-0.185533,23.2416,1.44256,1.91247,-0.00996382,
0.0839399,-0.0248581,0.227762,-2.03031,0.19006,0.324327,0.01071,0.110869,0.00156768,0.111813,-0.362385,0.255537,0.887273,0.00257268,0,0,0,0,0,0,0,11.2104,-1.04463,11.2847,-38.5078,3.49762,10.5497,0.0239118,0.0807446,-0.0236638,0.226845,-2.01788,0.175669,0.292849,0.010592,0.0849551,0.031123,0.149091,-0.259611,-0.005754,0.505953,-0.00013516,0,0,0,0,0,0,0,0.00751081,-31.8523,-0.185533,23.2416,1.44256,1.91247,-0.00996382,
0.0848141,-0.0248454,0.228642,-2.03307,0.191637,0.330598,0.0107332,0.110549,0.00157085,0.111462,-0.359044,0.243861,0.866579,0.00263732,0,0,0,0,0,0,0,11.0452,-0.869213,11.1194,-37.7814,3.04458,9.71375,0.0224608,0.0807446,-0.0236638,0.226845,-2.01788,0.175669,0.292849,0.010592,0.0849551,0.031123,0.149091,-0.259611,-0.005754,0.505953,-0.00013516,0,0,0,0,0,0,0,0.00751081,-31.8523,-0.185533,23.2416,1.44256,1.91247,-0.00996382,
0.0850469,-0.0241028,0.231197,-2.03356,0.186484,0.327706,0.0106624,0.110209,0.00036599,0.111138,-0.362014,0.251405,0.868877,0.00263249,0,0,0,0,0,0,0,11.5634,-1.83207,11.6524,-39.8712,4.41443,10.5497,0.0324669,0.0807446,-0.0236638,0.226845,-2.01788,0.175669,0.292849,0.010592,0.0849551,0.031123,0.149091,-0.259611,-0.005754,0.505953,-0.00013516,0,0,0,0,0,0,0,0.00751081,-31.8523,-0.185533,23.2416,1.44256,1.91247,-0.00996382,
0.0859193,-0.0241325,0.232077,-2.03646,0.188557,0.334438,0.0106843,0.109977,-0.000450164,0.110915,-0.362025,0.252946,0.863401,0.00265446,0,0,0,0,0,0,0,11.2892,-1.67554,11.3764,-39.1308,3.93326,10.5214,0.0280692,0.0832265,-0.0228639,0.231581,-2.02705,0.175688,0.308771,0.0105952,0.0658634,0.0451823,0.137067,-0.268307,-0.00306431,0.462833,0.00012773,-2.38646,1.75741,-1.50306,-1.087,0.336212,-5.38996,0.0328612,0.0551182,-30.8525,-0.110155,24.4357,1.30798,2.13128,-0.00996382,
0.0867906,-0.0241631,0.232956,-2.03927,0.190426,0.340844,0.0107072,0.109763,-0.0011238,0.110703,-0.359959,0.249087,0.850862,0.00269574,0,0,0,0,0,0,0,11.069,-1.47575,11.157,-38.3716,3.48043,10.024,0.0249539,0.0832265,-0.0228639,0.231581,-2.02705,0.175688,0.308771,0.0105952,0.0658634,0.0451823,0.137067,-0.268307,-0.00306431,0.462833,0.00012773,0,0,0,0,0,0,0,0.0551182,-30.8525,-0.110155,24.4357,1.30798,2.13128,-0.00996382,
0.0872533,-0.0228111,0.235642,-2.0425,0.185229,0.341025,0.0106827,0.108728,-8.36342e-05,0.109602,-0.361173,0.248016,0.839566,0.00276956,0,0,0,0,0,0,0,11.4364,-1.08068,11.4906,-39.1358,4.04434,10.5214,0.0321664,0.0832265,-0.0228639,0.231581,-2.02705,0.175688,0.308771,0.0105952,0.0658634,0.0451823,0.137067,-0.268307,-0.00306431,0.462833,0.00012773,0,0,0,0,0,0,0,0.0551182,-30.8525,-0.110155,24.4357,1.30798,2.13128,-0.00996382,
0.0880975,-0.0227819,0.236491,-2.04534,0.187004,0.347086,0.0107084,0.108089,0.000663467,0.108904,-0.35983,0.242788,0.82319,0.00285828,0,0,0,0,0,0,0,11.1882,-0.965514,11.2439,-38.379,3.566,9.78483,0.0283914,0.0832265,-0.0228639,0.231581,-2.02705,0.175688,0.308771,0.0105952,0.0658634,0.0451823,0.137067,-0.268307,-0.00306431,0.462833,0.00012773,0,0,0,0,0,0,0,0.0551182,-30.8525,-0.110155,24.4357,1.30798,2.13128,-0.00996382,
0.0889453,-0.0227599,0.237343,-2.04809,0.188584,0.352834,0.0107352,0.107665,0.00108265,0.108427,-0.356704,0.233738,0.802241,0.00295623,0,0,0,0,0,0,0,11.0052,-0.855575,11.058,-37.5785,3.13312,8.98796,0.0267608,0.0849379,-0.0220738,0.236869,-2.03676,0.17567,0.323442,0.0105952,0.0502341,0.0325641,0.162945,-0.291042,-0.00415953,0.424318,-4.34409e-05,-1.95367,-1.57727,3.23475,-2.84188,-0.136902,-4.81443,-0.0213963,0.614505,-33.6733,0.488905,27.6254,1.46087,2.59545,-0.00996382,
0.0897931,-0.022746,0.238196,-2.05077,0.189965,0.358265,0.0107632,0.107328,0.00121318,0.108044,-0.352353,0.221514,0.777566,0.00306516,0,0,0,0,0,0,0,10.8453,-0.725096,10.898,-36.7875,2.71031,8.30363,0.0267978,0.0849379,-0.0220738,0.236869,-2.03676,0.17567,0.323442,0.0105952,0.0502341,0.0325641,0.162945,-0.291042,-0.00415953,0.424318,-4.34409e-05,0,0,0,0,0,0,0,0.614505,-33.6733,0.488905,27.6254,1.46087,2.59545,-0.00996382,
0.0890258,-0.0221377,0.241006,-2.05181,0.184074,0.351992,0.0106931,0.106663,0.0010464,0.10741,-0.352856,0.220475,0.763749,0.00313373,0,0,0,0,0,0,0,11.1123,-1.58456,11.1926,-37.8393,3.53541,9.39283,0.0319774,0.0849379,-0.0220738,0.236869,-2.03676,0.17567,0.323442,0.0105952,0.0502341,0.0325641,0.162945,-0.291042,-0.00415953,0.424318,-4.34409e-05,0,0,0,0,0,0,0,0.614505,-33.6733,0.488905,27.6254,1.46087,2.59545,-0.00996382,
0.0898599,-0.0221394,0.241847,-2.05456,0.185656,0.357438,0.0107218,0.106182,0.000794549,0.106948,-0.35098,0.215923,0.747142,0.00322536,0,0,0,0,0,0,0,10.8898,-1.4334,10.9711,-37.0365,3.12059,8.6847,0.030307,0.0849379,-0.0220738,0.236869,-2.03676,0.17567,0.323442,0.0105952,0.0502341,0.0325641,0.162945,-0.291042,-0.00415953,0.424318,-4.34409e-05,0,0,0,0,0,0,0,0.614505,-33.6733,0.488905,27.6254,1.46087,2.59545,-0.00996382,
0.0906931,-0.0221488,0.242687,-2.05723,0.187069,0.362643,0.0107519,0.105776,0.000401913,0.106551,-0.347431,0.208079,0.72784,0.00333347,0,0,0,0,0,0,0,10.7079,-1.33613,10.7836,-36.2047,2.75044,8.05058,0.0299473,0.0865104,-0.021072,0.242492,-2.04618,0.175673,0.337268,0.0105929,0.0474855,0.0209344,0.162446,-0.275944,-0.00191209,0.378606,-0.000749647,-0.343569,-1.45371,-0.0623693,1.88735,0.28093,-5.71396,-0.0882758,0.590702,-32.5981,0.389723,26.2805,1.39953,2.31713,0.0101778,
0.091523,-0.0221664,0.243523,-2.05982,0.188308,0.367603,0.0107836,0.105368,-0.000120026,0.106147,-0.34272,0.197435,0.706282,0.00345918,0,0,0,0,0,0,0,10.5425,-1.21707,10.6174,-35.3902,2.39308,7.50792,0.0305659,0.0865104,-0.021072,0.242492,-2.04618,0.175673,0.337268,0.0105929,0.0474855,0.0209344,0.162446,-0.275944,-0.00191209,0.378606,-0.000749647,0,0,0,0,0,0,0,0.590702,-32.5981,0.389723,26.2805,1.39953,2.31713,0.0101778,
0.09056,-0.0213636,0.246578,-2.0609,0.184937,0.366095,0.0107091,0.104931,-0.000584264,0.105668,-0.343365,0.205988,0.711157,0.00356993,0,0,0,0,0,0,0,11.0498,-1.92245,11.0954,-36.9059,3.81157,9.65522,0.0369796,0.0865104,-0.021072,0.242492,-2.04618,0.175673,0.337268,0.0105929,0.0474855,0.0209344,0.162446,-0.275944,-0.00191209,0.378606,-0.000749647,0,0,0,0,0,0,0,0.590702,-32.5981,0.389723,26.2805,1.39953,2.31713,0.0101778,
0.0913874,-0.0213825,0.24741,-2.06357,0.1867,0.371745,0.0107432,0.104632,-0.000938827,0.10533,-0.341504,0.208852,0.710158,0.00371021,0,0,0,0,0,0,0,10.8007,-1.74081,10.8479,-36.0818,3.40044,8.97518,0.0351594,0.0865104,-0.021072,0.242492,-2.04618,0.175673,0.337268,0.0105929,0.0474855,0.0209344,0.162446,-0.275944,-0.00191209,0.378606,-0.000749647,0,0,0,0,0,0,0,0.590702,-32.5981,0.389723,26.2805,1.39953,2.31713,0.0101778,
0.0922139,-0.021405,0.24824,-2.06616,0.18828,0.37717,0.0107795,0.104368,-0.00131488,0.105031,-0.337874,0.206582,0.703764,0.00387376,0,0,0,0,0,0,0,10.597,-1.61567,10.6397,-35.217,3.02381,8.37189,0.0348551,0.0880026,-0.0201252,0.24814,-2.05556,0.175665,0.349359,0.010593,0.043159,0.0154729,0.156731,-0.275972,-0.00099568,0.334864,-0.00123569,-0.540808,-0.682694,-0.714425,-0.00351913,0.114551,-5.46772,-0.060756,0.182071,-32.376,0.0882092,25.6815,1.38122,2.50939,0.0101778,
0.0915995,-0.0214068,0.247615,-2.06481,0.191787,0.377752,0.0108171,0.105381,-0.00148202,0.106073,-0.342028,0.232934,0.737344,0.00404,0,0,0,0,0,0,0,10.8667,-1.78253,10.9303,-35.6436,3.56401,9.35335,0.04416,0.0880026,-0.0201252,0.24814,-2.05556,0.175665,0.349359,0.010593,0.043159,0.0154729,0.156731,-0.275972,-0.00099568,0.334864,-0.00123569,0,0,0,0,0,0,0,0.182071,-32.376,0.0882092,25.6815,1.38122,2.50939,0.0101778,
0.0927798,-0.0203812,0.252965,-2.07242,0.185565,0.381964,0.0107942,0.104702,-0.00139731,0.105398,-0.337934,0.22435,0.723946,0.00432095,0,0,0,0,0,0,0,10.6239,-1.63318,10.6891,-34.8146,3.1268,8.67199,0.0432424,0.0880026,-0.0201252,0.24814,-2.05556,0.175665,0.349359,0.010593,0.043159,0.0154729,0.156731,-0.275972,-0.00099568,0.334864,-0.00123569,0,0,0,0,0,0,0,0.182071,-32.376,0.0882092,25.6815,1.38122,2.50939,0.0101778,
0.0935954,-0.0203943,0.253786,-2.0749,0.186904,0.3871,0.0108406,0.104152,-0.00144575,0.104847,-0.332464,0.212955,0.707555,0.00461743,0,0,0,0,0,0,0,10.4239,-1.47422,10.4896,-33.9719,2.71267,8.0739,0.0438674,0.0880026,-0.0201252,0.24814,-2.05556,0.175665,0.349359,0.010593,0.043159,0.0154729,0.156731,-0.275972,-0.00099568,0.334864,-0.00123569,0,0,0,0,0,0,0,0.182071,-32.376,0.0882092,25.6815,1.38122,2.50939,0.0101778,
0.0944078,-0.0204136,0.254604,-2.07731,0.188073,0.391991,0.0108895,0.103633,-0.00164046,0.104323,-0.326085,0.19957,0.688322,0.00491506,0,0,0,0,0,0,0,10.2562,-1.38754,10.3173,-33.0824,2.34269,7.53938,0.0453466,0.0896968,-0.0193222,0.253637,-2.06542,0.175646,0.360131,0.0105956,0.057128,0.0224352,0.153511,-0.271627,0.002177,0.305688,0.000779139,1.74612,0.870298,-0.40241,0.543072,0.396586,-3.64704,0.251854,-0.908932,-33.2964,-0.986925,25.8322,1.37573,2.70806,-0.0227812,
0.092915,-0.0204475,0.253084,-2.07338,0.189508,0.387722,0.010839,0.104006,-0.0018388,0.104686,-0.328639,0.216491,0.713601,0.00505261,0,0,0,0,0,0,0,10.4863,-1.8476,10.5348,-33.6967,2.99545,8.69556,0.0516084,0.0896968,-0.0193222,0.253637,-2.06542,0.175646,0.360131,0.0105956,0.057128,0.0224352,0.153511,-0.271627,0.002177,0.305688,0.000779139,0,0,0,0,0,0,0,-0.908932,-33.2964,-0.986925,25.8322,1.37573,2.70806,-0.0227812,
0.0945367,-0.0194332,0.258516,-2.08148,0.184203,0.390099,0.0108442,0.103431,-0.00160694,0.104082,-0.323791,0.206639,0.694663,0.00534277,0,0,0,0,0,0,0,10.2975,-1.70169,10.3466,-32.8591,2.61267,8.08747,0.0521389,0.0896968,-0.0193222,0.253637,-2.06542,0.175646,0.360131,0.0105956,0.057128,0.0224352,0.153511,-0.271627,0.002177,0.305688,0.000779139,0,0,0,0,0,0,0,-0.908932,-33.2964,-0.986925,25.8322,1.37573,2.70806,-0.0227812,
0.0953422,-0.0194463,0.259325,-2.08382,0.185413,0.394848,0.0108997,0.102885,-0.00161294,0.103508,-0.317707,0.195543,0.674468,0.00566272,0,0,0,0,0,0,0,10.1506,-1.55614,10.1996,-32.0145,2.26011,7.54808,0.0546325,0.0896968,-0.0193222,0.253637,-2.06542,0.175646,0.360131,0.0105956,0.057128,0.0224352,0.153511,-0.271627,0.002177,0.305688,0.000779139,0,0,0,0,0,0,0,-0.908932,-33.2964,-0.986925,25.8322,1.37573,2.70806,-0.0227812,
0.0961417,-0.0194674,0.260129,-2.08609,0.186499,0.399378,0.0109611,0.102295,-0.00181908,0.102893,-0.3108,0.183584,0.652812,0.00606561,0,0,0,0,0,0,0,10.0254,-1.42501,10.0736,-31.1701,1.97356,7.05104,0.0576482,0.0896968,-0.0193222,0.253637,-2.06542,0.175646,0.360131,0.0105956,0.057128,0.0224352,0.153511,-0.271627,0.002177,0.305688,0.000779139,0,0,0,0,0,0,0,-0.908932,-33.2964,-0.986925,25.8322,1.37573,2.70806,-0.0227812,
0.0958781,-0.0185255,0.262657,-2.08741,0.182758,0.394425,0.0108119,0.101433,-0.00156899,0.102014,-0.308262,0.185763,0.646654,0.0056225,0,0,0,0,0,0,0,10.2465,-2.06691,10.2893,-31.6836,2.85398,8.52387,0.0588936,0.0919561,-0.0184156,0.258706,-2.07449,0.17565,0.370221,0.010593,0.0671472,0.0202978,0.135485,-0.262107,0.00150905,0.285736,-0.000524927,1.25239,-0.267183,-2.25332,1.18997,-0.0834944,-2.49402,-0.163008,-0.932736,-31.9753,-1.0385,24.0866,1.20453,2.52221,0.0101778,
0.0966728,-0.0185345,0.263456,-2.08969,0.184047,0.399287,0.0108964,0.101013,-0.00148011,0.101577,-0.303746,0.180827,0.638873,0.00661173,0,0,0,0,0,0,0,10.1368,-1.90039,10.1802,-30.847,2.52776,7.95206,0.0626786,0.0919561,-0.0184156,0.258706,-2.07449,0.17565,0.370221,0.010593,0.0671472,0.0202978,0.135485,-0.262107,0.00150905,0.285736,-0.000524927,0,0,0,0,0,0,0,-0.932736,-31.9753,-1.0385,24.0866,1.20453,2.52221,0.0101778,
0.0974547,-0.018552,0.264242,-2.09189,0.185265,0.403945,0.0109562,0.10036,-0.00162061,0.100904,-0.297876,0.175114,0.627554,0.00678231,0,0,0,0,0,0,0,10.0125,-1.73318,10.0556,-29.9989,2.25569,7.43357,0.0661915,0.0919561,-0.0184156,0.258706,-2.07449,0.17565,0.370221,0.010593,0.0671472,0.0202978,0.135485,-0.262107,0.00150905,0.285736,-0.000524927,0,0,0,0,0,0,0,-0.932736,-31.9753,-1.0385,24.0866,1.20453,2.52221,0.0101778,
0.0982302,-0.0185783,0.265021,-2.094,0.186253,0.408422,0.0110092,0.0996736,-0.00195635,0.100199,-0.291134,0.164799,0.613973,0.00675086,0,0,0,0,0,0,0,9.86177,-1.58052,9.9044,-29.1416,2.00025,6.95847,0.076167,0.0919561,-0.0184156,0.258706,-2.07449,0.17565,0.370221,0.010593,0.0671472,0.0202978,0.135485,-0.262107,0.00150905,0.285736,-0.000524927,0,0,0,0,0,0,0,-0.932736,-31.9753,-1.0385,24.0866,1.20453,2.52221,0.0101778,
0.0985095,-0.0171562,0.267541,-2.09635,0.183265,0.403246,0.0108431,0.0995384,-0.000339026,0.100057,-0.291102,0.168804,0.623489,0.00667573,0,0,0,0,0,0,0,10.0671,-2.45251,10.1005,-30.1155,3.53547,9.33999,0.0386054,0.0945311,-0.0174545,0.263533,-2.08345,0.175625,0.378604,0.0105931,0.0712227,0.0400533,0.139343,-0.265077,-0.00150085,0.204699,-0.000105703,0.509441,2.46945,0.482323,-0.371239,-0.376238,-10.1296,0.0524031,1.07074,-31.2532,0.913405,23.6383,1.36291,2.07818,-0.0227812,
0.0993022,-0.0171231,0.268337,-2.09856,0.184533,0.408424,0.0109211,0.0994478,0.000555332,0.0999547,-0.288155,0.166747,0.628254,0.00729185,0,0,0,0,0,0,0,10.209,-2.25541,10.2517,-29.308,2.51995,8.89318,0.103556,0.0945311,-0.0174545,0.263533,-2.08345,0.175625,0.378604,0.0105931,0.0712227,0.0400533,0.139343,-0.265077,-0.00150085,0.204699,-0.000105703,0,0,0,0,0,0,0,1.07074,-31.2532,0.913405,23.6383,1.36291,2.07818,-0.0227812,
0.100085,-0.0171076,0.269123,-2.10067,0.1857,0.413414,0.0109898,0.0991204,0.000832753,0.0996108,-0.283252,0.16258,0.627337,0.00754984,0,0,0,0,0,0,0,9.65596,-1.95566,9.69393,-28.428,2.60441,8.15552,0.0738243,0.0945311,-0.0174545,0.263533,-2.08345,0.175625,0.378604,0.0105931,0.0712227,0.0400533,0.139343,-0.265077,-0.00150085,0.204699,-0.000105703,0,0,0,0,0,0,0,1.07074,-31.2532,0.913405,23.6383,1.36291,2.07818,-0.0227812,
0.100859,-0.0171085,0.269901,-2.1027,0.186716,0.418218,0.0110539,0.0986526,0.000643533,0.0991249,-0.277152,0.155468,0.621967,0.00764298,0,0,0,0,0,0,0,9.40981,-1.79503,9.45157,-27.5951,1.91808,7.7336,0.0626233,0.0945311,-0.0174545,0.263533,-2.08345,0.175625,0.378604,0.0105931,0.0712227,0.0400533,0.139343,-0.265077,-0.00150085,0.204699,-0.000105703,0,0,0,0,0,0,0,1.07074,-31.2532,0.913405,23.6383,1.36291,2.07818,-0.0227812,
0.101782,-0.0158062,0.273385,-2.10635,0.182796,0.413981,0.0109821,0.0985155,0.00154349,0.0989808,-0.272821,0.151858,0.623441,0.00787978,0,0,0,0,0,0,0,9.81292,-2.88361,9.85172,-27.7116,2.31028,9.42898,0.0945309,0.0969373,-0.0163439,0.268506,-2.09222,0.175647,0.384855,0.010595,0.0668828,0.058345,0.154832,-0.244333,0.00448041,0.194797,0.000578886,-0.542487,2.28646,1.93605,2.59304,0.747657,-1.23778,0.0855736,0.638309,-31.8245,0.488905,24.7372,1.14959,2.09832,-0.0365141,
0.102555,-0.0157854,0.274161,-2.1083,0.18373,0.418853,0.0110419,0.0981173,0.00175566,0.0985715,-0.26684,0.144847,0.620553,0.00779942,0,0,0,0,0,0,0,9.57829,-2.45753,9.61602,-26.861,2.23848,8.67952,0.0835438,0.0969373,-0.0163439,0.268506,-2.09222,0.175647,0.384855,0.010595,0.0668828,0.058345,0.154832,-0.244333,0.00448041,0.194797,0.000578886,0,0,0,0,0,0,0,0.638309,-31.8245,0.488905,24.7372,1.14959,2.09832,-0.0365141,
0.103314,-0.0157836,0.274923,-2.11015,0.184558,0.423505,0.0110922,0.0974767,0.00144748,0.0979163,-0.25983,0.136571,0.612741,0.00749694,0,0,0,0,0,0,0,9.43898,-2.14111,9.4787,-26.0491,1.84178,8.15968,0.0782432,0.0969373,-0.0163439,0.268506,-2.09222,0.175647,0.384855,0.010595,0.0668828,0.058345,0.154832,-0.244333,0.00448041,0.194797,0.000578886,0,0,0,0,0,0,0,0.638309,-31.8245,0.488905,24.7372,1.14959,2.09832,-0.0365141,
0.104072,-0.0157962,0.275684,-2.11193,0.185163,0.427955,0.0111811,0.0969236,0.000843753,0.0973488,-0.252263,0.12437,0.601464,0.00821903,0,0,0,0,0,0,0,9.38203,-1.87612,9.41999,-25.2911,1.79158,7.51594,0.0615728,0.0969373,-0.0163439,0.268506,-2.09222,0.175647,0.384855,0.010595,0.0668828,0.058345,0.154832,-0.244333,0.00448041,0.194797,0.000578886,0,0,0,0,0,0,0,0.638309,-31.8245,0.488905,24.7372,1.14959,2.09832,-0.0365141,
0.100965,-0.0157588,0.272566,-2.10376,0.18132,0.408848,0.0109157,0.0971821,0.00245189,0.0976219,-0.252702,0.125737,0.610594,0.00877872,0,0,0,0,0,0,0,9.70057,-3.08024,9.73176,-25.7694,2.21189,9.5735,0.101875,0.0992177,-0.0150422,0.27387,-2.10016,0.17561,0.391504,0.0105934,0.0613618,0.0496017,0.160225,-0.240407,-0.000807186,0.209354,-1.66362e-05,-0.690119,-1.09292,0.67416,0.490756,-0.660949,1.81954,-0.0744403,1.78089,-32.7489,1.51246,28.1253,1.27136,2.70806,-0.0227812,
0.101733,-0.0157116,0.273338,-2.10567,0.182324,0.41388,0.0109852,0.0969544,0.00314086,0.0973979,-0.250094,0.125685,0.614281,0.00875849,0,0,0,0,0,0,0,9.34468,-2.62972,9.37453,-24.9636,2.20764,8.80264,0.0854799,0.0992177,-0.0150422,0.27387,-2.10016,0.17561,0.391504,0.0105934,0.0613618,0.0496017,0.160225,-0.240407,-0.000807186,0.209354,-1.66362e-05,0,0,0,0,0,0,0,1.78089,-32.7489,1.51246,28.1253,1.27136,2.70806,-0.0227812,
0.102489,-0.0156871,0.274097,-2.10749,0.183166,0.418742,0.0110449,0.0964616,0.00312489,0.0969018,-0.245477,0.121599,0.612978,0.00849945,0,0,0,0,0,0,0,9.10626,-2.30876,9.13873,-24.1969,1.71962,8.26919,0.0708992,0.0992177,-0.0150422,0.27387,-2.10016,0.17561,0.391504,0.0105934,0.0613618,0.0496017,0.160225,-0.240407,-0.000807186,0.209354,-1.66362e-05,0,0,0,0,0,0,0,1.78089,-32.7489,1.51246,28.1253,1.27136,2.70806,-0.0227812,
0.103251,-0.0146095,0.277933,-2.1114,0.181732,0.417744,0.010917,0.0968353,0.00388839,0.0972716,-0.245291,0.126815,0.632295,0.00893567,0,0,0,0,0,0,0,9.69029,-3.708,9.72096,-24.6344,2.34941,10.5132,0.10913,0.0992177,-0.0150422,0.27387,-2.10016,0.17561,0.391504,0.0105934,0.0613618,0.0496017,0.160225,-0.240407,-0.000807186,0.209354,-1.66362e-05,0,0,0,0,0,0,0,1.78089,-32.7489,1.51246,28.1253,1.27136,2.70806,-0.0227812,
0.104021,-0.014575,0.278706,-2.11324,0.182867,0.423264,0.0109855,0.0967106,0.0039743,0.0971362,-0.242064,0.129829,0.643839,0.00886285,0,0,0,0,0,0,0,9.31695,-3.18894,9.34053,-23.8152,2.41639,9.71024,0.0858588,0.101181,-0.0142582,0.278655,-2.10762,0.175576,0.398156,0.0105959,0.0510737,0.0153793,0.134145,-0.199016,0.0040453,0.193841,-0.00042083,-1.28602,-4.2778,-3.26003,5.17389,0.606561,-1.93909,-0.0505242,-1.46435,-36.367,-1.66136,31.6364,1.22833,3.66936,-0.0163725,
0.104778,-0.0145612,0.279465,-2.11497,0.183845,0.428596,0.0110437,0.0962921,0.00352362,0.096704,-0.236899,0.128319,0.648355,0.00854422,0,0,0,0,0,0,0,9.11388,-2.7349,9.14102,-23.077,1.89417,9.05586,0.072361,0.101181,-0.0142582,0.278655,-2.10762,0.175576,0.398156,0.0105959,0.0510737,0.0153793,0.134145,-0.199016,0.0040453,0.193841,-0.00042083,0,0,0,0,0,0,0,-1.46435,-36.367,-1.66136,31.6364,1.22833,3.66936,-0.0163725,
0.105521,-0.0145669,0.280211,-2.11661,0.184723,0.433679,0.0110929,0.0956214,0.00267615,0.0960168,-0.230553,0.124587,0.645763,0.0080646,0,0,0,0,0,0,0,9.09394,-2.32977,9.11987,-22.3838,1.83258,8.31074,0.0571803,0.101181,-0.0142582,0.278655,-2.10762,0.175576,0.398156,0.0105959,0.0510737,0.0153793,0.134145,-0.199016,0.0040453,0.193841,-0.00042083,0,0,0,0,0,0,0,-1.46435,-36.367,-1.66136,31.6364,1.22833,3.66936,-0.0163725,
0.104918,-0.0144147,0.282417,-2.11796,0.181026,0.425724,0.0109276,0.0954005,0.00220881,0.0957986,-0.229798,0.124644,0.666419,0.00863124,0,0,0,0,0,0,0,9.56414,-3.70334,9.59116,-23.3202,2.15313,10.5121,0.106316,0.101181,-0.0142582,0.278655,-2.10762,0.175576,0.398156,0.0105959,0.0510737,0.0153793,0.134145,-0.199016,0.0040453,0.193841,-0.00042083,0,0,0,0,0,0,0,-1.46435,-36.367,-1.66136,31.6364,1.22833,3.66936,-0.0163725,
0.105663,-0.0144184,0.283165,-2.11966,0.181975,0.431512,0.0109963,0.0949463,0.00167624,0.0953426,-0.226305,0.12346,0.677847,0.00862025,0,0,0,0,0,0,0,9.21475,-3.11737,9.2329,-22.538,2.18975,10.1717,0.0855624,0.103396,-0.0132005,0.283222,-2.11383,0.175406,0.404052,0.0105997,0.0623245,0.0090417,0.115832,-0.158011,-0.00415086,0.157425,0.000957927,1.40634,-0.7922,-2.28913,5.12559,-1.02452,-4.55202,0.172345,-0.805783,-33.5741,-0.911547,28.3237,1.36291,3.5833,-0.050247,
0.1064,-0.0144327,0.283904,-2.12126,0.182762,0.437053,0.0110532,0.0943729,0.000982282,0.0947642,-0.221076,0.118446,0.680786,0.00832095,0,0,0,0,0,0,0,9.01181,-2.6372,9.0331,-21.8413,1.69776,9.43755,0.0707392,0.103396,-0.0132005,0.283222,-2.11383,0.175406,0.404052,0.0105997,0.0623245,0.0090417,0.115832,-0.158011,-0.00415086,0.157425,0.000957927,0,0,0,0,0,0,0,-0.805783,-33.5741,-0.911547,28.3237,1.36291,3.5833,-0.050247,
0.107127,-0.0144594,0.284634,-2.12278,0.183439,0.442293,0.0111031,0.0936752,0.000119257,0.0940585,-0.214852,0.111676,0.675637,0.00790305,0,0,0,0,0,0,0,9.01018,-2.21457,9.03065,-21.1941,1.61179,8.60444,0.056971,0.103396,-0.0132005,0.283222,-2.11383,0.175406,0.404052,0.0105997,0.0623245,0.0090417,0.115832,-0.158011,-0.00415086,0.157425,0.000957927,0,0,0,0,0,0,0,-0.805783,-33.5741,-0.911547,28.3237,1.36291,3.5833,-0.050247,
0.107087,-0.0134563,0.28693,-2.12345,0.180247,0.431947,0.0109353,0.0936971,0.000169671,0.0940645,-0.214377,0.11077,0.692414,0.00845028,0,0,0,0,0,0,0,9.51374,-2.99778,9.53277,-21.9766,1.91275,10.5151,0.109955,0.103396,-0.0132005,0.283222,-2.11383,0.175406,0.404052,0.0105997,0.0623245,0.0090417,0.115832,-0.158011,-0.00415086,0.157425,0.000957927,0,0,0,0,0,0,0,-0.805783,-33.5741,-0.911547,28.3237,1.36291,3.5833,-0.050247,
0.107826,-0.0134573,0.287671,-2.12504,0.181058,0.437793,0.0110024,0.0934321,0.000110202,0.0937822,-0.211278,0.108899,0.700088,0.00843655,0,0,0,0,0,0,0,9.16426,-2.53574,9.17522,-21.276,1.968,10.3757,0.0868891,0.105405,-0.0123803,0.286428,-2.11844,0.175407,0.408438,0.0105908,0.0659153,-0.000265264,0.0978171,-0.135872,0.00265206,0.135928,-0.000151148,0.448854,-1.16337,-2.25182,2.76743,0.850365,-2.68703,-0.138634,0.638309,-32.5981,0.588087,25.8798,1.27777,3.00652,-0.00996382,
0.108556,-0.0134684,0.288403,-2.12654,0.181717,0.443367,0.0110577,0.0929965,-0.000188102,0.0933296,-0.206531,0.103572,0.699414,0.00813238,0,0,0,0,0,0,0,8.96132,-2.16485,8.97497,-20.6425,1.48216,9.53287,0.0695919,0.105405,-0.0123803,0.286428,-2.11844,0.175407,0.408438,0.0105908,0.0659153,-0.000265264,0.0978171,-0.135872,0.00265206,0.135928,-0.000151148,0,0,0,0,0,0,0,0.638309,-32.5981,0.588087,25.8798,1.27777,3.00652,-0.00996382,
