xiao-wang007/linearmpc_panda/paper_data/panda_inverse_dynamics_controller_error_match_to_start_no_acceleration_ff/2/trajectory.csv
Commanded Joint 0 Position,Commanded Joint 1 Position,Commanded Joint 2 Position,Commanded Joint 3 Position,Commanded Joint 4 Position,Commanded Joint 5 Position,Commanded Joint 6 Position,Commanded Joint 0 Velocity,Commanded Joint 1 Velocity,Commanded Joint 2 Velocity,Commanded Joint 3 Velocity,Commanded Joint 4 Velocity,Commanded Joint 5 Velocity,Commanded Joint 6 Velocity,Commanded Joint 0 Acceleration,Commanded Joint 1 Acceleration,Commanded Joint 2 Acceleration,Commanded Joint 3 Acceleration,Commanded Joint 4 Acceleration,Commanded Joint 5 Acceleration,Commanded Joint 6 Acceleration,Commanded Joint 0 Torque,Commanded Joint 1 Torque,Commanded Joint 2 Torque,Commanded Joint 3 Torque,Commanded Joint 4 Torque,Commanded Joint 5 Torque,Commanded Joint 6 Torque,Actual Joint 0 Position,Actual Joint 1 Position,Actual Joint 2 Position,Actual Joint 3 Position,Actual Joint 4 Position,Actual Joint 5 Position,Actual Joint 6 Position,Actual Joint 0 Velocity,Actual Joint 1 Velocity,Actual Joint 2 Velocity,Actual Joint 3 Velocity,Actual Joint 4 Velocity,Actual Joint 5 Velocity,Actual Joint 6 Velocity,Actual Joint 0 Acceleration,Actual Joint 1 Acceleration,Actual Joint 2 Acceleration,Actual Joint 3 Acceleration,Actual Joint 4 Acceleration,Actual Joint 5 Acceleration,Actual Joint 6 Acceleration,Actual Joint 0 Torque,Actual Joint 1 Torque,Actual Joint 2 Torque,Actual Joint 3 Torque,Actual Joint 4 Torque,Actual Joint 5 Torque,Actual Joint 6 Torque,
0.00843835,-0.067355,-0.0330485,-1.84657,0.00640574,0.224998,-0.0414494,0.000512058,0.0201589,0.000465701,-0.0339178,-0.00441125,0.0540954,-0.000397028,0,0,0,0,0,0,0,0.0562488,22.2581,0.0563058,-24.286,-0.622954,2.03678,-0.0249706,0.00838443,-0.0684281,-0.0330784,-1.8434,0.00671237,0.219184,-0.0413986,-0.00370776,-0.000272407,0.00138409,0.0021763,0.00160038,-0.00185065,9.20708e-05,0,0,0,0,0,0,0,-0.0718349,-33.4987,-0.288683,27.2009,0.635983,3.23174,-0.00996382,
0.00836996,-0.0684404,-0.033093,-1.84339,0.00671463,0.219194,-0.041398,0.000324831,0.016046,0.000284452,-0.0270655,-0.00357449,0.0434125,-0.000314885,0,0,0,0,0,0,0,0.0505601,22.6987,0.0460046,-24.2024,-0.623347,1.78563,-0.0234526,0.00838443,-0.0684281,-0.0330784,-1.8434,0.00671237,0.219184,-0.0413986,-0.00370776,-0.000272407,0.00138409,0.0021763,0.00160038,-0.00185065,9.20708e-05,0,0,0,0,0,0,0,-0.0718349,-33.4987,-0.288683,27.2009,0.635983,3.23174,-0.00996382,
0.00836739,-0.0684427,-0.0330956,-1.84339,0.00671215,0.2192,-0.041398,0.00019561,0.0127777,0.000160964,-0.0215977,-0.00292159,0.0348726,-0.00025022,0,0,0,0,0,0,0,0.043384,23.2704,0.0342945,-24.0944,-0.622893,1.43781,-0.0214838,0.00838443,-0.0684281,-0.0330784,-1.8434,0.00671237,0.219184,-0.0413986,-0.00370776,-0.000272407,0.00138409,0.0021763,0.00160038,-0.00185065,9.20708e-05,0,0,0,0,0,0,0,-0.0718349,-33.4987,-0.288683,27.2009,0.635983,3.23174,-0.00996382,
0.00836542,-0.0684444,-0.0330977,-1.84339,0.00670962,0.219205,-0.0413979,0.000107138,0.0101805,7.76987e-05,-0.0172333,-0.0024006,0.0280382,-0.00019916,0,0,0,0,0,0,0,0.0374942,23.8001,0.0249105,-23.9257,-0.620853,1.0536,-0.0194894,0.00838248,-0.0682324,-0.033079,-1.84347,0.00671577,0.219181,-0.0414003,-0.00129573,0.0121497,0.000879315,-6.59551e-05,0.00264357,-0.000783444,-0.00081502,0.301503,1.55277,-0.0630973,-0.280281,0.1304,0.133401,-0.113386,-0.0440639,-31.9237,-0.237108,25.8084,0.60577,3.17223,0.00376909,
0.00839397,-0.0677818,-0.0330698,-1.84407,0.00656617,0.219449,-0.0413964,0.000373052,0.0194091,0.00029047,-0.0287793,-0.00566025,0.0291286,-6.30823e-05,0,0,0,0,0,0,0,2.307e-05,28.4201,0.00270777,-23.1922,-1.03715,-2.19699,0.000389832,0.00838248,-0.0682324,-0.033079,-1.84347,0.00671577,0.219181,-0.0414003,-0.00129573,0.0121497,0.000879315,-6.59551e-05,0.00264357,-0.000783444,-0.00081502,0,0,0,0,0,0,0,-0.0440639,-31.9237,-0.237108,25.8084,0.60577,3.17223,0.00376909,
0.00834349,-0.0673442,-0.0331115,-1.84433,0.00741941,0.218847,-0.0414115,-0.00096346,0.026466,-0.000808608,-0.029503,0.0168027,0.00824762,-0.000426885,0,0,0,0,0,0,0,0.482429,0.204834,0.47947,-0.272001,3.30313,-1.80062,-0.0016979,0.00838248,-0.0682324,-0.033079,-1.84347,0.00671577,0.219181,-0.0414003,-0.00129573,0.0121497,0.000879315,-6.59551e-05,0.00264357,-0.000783444,-0.00081502,0,0,0,0,0,0,0,-0.0440639,-31.9237,-0.237108,25.8084,0.60577,3.17223,0.00376909,
0.00827648,-0.066992,-0.0331743,-1.84449,0.00888068,0.217858,-0.041421,-0.00244612,0.0299781,-0.00221775,-0.0277752,0.0499739,-0.0181231,-0.000580535,0,0,0,0,0,0,0,0.476922,0.201867,0.473875,-0.269164,3.27461,-1.78618,-0.00164536,0.00838248,-0.0682324,-0.033079,-1.84347,0.00671577,0.219181,-0.0414003,-0.00129573,0.0121497,0.000879315,-6.59551e-05,0.00264357,-0.000783444,-0.00081502,0,0,0,0,0,0,0,-0.0440639,-31.9237,-0.237108,25.8084,0.60577,3.17223,0.00376909,
0.0082114,-0.0667182,-0.033238,-1.84462,0.0107066,0.216665,-0.0414265,-0.00358395,0.0308286,-0.00336681,-0.0254898,0.085628,-0.0443186,-0.000600969,0,0,0,0,0,0,0,0.471213,0.212078,0.46806,-0.263828,3.24674,-1.76745,-0.00164016,0.00838853,-0.0677464,-0.0330743,-1.84393,0.0067117,0.219215,-0.0413988,-0.000130171,0.0104152,-0.000198005,-0.0169992,0.00987749,0.00324794,0.000601853,0.145695,-0.21681,-0.134665,-2.11666,0.904239,0.503923,0.177109,-0.0956386,-31.3008,-0.213304,24.8087,0.642391,2.9406,0.00376909,
0.0084025,-0.067276,-0.0330633,-1.84458,0.00658938,0.219432,-0.0413939,-0.00251796,0.036423,-0.00241912,-0.0365339,0.0654445,-0.0300182,-0.000357293,0,0,0,0,0,0,0,1.20726e-05,28.4338,0.00268847,-23.1894,-1.03686,-2.19276,0.000364792,0.00838853,-0.0677464,-0.0330743,-1.84393,0.0067117,0.219215,-0.0413988,-0.000130171,0.0104152,-0.000198005,-0.0169992,0.00987749,0.00324794,0.000601853,0,0,0,0,0,0,0,-0.0956386,-31.3008,-0.213304,24.8087,0.642391,2.9406,0.00376909,
0.00827503,-0.0668024,-0.0331618,-1.84474,0.00965466,0.217363,-0.0414368,-0.005201,0.0409774,-0.00439659,-0.0333016,0.128988,-0.0757561,-0.00135921,0,0,0,0,0,0,0,4.13749,0.564629,4.20737,-1.76298,10.9631,-7.16944,-0.00408633,0.00838853,-0.0677464,-0.0330743,-1.84393,0.0067117,0.219215,-0.0413988,-0.000130171,0.0104152,-0.000198005,-0.0169992,0.00987749,0.00324794,0.000601853,0,0,0,0,0,0,0,-0.0956386,-31.3008,-0.213304,24.8087,0.642391,2.9406,0.00376909,
0.00813381,-0.0664396,-0.0332871,-1.84483,0.0146604,0.214096,-0.0414614,-0.00769143,0.041852,-0.00665165,-0.0287555,0.228333,-0.142264,-0.00170068,0,0,0,0,0,0,0,4.07459,0.641111,4.15077,-1.6969,10.9631,-6.98063,-0.00311796,0.00838853,-0.0677464,-0.0330743,-1.84393,0.0067117,0.219215,-0.0413988,-0.000130171,0.0104152,-0.000198005,-0.0169992,0.00987749,0.00324794,0.000601853,0,0,0,0,0,0,0,-0.0956386,-31.3008,-0.213304,24.8087,0.642391,2.9406,0.00376909,
0.00802524,-0.0661719,-0.0333872,-1.84491,0.0208571,0.210133,-0.0414734,-0.0088672,0.0401745,-0.00782184,-0.0252038,0.337583,-0.21289,-0.00166025,0,0,0,0,0,0,0,4.00233,0.720958,4.08084,-1.63085,10.9637,-6.78003,-0.00255574,0.00838291,-0.0668356,-0.0330779,-1.84472,0.00671338,0.219217,-0.0414006,0.000429098,0.0358006,0.00198403,-0.0324859,-0.000783808,-0.00271062,0.000185953,0.0699086,3.17317,0.272755,-1.93583,-1.33266,-0.74482,-0.0519875,-0.171017,-30.9279,-0.33629,25.733,0.709225,2.88018,0.017502,
0.00840322,-0.0662039,-0.0330598,-1.84546,0.00653167,0.219348,-0.0413967,-0.00658603,0.0479319,-0.00580392,-0.0386095,0.265524,-0.167024,-0.00122997,0,0,0,0,0,0,0,-9.55899e-07,28.4609,0.00263451,-23.1833,-1.03626,-2.18429,0.000320982,0.00838291,-0.0668356,-0.0330779,-1.84472,0.00671338,0.219217,-0.0414006,0.000429098,0.0358006,0.00198403,-0.0324859,-0.000783808,-0.00271062,0.000185953,0,0,0,0,0,0,0,-0.171017,-30.9279,-0.33629,25.733,0.709225,2.88018,0.017502,
0.0087967,-0.065668,-0.0326421,-1.8458,0.00862168,0.215576,-0.0412997,0.00456818,0.0517428,0.00579803,-0.0393201,0.264669,-0.22792,0.00144189,0,0,0,0,0,0,0,28.6018,3.20347,29.243,-11.0109,10.9637,-14.1843,0.121084,0.00838291,-0.0668356,-0.0330779,-1.84472,0.00671338,0.219217,-0.0414006,0.000429098,0.0358006,0.00198403,-0.0324859,-0.000783808,-0.00271062,0.000185953,0,0,0,0,0,0,0,-0.171017,-30.9279,-0.33629,25.733,0.709225,2.88018,0.017502,
0.00947885,-0.0652368,-0.0319074,-1.84605,0.0123998,0.2094,-0.0411989,0.0207084,0.0521748,0.0230051,-0.0377803,0.30619,-0.336745,0.00367141,0,0,0,0,0,0,0,26.8007,4.2167,27.725,-9.11773,10.9637,-14.1843,0.119739,0.00838291,-0.0668356,-0.0330779,-1.84472,0.00671338,0.219217,-0.0414006,0.000429098,0.0358006,0.00198403,-0.0324859,-0.000783808,-0.00271062,0.000185953,0,0,0,0,0,0,0,-0.171017,-30.9279,-0.33629,25.733,0.709225,2.88018,0.017502,
0.0103879,-0.0648922,-0.0309355,-1.84631,0.0174281,0.20166,-0.0410942,0.039294,0.0503544,0.0427035,-0.0368048,0.370659,-0.462903,0.00555605,0,0,0,0,0,0,0,25.2539,3.75984,26.2421,-7.76207,10.9631,-14.1707,0.124187,0.00837349,-0.0655136,-0.0330538,-1.84582,0.00707847,0.218904,-0.0413957,-0.00150936,0.0583511,0.00259094,-0.0434507,0.0220276,-0.0110377,0.00113029,-0.242307,2.81882,0.0758636,-1.37059,2.85143,-1.04089,0.118042,0.336795,-32.0268,0.361952,27.0264,1.02691,2.77489,-0.0227812,
0.00839498,-0.0647434,-0.0330349,-1.84663,0.00699724,0.218955,-0.0413907,0.0319723,0.059538,0.0346355,-0.0497052,0.294497,-0.369055,0.00457023,0,0,0,0,0,0,0,0.000113127,28.4988,0.00286131,-23.1731,-1.03687,-2.17074,0.000243241,0.00837349,-0.0655136,-0.0330538,-1.84582,0.00707847,0.218904,-0.0413957,-0.00150936,0.0583511,0.00259094,-0.0434507,0.0220276,-0.0110377,0.00113029,0,0,0,0,0,0,0,0.336795,-32.0268,0.361952,27.0264,1.02691,2.77489,-0.0227812,
0.00905744,-0.064396,-0.0323664,-1.84763,0.00871449,0.215561,-0.0411035,0.0421394,0.0563151,0.0444218,-0.0645643,0.278528,-0.380079,0.0108371,0,0,0,0,0,0,0,41.0554,-1.02934,41.7558,-21.7174,10.9631,-14.1707,0.339672,0.00837349,-0.0655136,-0.0330538,-1.84582,0.00707847,0.218904,-0.0413957,-0.00150936,0.0583511,0.00259094,-0.0434507,0.0220276,-0.0110377,0.00113029,0,0,0,0,0,0,0,0.336795,-32.0268,0.361952,27.0264,1.02691,2.77489,-0.0227812,
0.0101376,-0.0642044,-0.0312802,-1.84864,0.012051,0.209741,-0.0409382,0.0607144,0.0498417,0.062692,-0.0770212,0.306235,-0.449559,0.0128017,0,0,0,0,0,0,0,36.2343,1.38181,36.6934,-19.7309,10.9631,-14.1707,0.182569,0.00837349,-0.0655136,-0.0330538,-1.84582,0.00707847,0.218904,-0.0413957,-0.00150936,0.0583511,0.00259094,-0.0434507,0.0220276,-0.0110377,0.00113029,0,0,0,0,0,0,0,0.336795,-32.0268,0.361952,27.0264,1.02691,2.77489,-0.0227812,
0.00839498,-0.0647434,-0.0330349,-1.84663,0.00699724,0.218955,-0.0413907,0.0491087,0.0591279,0.0506263,-0.0818784,0.242957,-0.35838,0.0103668,0,0,0,0,0,0,0,0.00134081,28.5403,0.00653036,-23.158,-1.0379,-2.14764,0.000131983,0.00866213,-0.063943,-0.0318446,-1.84758,0.00802618,0.217277,-0.0413994,0.0118854,0.0505893,0.0253448,-0.0620322,0.00170419,-0.0570481,0.000500583,1.67434,-0.970232,2.84424,-2.32269,-2.54043,-5.7513,-0.0787129,-0.349545,-32.9234,-0.0625476,28.0499,1.22833,2.78771,0.0101778,
0.00922436,-0.0646056,-0.0321826,-1.84811,0.0084326,0.215954,-0.0409862,0.0600214,0.0507473,0.06181,-0.102477,0.23025,-0.361716,0.0184075,0,0,0,0,0,0,0,49.4286,-2.98028,50.5479,-30.9532,10.9621,-14.1476,0.473107,0.00866213,-0.063943,-0.0318446,-1.84758,0.00802618,0.217277,-0.0413994,0.0118854,0.0505893,0.0253448,-0.0620322,0.00170419,-0.0570481,0.000500583,0,0,0,0,0,0,0,-0.349545,-32.9234,-0.0625476,28.0499,1.22833,2.78771,0.0101778,
0.010527,-0.0645957,-0.0308344,-1.84967,0.0114774,0.210478,-0.0408124,0.0805835,0.0408454,0.0831514,-0.120792,0.260318,-0.426273,0.0190695,0,0,0,0,0,0,0,41.7046,1.13341,42.7403,-28.0486,10.9621,-14.1476,0.180761,0.00866213,-0.063943,-0.0318446,-1.84758,0.00802618,0.217277,-0.0413994,0.0118854,0.0505893,0.0253448,-0.0620322,0.00170419,-0.0570481,0.000500583,0,0,0,0,0,0,0,-0.349545,-32.9234,-0.0625476,28.0499,1.22833,2.78771,0.0101778,
0.012122,-0.0645765,-0.0291875,-1.85122,0.0159385,0.203278,-0.0407748,0.104341,0.0331552,0.107695,-0.135356,0.319784,-0.521032,0.0161969,0,0,0,0,0,0,0,36.848,3.01457,37.7622,-25.9596,10.9621,-14.1476,0.0285208,0.00866213,-0.063943,-0.0318446,-1.84758,0.00802618,0.217277,-0.0413994,0.0118854,0.0505893,0.0253448,-0.0620322,0.00170419,-0.0570481,0.000500583,0,0,0,0,0,0,0,-0.349545,-32.9234,-0.0625476,28.0499,1.22833,2.78771,0.0101778,
0.00878531,-0.0631817,-0.0317191,-1.84846,0.00790694,0.217015,-0.0413982,0.0865527,0.0455565,0.0892942,-0.130159,0.252846,-0.423374,0.0129881,0,0,0,0,0,0,0,0.00134081,28.5403,0.00653036,-23.158,-1.0379,-2.14764,0.000131983,0.00866213,-0.063943,-0.0318446,-1.84758,0.00802618,0.217277,-0.0413994,0.0118854,0.0505893,0.0253448,-0.0620322,0.00170419,-0.0570481,0.000500583,0,0,0,0,0,0,0,-0.349545,-32.9234,-0.0625476,28.0499,1.22833,2.78771,0.0101778,
0.00981497,-0.0631873,-0.0306685,-1.85039,0.00918113,0.21414,-0.0409242,0.0949836,0.0363048,0.0976991,-0.152554,0.234132,-0.410597,0.0222391,0,0,0,0,0,0,0,55.4565,-3.39772,56.6237,-39.285,10.9656,-14.1161,0.553283,0.00966351,-0.0625374,-0.0299472,-1.85044,0.00863007,0.215282,-0.0414,0.0412058,0.0208634,0.0806331,-0.0940598,-0.000425468,-0.0486756,0.00129785,3.66505,-3.71573,6.91104,-4.00346,-0.266207,1.04656,0.0996584,3.35193,-32.6497,3.31361,25.8798,1.43066,2.28417,-0.0163725,
0.0113426,-0.0632867,-0.0291087,-1.85245,0.0121005,0.208827,-0.0407729,0.114177,0.0265592,0.117156,-0.173502,0.260289,-0.461287,0.021574,0,0,0,0,0,0,0,45.3914,1.65196,46.2647,-35.6217,10.9656,-14.1161,0.146189,0.00966351,-0.0625374,-0.0299472,-1.85044,0.00863007,0.215282,-0.0414,0.0412058,0.0208634,0.0806331,-0.0940598,-0.000425468,-0.0486756,0.00129785,0,0,0,0,0,0,0,3.35193,-32.6497,3.31361,25.8798,1.43066,2.28417,-0.0163725,
0.0131482,-0.0633448,-0.0272604,-1.85453,0.0165152,0.201789,-0.0408121,0.136483,0.019795,0.139932,-0.190682,0.318598,-0.544988,0.0162801,0,0,0,0,0,0,0,39.1906,3.43109,39.9647,-33.4199,10.9656,-14.1161,-0.0683027,0.00966351,-0.0625374,-0.0299472,-1.85044,0.00863007,0.215282,-0.0414,0.0412058,0.0208634,0.0806331,-0.0940598,-0.000425468,-0.0486756,0.00129785,0,0,0,0,0,0,0,3.35193,-32.6497,3.31361,25.8798,1.43066,2.28417,-0.0163725,
0.010034,-0.0618769,-0.0295641,-1.85136,0.00864593,0.214927,-0.0414056,0.118449,0.0323487,0.121524,-0.175583,0.255275,-0.444854,0.012883,0,0,0,0,0,0,0,0.00772505,28.5746,0.0165005,-23.1329,-1.03442,-2.11607,-5.0082e-05,0.00966351,-0.0625374,-0.0299472,-1.85044,0.00863007,0.215282,-0.0414,0.0412058,0.0208634,0.0806331,-0.0940598,-0.000425468,-0.0486756,0.00129785,0,0,0,0,0,0,0,3.35193,-32.6497,3.31361,25.8798,1.43066,2.28417,-0.0163725,
0.0113431,-0.0620191,-0.0282228,-1.85362,0.00998901,0.212263,-0.0408964,0.127487,0.022324,0.13075,-0.197018,0.237797,-0.422484,0.0230374,0,0,0,0,0,0,0,60.0622,-2.05956,61.3793,-46.2777,10.9733,-14.0754,0.595619,0.0115899,-0.0612655,-0.0263572,-1.85471,0.00871314,0.212978,-0.0414007,0.0503111,0.0221502,0.114821,-0.134225,-0.00183628,-0.0746965,0.00152446,1.13816,0.160841,4.2735,-5.0207,-0.176352,-3.25261,0.0283266,4.89917,-30.678,4.78547,21.7697,1.30798,1.46203,-0.0163725,
0.0131284,-0.0622011,-0.0263923,-1.85606,0.0130129,0.207193,-0.0407932,0.146622,0.0133094,0.150364,-0.218555,0.265836,-0.46473,0.0210094,0,0,0,0,0,0,0,47.8278,3.33212,48.8296,-42.1128,10.9733,-14.0754,0.0840011,0.0115899,-0.0612655,-0.0263572,-1.85471,0.00871314,0.212978,-0.0414007,0.0503111,0.0221502,0.114821,-0.134225,-0.00183628,-0.0746965,0.00152446,0,0,0,0,0,0,0,4.89917,-30.678,4.78547,21.7697,1.30798,1.46203,-0.0163725,
0.0120883,-0.0605294,-0.0258402,-1.85577,0.00878045,0.212329,-0.0414096,0.129755,0.0290507,0.133218,-0.201301,0.214351,-0.387995,0.0165866,0,0,0,0,0,0,0,0.0164122,28.6082,0.0316391,-23.103,-1.02667,-2.07539,-0.00026726,0.0115899,-0.0612655,-0.0263572,-1.85471,0.00871314,0.212978,-0.0414007,0.0503111,0.0221502,0.114821,-0.134225,-0.00183628,-0.0746965,0.00152446,0,0,0,0,0,0,0,4.89917,-30.678,4.78547,21.7697,1.30798,1.46203,-0.0163725,
0.0135542,-0.0606526,-0.0243426,-1.8584,0.0101434,0.209682,-0.0408999,0.140454,0.0201603,0.144014,-0.226887,0.205555,-0.376571,0.02601,0,0,0,0,0,0,0,62.9369,-0.403984,64.2326,-52.7346,10.9733,-14.0754,0.593708,0.0115899,-0.0612655,-0.0263572,-1.85471,0.00871314,0.212978,-0.0414007,0.0503111,0.0221502,0.114821,-0.134225,-0.00183628,-0.0746965,0.00152446,0,0,0,0,0,0,0,4.89917,-30.678,4.78547,21.7697,1.30798,1.46203,-0.0163725,
0.0154787,-0.0608058,-0.0223743,-1.86127,0.0132285,0.2047,-0.0408726,0.160475,0.0122995,0.164418,-0.253166,0.241571,-0.425818,0.021492,0,0,0,0,0,0,0,48.9015,4.77578,49.8493,-48.2881,10.9852,-14.0231,-0.0124948,0.0145081,-0.0603468,-0.0218988,-1.86021,0.0088882,0.210185,-0.0413969,0.0895405,0.0267731,0.150047,-0.181794,-0.0100407,-0.0797479,0.00111474,4.90367,0.577871,4.40329,-5.94604,-1.02555,-0.631433,-0.0512153,7.0058,-29.9519,6.6382,20.0757,1.57714,1.04363,-0.0163725,
0.0176133,-0.0608847,-0.0201898,-1.86423,0.0179069,0.198013,-0.0411249,0.181744,0.00786505,0.186147,-0.276529,0.310216,-0.507836,0.0108853,0,0,0,0,0,0,0,40.6582,5.44802,41.4326,-46.222,10.9852,-14.0231,-0.330989,0.0145081,-0.0603468,-0.0218988,-1.86021,0.0088882,0.210185,-0.0413969,0.0895405,0.0267731,0.150047,-0.181794,-0.0100407,-0.0797479,0.00111474,0,0,0,0,0,0,0,7.0058,-29.9519,6.6382,20.0757,1.57714,1.04363,-0.0163725,
0.0197593,-0.0608426,-0.0165094,-1.86811,0.0199357,0.195155,-0.0419927,0.194285,0.00271008,0.199019,-0.292164,0.379407,-0.575729,-0.000144559,0,0,0,0,0,0,0,48.9015,4.77578,49.8493,-48.2881,10.9852,-14.0231,-0.0124948,0.0145081,-0.0603468,-0.0218988,-1.86021,0.0088882,0.210185,-0.0413969,0.0895405,0.0267731,0.150047,-0.181794,-0.0100407,-0.0797479,0.00111474,0,0,0,0,0,0,0,7.0058,-29.9519,6.6382,20.0757,1.57714,1.04363,-0.0163725,
0.0217998,-0.0609703,-0.0144188,-1.87111,0.026266,0.187333,-0.042296,0.206442,-0.00102303,0.211481,-0.308809,0.461784,-0.656125,-0.00769669,0,0,0,0,0,0,0,40.6582,5.44802,41.4326,-46.222,10.9852,-14.0231,-0.330989,0.0145081,-0.0603468,-0.0218988,-1.86021,0.0088882,0.210185,-0.0413969,0.0895405,0.0267731,0.150047,-0.181794,-0.0100407,-0.0797479,0.00111474,0,0,0,0,0,0,0,7.0058,-29.9519,6.6382,20.0757,1.57714,1.04363,-0.0163725,
0.0238542,-0.0610928,-0.0123145,-1.87427,0.0334316,0.17894,-0.0426253,0.216511,-0.00388217,0.221791,-0.326063,0.548568,-0.734725,-0.0143896,0,0,0,0,0,0,0,35.8305,4.62445,36.5398,-44.8099,11.0023,-13.9558,-0.44594,0.0182719,-0.0596524,-0.0163902,-1.86762,0.00912968,0.208419,-0.0414036,0.114257,0.0461516,0.204848,-0.262788,0.00780187,-0.0603725,-0.0001691,3.08951,2.42231,6.85001,-10.1243,2.23032,2.42193,-0.16048,8.7276,-27.4843,8.56233,19.3814,1.94976,0.57305,0.0101778,
0.0215953,-0.059485,-0.012961,-1.87293,0.0159213,0.199556,-0.0420198,0.217159,-0.00203958,0.222615,-0.329894,0.54661,-0.725464,-0.0204637,0,0,0,0,0,0,0,40.6758,5.49989,41.4596,-46.169,11.0023,-13.9558,-0.331348,0.0182719,-0.0596524,-0.0163902,-1.86762,0.00912968,0.208419,-0.0414036,0.114257,0.0461516,0.204848,-0.262788,0.00780187,-0.0603725,-0.0001691,0,0,0,0,0,0,0,8.7276,-27.4843,8.56233,19.3814,1.94976,0.57305,0.0101778,
0.0234682,-0.0595006,-0.0110384,-1.87588,0.0215716,0.192603,-0.0423248,0.220548,-0.00202028,0.226158,-0.337607,0.578546,-0.754177,-0.0239965,0,0,0,0,0,0,0,35.8305,4.62445,36.5398,-44.8099,11.0023,-13.9558,-0.44594,0.0182719,-0.0596524,-0.0163902,-1.86762,0.00912968,0.208419,-0.0414036,0.114257,0.0461516,0.204848,-0.262788,0.00780187,-0.0603725,-0.0001691,0,0,0,0,0,0,0,8.7276,-27.4843,8.56233,19.3814,1.94976,0.57305,0.0101778,
0.0253828,-0.059557,-0.0090747,-1.87899,0.028235,0.184806,-0.0426547,0.224304,-0.0030265,0.230018,-0.348031,0.629423,-0.798279,-0.0274437,0,0,0,0,0,0,0,32.5747,2.88412,33.2391,-44.2986,11.0023,-13.7188,-0.372271,0.0182719,-0.0596524,-0.0163902,-1.86762,0.00912968,0.208419,-0.0414036,0.114257,0.0461516,0.204848,-0.262788,0.00780187,-0.0603725,-0.0001691,0,0,0,0,0,0,0,8.7276,-27.4843,8.56233,19.3814,1.94976,0.57305,0.0101778,
0.0272956,-0.059605,-0.0071139,-1.88225,0.0356408,0.176901,-0.0430211,0.227264,-0.00362251,0.233034,-0.359809,0.688681,-0.836242,-0.0311167,0,0,0,0,0,0,0,29.0308,1.54896,29.6402,-43.9651,11.026,-12.9577,-0.405757,0.0229598,-0.0593822,-0.00868859,-1.87829,0.0118307,0.203674,-0.0414112,0.143787,0.0329538,0.225763,-0.358815,0.108326,-0.176654,-0.00131539,3.69135,-1.64972,2.6144,-12.0034,12.5655,-14.5352,-0.143286,2.51484,-33.2964,2.66298,30.1923,1.72912,2.3034,0.0843355,
0.0263568,-0.0590588,-0.00517865,-1.88406,0.0199265,0.193037,-0.0420735,0.225843,-8.62272e-05,0.231764,-0.361634,0.673263,-0.825061,-0.0326044,0,0,0,0,0,0,0,35.8759,4.66413,36.5993,-44.7486,11.026,-13.8538,-0.446448,0.0229598,-0.0593822,-0.00868859,-1.87829,0.0118307,0.203674,-0.0414112,0.143787,0.0329538,0.225763,-0.358815,0.108326,-0.176654,-0.00131539,0,0,0,0,0,0,0,2.51484,-33.2964,2.66298,30.1923,1.72912,2.3034,0.0843355,
0.0281724,-0.0590272,-0.00331285,-1.88717,0.0260603,0.185712,-0.0424053,0.226065,0.000719264,0.232056,-0.367099,0.691954,-0.843169,-0.0343799,0,0,0,0,0,0,0,32.6201,2.9238,33.2986,-44.2373,11.026,-13.6167,-0.372779,0.0229598,-0.0593822,-0.00868859,-1.87829,0.0118307,0.203674,-0.0414112,0.143787,0.0329538,0.225763,-0.358815,0.108326,-0.176654,-0.00131539,0,0,0,0,0,0,0,2.51484,-33.2964,2.66298,30.1923,1.72912,2.3034,0.0843355,
0.0300003,-0.0590169,-0.00143647,-1.89042,0.0330869,0.17813,-0.0427727,0.226549,0.000832696,0.232554,-0.374895,0.729229,-0.864099,-0.036688,0,0,0,0,0,0,0,29.0308,1.54896,29.6402,-43.9651,11.026,-12.9577,-0.405757,0.0229598,-0.0593822,-0.00868859,-1.87829,0.0118307,0.203674,-0.0414112,0.143787,0.0329538,0.225763,-0.358815,0.108326,-0.176654,-0.00131539,0,0,0,0,0,0,0,2.51484,-33.2964,2.66298,30.1923,1.72912,2.3034,0.0843355,
0.0326836,-0.0591151,0.0046,-1.89663,0.0246083,0.185784,-0.0420595,0.22846,0.00129129,0.23475,-0.375173,0.715817,-0.845166,-0.0379472,0,0,0,0,0,0,0,32.6712,2.90662,33.3675,-44.1239,11.0455,-13.4979,-0.373429,0.0288976,-0.0592503,0.000676403,-1.89073,0.0158573,0.19645,-0.0414027,0.180832,0.0133803,0.302244,-0.384501,0.0980141,-0.193762,0.000371754,4.63065,-2.44668,9.5601,-3.21075,-1.28892,-2.13849,0.210893,0.158268,-34.4707,-0.110155,30.0931,1.80877,1.94543,0.0303194,
0.0345471,-0.0591269,0.0065176,-1.89979,0.0311502,0.179026,-0.0424344,0.229356,0.000737459,0.23574,-0.378958,0.7362,-0.845086,-0.0397314,0,0,0,0,0,0,0,29.0819,1.53178,29.709,-43.8517,11.0455,-12.8389,-0.406407,0.0288976,-0.0592503,0.000676403,-1.89073,0.0158573,0.19645,-0.0414027,0.180832,0.0133803,0.302244,-0.384501,0.0980141,-0.193762,0.000371754,0,0,0,0,0,0,0,0.158268,-34.4707,-0.110155,30.0931,1.80877,1.94543,0.0303194,
0.0363876,-0.059147,0.00840905,-1.90311,0.03851,0.172655,-0.0427949,0.229496,8.67423e-05,0.235879,-0.386207,0.772954,-0.835331,-0.0407979,0,0,0,0,0,0,0,26.3089,1.3436,26.891,-42.8762,11.0455,-10.8392,-0.453986,0.0288976,-0.0592503,0.000676403,-1.89073,0.0158573,0.19645,-0.0414027,0.180832,0.0133803,0.302244,-0.384501,0.0980141,-0.193762,0.000371754,0,0,0,0,0,0,0,0.158268,-34.4707,-0.110155,30.0931,1.80877,1.94543,0.0303194,
0.0382079,-0.0591615,0.0102785,-1.90656,0.046394,0.167177,-0.0431303,0.229105,-0.000293773,0.235438,-0.395365,0.815463,-0.80522,-0.041023,0,0,0,0,0,0,0,24.6523,0.88567,25.2172,-42.0131,11.0455,-7.68832,-0.441424,0.0288976,-0.0592503,0.000676403,-1.89073,0.0158573,0.19645,-0.0414027,0.180832,0.0133803,0.302244,-0.384501,0.0980141,-0.193762,0.000371754,0,0,0,0,0,0,0,0.158268,-34.4707,-0.110155,30.0931,1.80877,1.94543,0.0303194,
0.0307948,-0.0591401,0.00265171,-1.89362,0.019311,0.19194,-0.0417156,0.230713,0.00252009,0.237733,-0.388749,0.738714,-0.756934,-0.0406404,0,0,0,0,0,0,0,32.6965,2.80505,33.4139,-44.0357,11.0476,-13.4004,-0.37395,0.0346553,-0.0591608,0.0118452,-1.90458,0.0195371,0.189521,-0.0414032,0.144224,-0.0187473,0.322409,-0.431174,0.115747,-0.227114,-0.000769083,-4.57609,-4.01595,2.52071,-5.83408,2.21665,-4.16898,-0.142605,0.94379,-34.2961,0.786451,29.7162,1.70532,2.21093,0.0440523,
0.0326836,-0.0591151,0.0046,-1.89663,0.0246083,0.185784,-0.0420595,0.231792,0.0026412,0.238894,-0.386256,0.723405,-0.759434,-0.0411091,0,0,0,0,0,0,0,29.1072,1.43021,29.7555,-43.7635,11.0476,-12.7414,-0.406928,0.0346553,-0.0591608,0.0118452,-1.90458,0.0195371,0.189521,-0.0414032,0.144224,-0.0187473,0.322409,-0.431174,0.115747,-0.227114,-0.000769083,0,0,0,0,0,0,0,0.94379,-34.2961,0.786451,29.7162,1.70532,2.21093,0.0440523,
0.0345471,-0.0591269,0.0065176,-1.89979,0.0311502,0.179026,-0.0424344,0.232021,0.00181739,0.239055,-0.387825,0.74227,-0.776501,-0.0422609,0,0,0,0,0,0,0,26.3341,1.24203,26.9375,-42.788,11.0476,-10.7417,-0.454507,0.0346553,-0.0591608,0.0118452,-1.90458,0.0195371,0.189521,-0.0414032,0.144224,-0.0187473,0.322409,-0.431174,0.115747,-0.227114,-0.000769083,0,0,0,0,0,0,0,0.94379,-34.2961,0.786451,29.7162,1.70532,2.21093,0.0440523,
0.0363876,-0.059147,0.00840905,-1.90311,0.03851,0.172655,-0.0427949,0.231628,0.000950689,0.23853,-0.3933,0.777811,-0.780463,-0.0428215,0,0,0,0,0,0,0,24.6775,0.784099,25.2636,-41.9249,11.0476,-7.59084,-0.441945,0.0346553,-0.0591608,0.0118452,-1.90458,0.0195371,0.189521,-0.0414032,0.144224,-0.0187473,0.322409,-0.431174,0.115747,-0.227114,-0.000769083,0,0,0,0,0,0,0,0.94379,-34.2961,0.786451,29.7162,1.70532,2.21093,0.0440523,
0.03819,-0.0592105,0.0155229,-1.91071,0.0285555,0.17903,-0.0421243,0.229147,2.46517e-05,0.236145,-0.391922,0.757743,-0.769555,-0.0437798,0,0,0,0,0,0,0,29.1072,1.43021,29.7555,-43.7635,11.0476,-12.7414,-0.406928,0.0346553,-0.0591608,0.0118452,-1.90458,0.0195371,0.189521,-0.0414032,0.144224,-0.0187473,0.322409,-0.431174,0.115747,-0.227114,-0.000769083,0,0,0,0,0,0,0,0.94379,-34.2961,0.786451,29.7162,1.70532,2.21093,0.0440523,
0.0399249,-0.0592525,0.0173115,-1.91396,0.0351622,0.173321,-0.0424883,0.226691,-0.00102908,0.233632,-0.394817,0.771361,-0.758369,-0.0441249,0,0,0,0,0,0,0,26.3017,1.04037,26.923,-42.6924,11.0168,-10.6789,-0.454911,0.0390889,-0.0591604,0.0212537,-1.91703,0.0228137,0.183196,-0.0414002,0.143411,-0.0340912,0.29343,-0.358159,0.0678047,-0.168532,0.000381608,-0.101573,-1.91799,-3.62245,9.12691,-5.99283,7.32272,0.143836,-2.83307,-37.343,-3.31175,28.4705,1.26495,1.89232,0.017502,
0.0416504,-0.0592945,0.0190876,-1.91736,0.0425299,0.16832,-0.0428254,0.22449,-0.00187492,0.231308,-0.400711,0.801284,-0.731732,-0.0437267,0,0,0,0,0,0,0,24.6451,0.582442,25.2491,-41.8293,11.0168,-7.52799,-0.442348,0.0390889,-0.0591604,0.0212537,-1.91703,0.0228137,0.183196,-0.0414002,0.143411,-0.0340912,0.29343,-0.358159,0.0678047,-0.168532,0.000381608,0,0,0,0,0,0,0,-2.83307,-37.343,-3.31175,28.4705,1.26495,1.89232,0.017502,
0.0433687,-0.0593299,0.0208548,-1.92085,0.050384,0.164306,-0.0431292,0.222551,-0.00238358,0.229225,-0.407819,0.837377,-0.685735,-0.0425764,0,0,0,0,0,0,0,23.4776,-0.233786,24.0692,-41.2761,11.0168,-4.87492,-0.414799,0.0390889,-0.0591604,0.0212537,-1.91703,0.0228137,0.183196,-0.0414002,0.143411,-0.0340912,0.29343,-0.358159,0.0678047,-0.168532,0.000381608,0,0,0,0,0,0,0,-2.83307,-37.343,-3.31175,28.4705,1.26495,1.89232,0.017502,
0.0423133,-0.0595928,0.0246189,-1.92285,0.0315584,0.17556,-0.0421526,0.218051,-0.00726196,0.224857,-0.401271,0.802677,-0.650937,-0.0433558,0,0,0,0,0,0,0,26.3017,1.04037,26.923,-42.6924,11.0168,-10.6789,-0.454911,0.0390889,-0.0591604,0.0212537,-1.91703,0.0228137,0.183196,-0.0414002,0.143411,-0.0340912,0.29343,-0.358159,0.0678047,-0.168532,0.000381608,0,0,0,0,0,0,0,-2.83307,-37.343,-3.31175,28.4705,1.26495,1.89232,0.017502,
0.0439103,-0.059794,0.0262688,-1.92603,0.0380645,0.171736,-0.0424939,0.214366,-0.0108381,0.221135,-0.400648,0.804794,-0.616346,-0.0432184,0,0,0,0,0,0,0,24.6451,0.582442,25.2491,-41.8293,11.0168,-7.52799,-0.442348,0.0390889,-0.0591604,0.0212537,-1.91703,0.0228137,0.183196,-0.0414002,0.143411,-0.0340912,0.29343,-0.358159,0.0678047,-0.168532,0.000381608,0,0,0,0,0,0,0,-2.83307,-37.343,-3.31175,28.4705,1.26495,1.89232,0.017502,
0.0455138,-0.0599727,0.0279222,-1.92935,0.0453339,0.168593,-0.0427997,0.211581,-0.0131384,0.218242,-0.403521,0.825571,-0.571664,-0.0422191,0,0,0,0,0,0,0,23.4776,-0.233786,24.0692,-41.2761,11.0168,-4.87492,-0.414799,0.0390889,-0.0591604,0.0212537,-1.91703,0.0228137,0.183196,-0.0414002,0.143411,-0.0340912,0.29343,-0.358159,0.0678047,-0.168532,0.000381608,0,0,0,0,0,0,0,-2.83307,-37.343,-3.31175,28.4705,1.26495,1.89232,0.017502,
0.0407128,-0.0593786,0.0229598,-1.91985,0.0262473,0.179654,-0.0417808,0.209864,-0.0159665,0.217246,-0.393257,0.746299,-0.54588,-0.0432903,0,0,0,0,0,0,0,26.3017,1.04037,26.923,-42.6924,11.0168,-10.6789,-0.454911,0.0390889,-0.0591604,0.0212537,-1.91703,0.0228137,0.183196,-0.0414002,0.143411,-0.0340912,0.29343,-0.358159,0.0678047,-0.168532,0.000381608,0,0,0,0,0,0,0,-2.83307,-37.343,-3.31175,28.4705,1.26495,1.89232,0.017502,
0.0423133,-0.0595928,0.0246189,-1.92285,0.0315584,0.17556,-0.0421526,0.207902,-0.0181283,0.215274,-0.389622,0.729815,-0.539054,-0.0439269,0,0,0,0,0,0,0,24.6451,0.582442,25.2491,-41.8293,11.0168,-7.52799,-0.442348,0.0390889,-0.0591604,0.0212537,-1.91703,0.0228137,0.183196,-0.0414002,0.143411,-0.0340912,0.29343,-0.358159,0.0678047,-0.168532,0.000381608,0,0,0,0,0,0,0,-2.83307,-37.343,-3.31175,28.4705,1.26495,1.89232,0.017502,
0.0439103,-0.059794,0.0262688,-1.92603,0.0380645,0.171736,-0.0424939,0.206247,-0.0195312,0.213469,-0.391328,0.746504,-0.52684,-0.0436753,0,0,0,0,0,0,0,23.4771,-0.310237,24.0889,-41.1986,11.0127,-4.75918,-0.415297,0.0441322,-0.0591231,0.0325624,-1.93076,0.0274042,0.175139,-0.0414025,0.113109,0.00263527,0.287212,-0.375442,0.193602,-0.295626,-0.00294323,-3.78774,4.59081,-0.777155,-2.16038,15.7246,-15.8868,-0.415604,-1.15887,-31.6023,-1.36382,22.9916,1.27136,1.07018,0.0907442,
0.0455138,-0.0599727,0.0279222,-1.92935,0.0453339,0.168593,-0.0427997,0.205086,-0.0200928,0.212109,-0.396066,0.778939,-0.500059,-0.0425846,0,0,0,0,0,0,0,22.5386,-1.11103,23.136,-40.7624,11.0127,-2.57055,-0.376557,0.0441322,-0.0591231,0.0325624,-1.93076,0.0274042,0.175139,-0.0414025,0.113109,0.00263527,0.287212,-0.375442,0.193602,-0.295626,-0.00294323,0,0,0,0,0,0,0,-1.15887,-31.6023,-1.36382,22.9916,1.27136,1.07018,0.0907442,
0.0471483,-0.0591901,0.0357179,-1.93707,0.0371029,0.168376,-0.0421122,0.201772,-0.0173989,0.208825,-0.397537,0.76453,-0.484379,-0.0426982,0,0,0,0,0,0,0,24.6446,0.505991,25.2689,-41.7518,11.0127,-7.41226,-0.442846,0.0441322,-0.0591231,0.0325624,-1.93076,0.0274042,0.175139,-0.0414025,0.113109,0.00263527,0.287212,-0.375442,0.193602,-0.295626,-0.00294323,0,0,0,0,0,0,0,-1.15887,-31.6023,-1.36382,22.9916,1.27136,1.07018,0.0907442,
0.0486683,-0.0592625,0.0372903,-1.94042,0.0437884,0.165531,-0.0424203,0.199417,-0.0157294,0.206371,-0.401749,0.778763,-0.458643,-0.0418596,0,0,0,0,0,0,0,23.4771,-0.310237,24.0889,-41.1986,11.0127,-4.75918,-0.415297,0.0441322,-0.0591231,0.0325624,-1.93076,0.0274042,0.175139,-0.0414025,0.113109,0.00263527,0.287212,-0.375442,0.193602,-0.295626,-0.00294323,0,0,0,0,0,0,0,-1.15887,-31.6023,-1.36382,22.9916,1.27136,1.07018,0.0907442,
0.0502046,-0.0593397,0.0388763,-1.94384,0.0511399,0.163456,-0.042699,0.197941,-0.0145133,0.204748,-0.406945,0.806798,-0.418797,-0.0404562,0,0,0,0,0,0,0,22.5019,-1.30858,23.118,-40.6576,10.9613,-2.47978,-0.377097,0.0475448,-0.0592881,0.0417683,-1.94298,0.0360886,0.165651,-0.0414,0.0927175,0.000861206,0.247416,-0.345817,0.273227,-0.257224,-0.000575834,-2.54896,-0.221758,-4.97453,3.70313,9.95318,4.80031,0.295924,-1.86902,-33.9232,-2.43498,27.1017,0.893246,2.29699,0.0303194,
0.0517544,-0.059413,0.0404741,-1.94729,0.0589267,0.16223,-0.0429463,0.197097,-0.0134437,0.203743,-0.411782,0.840107,-0.365674,-0.0385463,0,0,0,0,0,0,0,21.6914,-1.92605,22.2912,-40.2387,10.9613,-0.678505,-0.344924,0.0475448,-0.0592881,0.0417683,-1.94298,0.0360886,0.165651,-0.0414,0.0927175,0.000861206,0.247416,-0.345817,0.273227,-0.257224,-0.000575834,0,0,0,0,0,0,0,-1.86902,-33.9232,-2.43498,27.1017,0.893246,2.29699,0.0303194,
0.0515505,-0.0596962,0.0459534,-1.95275,0.0531076,0.16209,-0.0422394,0.191867,-0.0143027,0.198423,-0.413146,0.840922,-0.307522,-0.0370695,0,0,0,0,0,0,0,22.5019,-1.30858,23.118,-40.6576,10.9613,-2.47978,-0.377097,0.0475448,-0.0592881,0.0417683,-1.94298,0.0360886,0.165651,-0.0414,0.0927175,0.000861206,0.247416,-0.345817,0.273227,-0.257224,-0.000575834,0,0,0,0,0,0,0,-1.86902,-33.9232,-2.43498,27.1017,0.893246,2.29699,0.0303194,
0.0529505,-0.0598241,0.0474007,-1.95611,0.0604597,0.16217,-0.0424621,0.188492,-0.0146388,0.19492,-0.414563,0.85654,-0.24403,-0.0352232,0,0,0,0,0,0,0,21.6914,-1.92605,22.2912,-40.2387,10.9613,-0.678505,-0.344924,0.0475448,-0.0592881,0.0417683,-1.94298,0.0360886,0.165651,-0.0414,0.0927175,0.000861206,0.247416,-0.345817,0.273227,-0.257224,-0.000575834,0,0,0,0,0,0,0,-1.86902,-33.9232,-2.43498,27.1017,0.893246,2.29699,0.0303194,
0.0543759,-0.059935,0.048872,-1.95946,0.0682117,0.162906,-0.0426567,0.186429,-0.0144833,0.19272,-0.415217,0.879031,-0.176819,-0.0330444,0,0,0,0,0,0,0,20.9557,-2.46663,21.5545,-39.6915,10.9199,0.837805,-0.307405,0.0505484,-0.0593505,0.0501416,-1.95329,0.0452405,0.158475,-0.0413962,0.088333,0.0363208,0.247531,-0.297078,0.265053,-0.190437,0.000671055,-0.54806,4.43245,0.0143808,6.0924,-1.02169,8.34833,0.155861,-3.16235,-33.1734,-3.56169,26.3797,0.752255,1.82641,0.0239107,
0.054376,-0.059609,0.05415,-1.96302,0.0623117,0.159626,-0.0420794,0.181631,-0.0143154,0.187889,-0.415034,0.872245,-0.116226,-0.0313837,0,0,0,0,0,0,0,20.9557,-2.46663,21.5545,-39.6915,10.9199,0.837805,-0.307405,0.0505484,-0.0593505,0.0501416,-1.95329,0.0452405,0.158475,-0.0413962,0.088333,0.0363208,0.247531,-0.297078,0.265053,-0.190437,0.000671055,0,0,0,0,0,0,0,-3.16235,-33.1734,-3.56169,26.3797,0.752255,1.82641,0.0239107,
0.0557039,-0.0597065,0.0555244,-1.96631,0.0696586,0.161164,-0.0422524,0.178502,-0.0138896,0.18467,-0.41414,0.881467,-0.0545116,-0.0294315,0,0,0,0,0,0,0,20.3082,-2.66571,20.8891,-39.2142,10.9199,1.97678,-0.27674,0.0505484,-0.0593505,0.0501416,-1.95329,0.0452405,0.158475,-0.0413962,0.088333,0.0363208,0.247531,-0.297078,0.265053,-0.190437,0.000671055,0,0,0,0,0,0,0,-3.16235,-33.1734,-3.56169,26.3797,0.752255,1.82641,0.0239107,
0.057055,-0.0597901,0.0569204,-1.96954,0.0773966,0.163166,-0.0424001,0.17658,-0.013202,0.182637,-0.412161,0.898624,0.00644036,-0.0272385,0,0,0,0,0,0,0,19.7224,-2.70561,20.2854,-38.7061,10.9199,2.84113,-0.241983,0.0505484,-0.0593505,0.0501416,-1.95329,0.0452405,0.158475,-0.0413962,0.088333,0.0363208,0.247531,-0.297078,0.265053,-0.190437,0.000671055,0,0,0,0,0,0,0,-3.16235,-33.1734,-3.56169,26.3797,0.752255,1.82641,0.0239107,
0.0584217,-0.0598609,0.058331,-1.97271,0.0854,0.165558,-0.0425269,0.175432,-0.0123315,0.181374,-0.409066,0.918984,0.0649369,-0.0249605,0,0,0,0,0,0,0,19.1751,-2.77803,19.7372,-38.0822,10.8805,3.56595,-0.213778,0.0532907,-0.0594085,0.0581252,-1.96383,0.0551699,0.152919,-0.0413975,0.0860791,0.00781162,0.228449,-0.316222,0.309596,-0.121501,-7.83228e-05,-0.281736,-3.56365,-2.38523,-2.39308,5.56783,8.61704,-0.0936723,2.26093,-31.6023,1.81398,27.0264,1.54052,2.07818,-0.0026396,
0.0569103,-0.059869,0.0619169,-1.97346,0.0726141,0.156661,-0.0419261,0.171152,-0.0132639,0.17709,-0.407987,0.905681,0.0993163,-0.0237042,0,0,0,0,0,0,0,19.7197,-2.84823,20.2993,-38.6138,10.8805,2.91577,-0.242479,0.0532907,-0.0594085,0.0581252,-1.96383,0.0551699,0.152919,-0.0413975,0.0860791,0.00781162,0.228449,-0.316222,0.309596,-0.121501,-7.83228e-05,0,0,0,0,0,0,0,2.26093,-31.6023,1.81398,27.0264,1.54052,2.07818,-0.0026396,
0.0581712,-0.0599756,0.0632228,-1.97664,0.0799881,0.158999,-0.0420531,0.168443,-0.013278,0.17432,-0.405738,0.908894,0.137918,-0.0221394,0,0,0,0,0,0,0,19.1751,-2.77803,19.7372,-38.0822,10.8805,3.56595,-0.213778,0.0532907,-0.0594085,0.0581252,-1.96383,0.0551699,0.152919,-0.0413975,0.0860791,0.00781162,0.228449,-0.316222,0.309596,-0.121501,-7.83228e-05,0,0,0,0,0,0,0,2.26093,-31.6023,1.81398,27.0264,1.54052,2.07818,-0.0026396,
0.059455,-0.0600593,0.0645503,-1.97974,0.0877338,0.161681,-0.0421581,0.166851,-0.0127152,0.172644,-0.4023,0.920758,0.177372,-0.0203367,0,0,0,0,0,0,0,18.671,-2.63058,19.2163,-37.5349,10.8805,4.02176,-0.182626,0.0532907,-0.0594085,0.0581252,-1.96383,0.0551699,0.152919,-0.0413975,0.0860791,0.00781162,0.228449,-0.316222,0.309596,-0.121501,-7.83228e-05,0,0,0,0,0,0,0,2.26093,-31.6023,1.81398,27.0264,1.54052,2.07818,-0.0026396,
0.0544743,-0.0595672,0.0593818,-1.96698,0.0598186,0.153441,-0.0415988,0.163069,-0.0141404,0.16953,-0.400549,0.852826,0.154955,-0.0213037,0,0,0,0,0,0,0,19.7197,-2.84823,20.2993,-38.6138,10.8805,2.91577,-0.242479,0.0532907,-0.0594085,0.0581252,-1.96383,0.0551699,0.152919,-0.0413975,0.0860791,0.00781162,0.228449,-0.316222,0.309596,-0.121501,-7.83228e-05,0,0,0,0,0,0,0,2.26093,-31.6023,1.81398,27.0264,1.54052,2.07818,-0.0026396,
0.055678,-0.059733,0.0606373,-1.97023,0.0657944,0.154766,-0.0417766,0.16055,-0.015457,0.167011,-0.401734,0.831653,0.157081,-0.0214882,0,0,0,0,0,0,0,19.1799,-2.89654,19.7585,-37.9848,10.8427,3.6365,-0.214287,0.0560482,-0.0594667,0.0659413,-1.9752,0.066337,0.150963,-0.0413979,0.0818277,-0.00503695,0.243953,-0.343655,0.32423,-0.00533742,-0.000358353,-0.531423,-1.60607,1.93796,-3.4291,1.82927,14.5204,-0.0350038,-0.67883,-31.2254,-1.0623,27.4271,1.5158,2.11114,0.0303194,
0.0569103,-0.059869,0.0619169,-1.97346,0.0726141,0.156661,-0.0419261,0.159247,-0.0157643,0.165599,-0.402122,0.835816,0.173032,-0.0209264,0,0,0,0,0,0,0,18.6758,-2.74909,19.2376,-37.4375,10.8427,4.09231,-0.183135,0.0560482,-0.0594667,0.0659413,-1.9752,0.066337,0.150963,-0.0413979,0.0818277,-0.00503695,0.243953,-0.343655,0.32423,-0.00533742,-0.000358353,0,0,0,0,0,0,0,-0.67883,-31.2254,-1.0623,27.4271,1.5158,2.11114,0.0303194,
0.0581712,-0.0599756,0.0632228,-1.97664,0.0799881,0.158999,-0.0420531,0.158919,-0.0152783,0.165128,-0.401046,0.853002,0.196891,-0.0199171,0,0,0,0,0,0,0,18.1981,-2.56035,18.7435,-36.8811,10.8427,4.40227,-0.156808,0.0560482,-0.0594667,0.0659413,-1.9752,0.066337,0.150963,-0.0413979,0.0818277,-0.00503695,0.243953,-0.343655,0.32423,-0.00533742,-0.000358353,0,0,0,0,0,0,0,-0.67883,-31.2254,-1.0623,27.4271,1.5158,2.11114,0.0303194,
0.0596685,-0.0598747,0.0697366,-1.98469,0.0839882,0.156718,-0.0417958,0.15751,-0.0148496,0.163662,-0.399294,0.854309,0.219205,-0.0186331,0,0,0,0,0,0,0,18.6758,-2.74909,19.2376,-37.4375,10.8427,4.09231,-0.183135,0.0560482,-0.0594667,0.0659413,-1.9752,0.066337,0.150963,-0.0413979,0.0818277,-0.00503695,0.243953,-0.343655,0.32423,-0.00533742,-0.000358353,0,0,0,0,0,0,0,-0.67883,-31.2254,-1.0623,27.4271,1.5158,2.11114,0.0303194,
0.0609002,-0.0599512,0.0710131,-1.98776,0.091406,0.159517,-0.0418833,0.1568,-0.0137924,0.162843,-0.396103,0.868892,0.245351,-0.0170931,0,0,0,0,0,0,0,18.195,-2.67089,18.7576,-36.8035,10.8074,4.45814,-0.157024,0.0582819,-0.0592311,0.0750559,-1.98674,0.0769973,0.151048,-0.0413939,0.0548481,-0.00353952,0.277883,-0.322526,0.297428,0.0124677,0.00044658,-3.37246,0.187179,4.24128,2.64113,-3.35029,2.22564,0.100617,-0.603451,-33.824,-1.0623,27.4509,1.35101,2.01867,0.00376909,
0.0621461,-0.0600083,0.0723023,-1.99075,0.0991831,0.162547,-0.0419512,0.156588,-0.01246,0.162503,-0.391712,0.889541,0.272018,-0.0153736,0,0,0,0,0,0,0,17.7447,-2.4591,18.2917,-36.243,10.8074,4.63969,-0.129565,0.0582819,-0.0592311,0.0750559,-1.98674,0.0769973,0.151048,-0.0413939,0.0548481,-0.00353952,0.277883,-0.322526,0.297428,0.0124677,0.00044658,0,0,0,0,0,0,0,-0.603451,-33.824,-1.0623,27.4509,1.35101,2.01867,0.00376909,
0.0634011,-0.0600529,0.0735995,-1.99367,0.107202,0.165727,-0.0420024,0.156645,-0.0110842,0.162432,-0.386426,0.912104,0.297116,-0.0135773,0,0,0,0,0,0,0,17.3128,-2.24578,17.8447,-35.6824,10.8074,4.72902,-0.105839,0.0582819,-0.0592311,0.0750559,-1.98674,0.0769973,0.151048,-0.0413939,0.0548481,-0.00353952,0.277883,-0.322526,0.297428,0.0124677,0.00044658,0,0,0,0,0,0,0,-0.603451,-33.824,-1.0623,27.4509,1.35101,2.01867,0.00376909,
0.0618497,-0.0596238,0.0788064,-1.99592,0.0944738,0.157587,-0.0416774,0.154915,-0.0112266,0.16073,-0.384931,0.901036,0.30502,-0.0126425,0,0,0,0,0,0,0,17.7447,-2.4591,18.2917,-36.243,10.8074,4.63969,-0.129565,0.0582819,-0.0592311,0.0750559,-1.98674,0.0769973,0.151048,-0.0413939,0.0548481,-0.00353952,0.277883,-0.322526,0.297428,0.0124677,0.00044658,0,0,0,0,0,0,0,-0.603451,-33.824,-1.0623,27.4509,1.35101,2.01867,0.00376909,
0.0630418,-0.0596874,0.0800431,-1.99887,0.101881,0.160545,-0.0417299,0.153735,-0.0105717,0.159503,-0.381849,0.906002,0.317967,-0.0114257,0,0,0,0,0,0,0,17.2807,-2.37334,17.8262,-35.6523,10.7642,4.74371,-0.10576,0.0593531,-0.0588426,0.0830241,-1.99562,0.0850434,0.151996,-0.0413962,0.0182555,0.00551913,0.236997,-0.247055,0.228616,0.0263457,-0.00160251,-4.57407,1.13233,-5.11084,9.43387,-8.60144,1.73475,-0.256136,-1.41278,-32.5227,-2.13744,25.1102,1.10016,1.7138,0.0239107,
0.0642425,-0.0597319,0.0812867,-2.00176,0.10965,0.163667,-0.0417649,0.153006,-0.00956955,0.158692,-0.377525,0.919044,0.332435,-0.0100165,0,0,0,0,0,0,0,16.8693,-2.16567,17.4003,-35.0937,10.7642,4.7563,-0.0818171,0.0593531,-0.0588426,0.0830241,-1.99562,0.0850434,0.151996,-0.0413962,0.0182555,0.00551913,0.236997,-0.247055,0.228616,0.0263457,-0.00160251,0,0,0,0,0,0,0,-1.41278,-32.5227,-2.13744,25.1102,1.10016,1.7138,0.0239107,
0.0622713,-0.0593708,0.0861128,-2.00415,0.101515,0.159525,-0.0415679,0.147522,-0.0110757,0.153177,-0.373608,0.899819,0.339812,-0.00889756,0,0,0,0,0,0,0,16.8693,-2.16567,17.4003,-35.0937,10.7642,4.7563,-0.0818171,0.0593531,-0.0588426,0.0830241,-1.99562,0.0850434,0.151996,-0.0413962,0.0182555,0.00551913,0.236997,-0.247055,0.228616,0.0263457,-0.00160251,0,0,0,0,0,0,0,-1.41278,-32.5227,-2.13744,25.1102,1.10016,1.7138,0.0239107,
0.0633109,-0.059467,0.0871944,-2.00695,0.1087,0.162656,-0.0415855,0.144007,-0.0112641,0.149581,-0.369017,0.899473,0.350124,-0.00755764,0,0,0,0,0,0,0,16.4729,-1.97545,16.99,-34.5393,10.7642,4.71793,-0.0607387,0.0593531,-0.0588426,0.0830241,-1.99562,0.0850434,0.151996,-0.0413962,0.0182555,0.00551913,0.236997,-0.247055,0.228616,0.0263457,-0.00160251,0,0,0,0,0,0,0,-1.41278,-32.5227,-2.13744,25.1102,1.10016,1.7138,0.0239107,
0.0643794,-0.0595365,0.0883035,-2.00969,0.116289,0.165876,-0.0415877,0.141919,-0.010749,0.147394,-0.363816,0.909307,0.360607,-0.00610013,0,0,0,0,0,0,0,16.0947,-1.86439,16.6112,-33.9477,10.7356,4.68412,-0.0399892,0.0600446,-0.0583199,0.0906595,-2.00365,0.094094,0.152787,-0.0413956,0.0200336,0.0108861,0.219705,-0.247139,0.311537,0.00501961,-0.000444609,0.222256,0.670867,-2.16141,-0.0104701,10.365,-2.66576,0.144738,2.01099,-30.9279,1.53627,25.3085,1.19812,1.68725,0.017502,
0.0654685,-0.05959,0.0894324,-2.01238,0.124155,0.16913,-0.0415773,0.140762,-0.00993764,0.146136,-0.358204,0.924087,0.369834,-0.00462114,0,0,0,0,0,0,0,15.7282,-1.71674,16.2317,-33.4042,10.7356,4.59179,-0.0194428,0.0600446,-0.0583199,0.0906595,-2.00365,0.094094,0.152787,-0.0413956,0.0200336,0.0108861,0.219705,-0.247139,0.311537,0.00501961,-0.000444609,0,0,0,0,0,0,0,2.01099,-30.9279,1.53627,25.3085,1.19812,1.68725,0.017502,
0.062844,-0.0587036,0.0936208,-2.01198,0.111395,0.159796,-0.0414655,0.136794,-0.0103376,0.142164,-0.356306,0.907869,0.365548,-0.0037773,0,0,0,0,0,0,0,16.0947,-1.86439,16.6112,-33.9477,10.7356,4.68412,-0.0399892,0.0600446,-0.0583199,0.0906595,-2.00365,0.094094,0.152787,-0.0413956,0.0200336,0.0108861,0.219705,-0.247139,0.311537,0.00501961,-0.000444609,0,0,0,0,0,0,0,2.01099,-30.9279,1.53627,25.3085,1.19812,1.68725,0.017502,
0.0638441,-0.0587663,0.0946617,-2.01471,0.118681,0.162762,-0.0414551,0.134437,-0.00983854,0.139756,-0.353265,0.908437,0.366598,-0.0027604,0,0,0,0,0,0,0,15.7282,-1.71674,16.2317,-33.4042,10.7356,4.59179,-0.0194428,0.0600446,-0.0583199,0.0906595,-2.00365,0.094094,0.152787,-0.0413956,0.0200336,0.0108861,0.219705,-0.247139,0.311537,0.00501961,-0.000444609,0,0,0,0,0,0,0,2.01099,-30.9279,1.53627,25.3085,1.19812,1.68725,0.017502,
0.0648702,-0.0588094,0.0957276,-2.01738,0.126332,0.165826,-0.041432,0.133202,-0.00894592,0.138451,-0.349294,0.918034,0.369883,-0.00163204,0,0,0,0,0,0,0,15.3535,-1.66357,15.8583,-32.8176,10.6954,4.53723,-0.000815657,0.0608453,-0.0581342,0.0980485,-2.0123,0.106861,0.153019,-0.0413954,0.0324015,0.0200463,0.219007,-0.24688,0.402922,0.0138648,-0.000802834,1.54599,1.14503,-0.0872693,0.0323889,11.4232,1.10565,-0.0447782,0.562931,-32.1498,0.0882092,26.3559,1.32629,1.89965,0.017502,
0.0646417,-0.0583504,0.102041,-2.02294,0.132715,0.162402,-0.0412915,0.130883,-0.00782266,0.136077,-0.344906,0.920935,0.366055,4.56158e-05,0,0,0,0,0,0,0,14.9661,-1.55949,15.458,-32.2924,10.6954,4.42994,0.0150237,0.0608453,-0.0581342,0.0980485,-2.0123,0.106861,0.153019,-0.0413954,0.0324015,0.0200463,0.219007,-0.24688,0.402922,0.0138648,-0.000802834,0,0,0,0,0,0,0,0.562931,-32.1498,0.0882092,26.3559,1.32629,1.89965,0.017502,
0.0656233,-0.0583671,0.103061,-2.0255,0.140496,0.165325,-0.0412225,0.129247,-0.00667585,0.134358,-0.339926,0.931251,0.365915,0.00176274,0,0,0,0,0,0,0,14.5903,-1.47,15.0703,-31.7732,10.6954,4.34306,0.0307006,0.0608453,-0.0581342,0.0980485,-2.0123,0.106861,0.153019,-0.0413954,0.0324015,0.0200463,0.219007,-0.24688,0.402922,0.0138648,-0.000802834,0,0,0,0,0,0,0,0.562931,-32.1498,0.0882092,26.3559,1.32629,1.89965,0.017502,
0.0666017,-0.0583798,0.104077,-2.028,0.1485,0.168301,-0.0411521,0.127857,-0.00565811,0.132879,-0.334521,0.94512,0.367151,0.00316913,0,0,0,0,0,0,0,14.2172,-1.39795,14.6854,-31.2641,10.6954,4.28503,0.0490873,0.0608453,-0.0581342,0.0980485,-2.0123,0.106861,0.153019,-0.0413954,0.0324015,0.0200463,0.219007,-0.24688,0.402922,0.0138648,-0.000802834,0,0,0,0,0,0,0,0.562931,-32.1498,0.0882092,26.3559,1.32629,1.89965,0.017502,
0.067575,-0.0583894,0.105088,-2.03044,0.156506,0.171284,-0.0410839,0.126619,-0.00476571,0.131579,-0.328636,0.956247,0.368281,0.00424082,0,0,0,0,0,0,0,13.7888,-1.42625,14.257,-30.7161,10.6523,4.29315,0.0709984,0.0618367,-0.0576753,0.105834,-2.02044,0.119822,0.153927,-0.0413985,0.0279717,0.0172693,0.226965,-0.232358,0.356006,0.0394248,-0.00113874,-0.553724,-0.347131,0.994781,1.81516,-5.86455,3.195,-0.041988,-1.69445,-32.0268,-2.13744,26.6058,1.18621,2.07177,0.0440523,
0.065405,-0.0579117,0.109599,-2.03055,0.145141,0.163335,-0.0411662,0.123428,-0.00448457,0.128385,-0.324973,0.947386,0.362897,0.00507357,0,0,0,0,0,0,0,13.7888,-1.42625,14.257,-30.7161,10.6523,4.29315,0.0709984,0.0618367,-0.0576753,0.105834,-2.02044,0.119822,0.153927,-0.0413985,0.0279717,0.0172693,0.226965,-0.232358,0.356006,0.0394248,-0.00113874,0,0,0,0,0,0,0,-1.69445,-32.0268,-2.13744,26.6058,1.18621,2.07177,0.0440523,
0.0663153,-0.0579215,0.110547,-2.03295,0.15213,0.166126,-0.0410985,0.121501,-0.00383243,0.126399,-0.319921,0.932645,0.36009,0.00575281,0,0,0,0,0,0,0,13.2283,-1.36853,13.6779,-30.2531,10.6523,4.2413,0.0897868,0.0618367,-0.0576753,0.105834,-2.02044,0.119822,0.153927,-0.0413985,0.0279717,0.0172693,0.226965,-0.232358,0.356006,0.0394248,-0.00113874,0,0,0,0,0,0,0,-1.69445,-32.0268,-2.13744,26.6058,1.18621,2.07177,0.0440523,
0.0672516,-0.0579235,0.111519,-2.03526,0.158487,0.168939,-0.041033,0.120609,-0.00311587,0.12543,-0.313879,0.905034,0.358395,0.00624001,0,0,0,0,0,0,0,12.5182,-1.27509,12.9512,-29.8036,10.6523,4.1435,0.0915962,0.0618367,-0.0576753,0.105834,-2.02044,0.119822,0.153927,-0.0413985,0.0279717,0.0172693,0.226965,-0.232358,0.356006,0.0394248,-0.00113874,0,0,0,0,0,0,0,-1.69445,-32.0268,-2.13744,26.6058,1.18621,2.07177,0.0440523,
0.0682074,-0.057924,0.11251,-2.03751,0.164072,0.171755,-0.0409712,0.120382,-0.00250462,0.125123,-0.307295,0.86366,0.357108,0.00653607,0,0,0,0,0,0,0,11.8229,-1.17751,12.2856,-29.2743,10.0758,4.07529,0.0871431,0.0624286,-0.0570854,0.113613,-2.02842,0.131989,0.155236,-0.0413924,0.0262669,0.0135389,0.222143,-0.239674,0.371045,0.0252369,0.000466284,-0.213096,-0.466302,-0.602831,-0.914437,1.8798,-1.77349,0.200628,0.309024,-31.4754,-0.16173,26.4551,1.42425,2.01226,-0.00996382,
0.065904,-0.057202,0.117282,-2.03802,0.152583,0.163601,-0.0411615,0.118562,-0.00190374,0.123296,-0.303684,0.814068,0.347563,0.00673319,0,0,0,0,0,0,0,11.8229,-1.17751,12.2856,-29.2743,10.0758,4.07529,0.0871431,0.0624286,-0.0570854,0.113613,-2.02842,0.131989,0.155236,-0.0413924,0.0262669,0.0135389,0.222143,-0.239674,0.371045,0.0252369,0.000466284,0,0,0,0,0,0,0,0.309024,-31.4754,-0.16173,26.4551,1.42425,2.01226,-0.00996382,
0.0668131,-0.0571896,0.118227,-2.04026,0.156911,0.166175,-0.0411017,0.117577,-0.00121248,0.122268,-0.29896,0.759441,0.342394,0.00688197,0,0,0,0,0,0,0,11.23,-0.960424,11.7239,-28.7501,8.18457,3.98581,0.0808285,0.0624286,-0.0570854,0.113613,-2.02842,0.131989,0.155236,-0.0413924,0.0262669,0.0135389,0.222143,-0.239674,0.371045,0.0252369,0.000466284,0,0,0,0,0,0,0,0.309024,-31.4754,-0.16173,26.4551,1.42425,2.01226,-0.00996382,
0.0677357,-0.0571765,0.119185,-2.04244,0.160586,0.168813,-0.0410429,0.117125,-0.000643367,0.121759,-0.293595,0.699435,0.339872,0.00697715,0,0,0,0,0,0,0,10.7774,-0.751067,11.2791,-28.2065,6.60103,3.88821,0.0751928,0.0624286,-0.0570854,0.113613,-2.02842,0.131989,0.155236,-0.0413924,0.0262669,0.0135389,0.222143,-0.239674,0.371045,0.0252369,0.000466284,0,0,0,0,0,0,0,0.309024,-31.4754,-0.16173,26.4551,1.42425,2.01226,-0.00996382,
0.0632889,-0.057144,0.114544,-2.03085,0.136853,0.156758,-0.0413437,0.115208,-0.00198085,0.120692,-0.295716,0.681131,0.309931,0.00679894,0,0,0,0,0,0,0,11.8229,-1.17751,12.2856,-29.2743,10.0758,4.07529,0.0871431,0.0624286,-0.0570854,0.113613,-2.02842,0.131989,0.155236,-0.0413924,0.0262669,0.0135389,0.222143,-0.239674,0.371045,0.0252369,0.000466284,0,0,0,0,0,0,0,0.309024,-31.4754,-0.16173,26.4551,1.42425,2.01226,-0.00996382,
0.0641441,-0.0571903,0.115444,-2.03331,0.142301,0.158808,-0.0412838,0.113547,-0.0027416,0.119047,-0.29817,0.681117,0.299198,0.00693793,0,0,0,0,0,0,0,11.2284,-1.04278,11.7338,-28.6939,8.14647,4.02944,0.0807109,0.0631248,-0.0564968,0.121069,-2.03672,0.144324,0.155674,-0.041397,0.0311746,0.0127292,0.214676,-0.234568,0.353484,0.00760351,-0.000700584,0.613464,-0.101203,-0.933306,0.638202,-2.19501,-2.20417,-0.145858,-0.0956386,-31.8761,-0.637804,26.106,1.45446,2.06536,0.0303194,
0.0650138,-0.057206,0.116354,-2.03571,0.147658,0.161126,-0.0412217,0.112579,-0.00258659,0.11798,-0.298394,0.678801,0.297306,0.00710136,0,0,0,0,0,0,0,10.7758,-0.833419,11.2889,-28.1503,6.56292,3.93184,0.0750753,0.0631248,-0.0564968,0.121069,-2.03672,0.144324,0.155674,-0.041397,0.0311746,0.0127292,0.214676,-0.234568,0.353484,0.00760351,-0.000700584,0,0,0,0,0,0,0,-0.0956386,-31.8761,-0.637804,26.106,1.45446,2.06536,0.0303194,
0.065904,-0.057202,0.117282,-2.03802,0.152583,0.163601,-0.0411615,0.11232,-0.00196931,0.117581,-0.296563,0.66618,0.299721,0.00718542,0,0,0,0,0,0,0,10.4637,-0.664457,10.9725,-27.6048,5.23607,3.85151,0.0696062,0.0631248,-0.0564968,0.121069,-2.03672,0.144324,0.155674,-0.041397,0.0311746,0.0127292,0.214676,-0.234568,0.353484,0.00760351,-0.000700584,0,0,0,0,0,0,0,-0.0956386,-31.8761,-0.637804,26.106,1.45446,2.06536,0.0303194,
0.0667341,-0.0565434,0.124858,-2.04573,0.15682,0.163273,-0.0411814,0.112511,-0.00132654,0.117628,-0.291753,0.59872,0.298243,0.00721341,0,0,0,0,0,0,0,10.4637,-0.664457,10.9725,-27.6048,5.23607,3.85151,0.0696062,0.0631248,-0.0564968,0.121069,-2.03672,0.144324,0.155674,-0.041397,0.0311746,0.0127292,0.214676,-0.234568,0.353484,0.00760351,-0.000700584,0,0,0,0,0,0,0,-0.0956386,-31.8761,-0.637804,26.106,1.45446,2.06536,0.0303194,
0.0676438,-0.0565308,0.125803,-2.04785,0.158977,0.165747,-0.0411219,0.11275,-0.000746394,0.117724,-0.286412,0.532907,0.300446,0.0072588,0,0,0,0,0,0,0,10.2702,-0.549957,10.7702,-27.0646,4.07595,3.79185,0.0681778,0.0631248,-0.0564968,0.121069,-2.03672,0.144324,0.155674,-0.041397,0.0311746,0.0127292,0.214676,-0.234568,0.353484,0.00760351,-0.000700584,0,0,0,0,0,0,0,-0.0956386,-31.8761,-0.637804,26.106,1.45446,2.06536,0.0303194,
0.0685544,-0.0565218,0.126748,-2.04992,0.16067,0.168316,-0.0410604,0.112966,-0.000372288,0.117805,-0.280807,0.468644,0.304573,0.00734348,0,0,0,0,0,0,0,10.1602,-0.489071,10.6477,-26.5366,3.11095,3.75018,0.0669683,0.0631248,-0.0564968,0.121069,-2.03672,0.144324,0.155674,-0.041397,0.0311746,0.0127292,0.214676,-0.234568,0.353484,0.00760351,-0.000700584,0,0,0,0,0,0,0,-0.0956386,-31.8761,-0.637804,26.106,1.45446,2.06536,0.0303194,
0.0640272,-0.0565278,0.122035,-2.039,0.147733,0.156961,-0.0413506,0.11293,-0.0010731,0.118391,-0.281608,0.46016,0.275833,0.00703355,0,0,0,0,0,0,0,10.4637,-0.664457,10.9725,-27.6048,5.23607,3.85151,0.0696062,0.0631248,-0.0564968,0.121069,-2.03672,0.144324,0.155674,-0.041397,0.0311746,0.0127292,0.214676,-0.234568,0.353484,0.00760351,-0.000700584,0,0,0,0,0,0,0,-0.0956386,-31.8761,-0.637804,26.106,1.45446,2.06536,0.0303194,
0.0649266,-0.0565512,0.122976,-2.0413,0.151117,0.158794,-0.0412963,0.112831,-0.00144442,0.118227,-0.2828,0.452723,0.266484,0.00698399,0,0,0,0,0,0,0,10.2702,-0.549957,10.7702,-27.0646,4.07595,3.79185,0.0681778,0.0631248,-0.0564968,0.121069,-2.03672,0.144324,0.155674,-0.041397,0.0311746,0.0127292,0.214676,-0.234568,0.353484,0.00760351,-0.000700584,0,0,0,0,0,0,0,-0.0956386,-31.8761,-0.637804,26.106,1.45446,2.06536,0.0303194,
0.0658279,-0.0565534,0.123915,-2.04355,0.154189,0.160934,-0.04124,0.112796,-0.00120967,0.118063,-0.282365,0.438975,0.2667,0.00699568,0,0,0,0,0,0,0,10.1348,-0.647927,10.6369,-26.4504,3.04776,3.80494,0.0670102,0.0650478,-0.0549448,0.133764,-2.04984,0.161757,0.156506,-0.0413986,0.0292547,0.0282833,0.1505,-0.165869,0.180445,0.00823826,-0.000596413,-0.239994,1.94426,-8.02207,8.58742,-21.6299,0.0793447,0.0130213,-1.49212,-30.5272,-1.9113,23.8882,0.740353,1.48125,0.017502,
0.0763942,-0.0568189,0.134875,-2.06669,0.163256,0.192806,-0.040474,0.110783,-0.00255578,0.115754,-0.268835,0.344863,0.281687,0.00722708,0,0,0,0,0,0,0,9.64685,-1.42515,10.0024,-20.7874,-0.456826,3.66586,0.0814997,0.0650478,-0.0549448,0.133764,-2.04984,0.161757,0.156506,-0.0413986,0.0292547,0.0282833,0.1505,-0.165869,0.180445,0.00823826,-0.000596413,0,0,0,0,0,0,0,-1.49212,-30.5272,-1.9113,23.8882,0.740353,1.48125,0.017502,
0.0764495,-0.055914,0.145587,-2.07339,0.163679,0.19317,-0.0405128,0.103458,-0.0044724,0.108028,-0.244398,0.281118,0.283202,0.00680264,0,0,0,0,0,0,0,9.52084,-1.47568,9.86783,-20.3394,-0.42221,3.64154,0.0808537,0.0650478,-0.0549448,0.133764,-2.04984,0.161757,0.156506,-0.0413986,0.0292547,0.0282833,0.1505,-0.165869,0.180445,0.00823826,-0.000596413,0,0,0,0,0,0,0,-1.49212,-30.5272,-1.9113,23.8882,0.740353,1.48125,0.017502,
0.0770263,-0.0560127,0.146187,-2.07453,0.163907,0.195442,-0.0404738,0.0971863,-0.00604378,0.101428,-0.223923,0.230604,0.283365,0.00641591,0,0,0,0,0,0,0,9.38083,-1.51782,9.71955,-19.8922,-0.370286,3.61507,0.0796264,0.0650478,-0.0549448,0.133764,-2.04984,0.161757,0.156506,-0.0413986,0.0292547,0.0282833,0.1505,-0.165869,0.180445,0.00823826,-0.000596413,0,0,0,0,0,0,0,-1.49212,-30.5272,-1.9113,23.8882,0.740353,1.48125,0.017502,
0.0775868,-0.0561125,0.14677,-2.07563,0.164149,0.197671,-0.0404367,0.0917609,-0.0073319,0.0957314,-0.206626,0.19054,0.282417,0.0060605,0,0,0,0,0,0,0,9.2218,-1.62597,9.55773,-19.4097,-0.331497,3.60645,0.0783605,0.0661539,-0.0544046,0.13848,-2.0554,0.166777,0.156421,-0.041391,0.02559,0.012712,0.100051,-0.143941,0.0985003,-0.00866943,0.00127654,-0.458085,-1.94642,-6.30608,2.74099,-10.2431,-2.11346,0.234119,-3.97564,-33.225,-4.25994,30.0177,0.733944,2.92687,-0.0227812,
0.071112,-0.0571123,0.144161,-2.05835,0.285893,0.135494,-0.0419408,0.0738445,-0.00909533,0.0776892,-0.162815,0.208959,0.227666,0.00437573,0,0,0,0,0,0,0,3.25495,-1.67489,3.40548,-5.24213,0.571291,1.69777,0.00257937,0.0661539,-0.0544046,0.13848,-2.0554,0.166777,0.156421,-0.041391,0.02559,0.012712,0.100051,-0.143941,0.0985003,-0.00866943,0.00127654,0,0,0,0,0,0,0,-3.97564,-33.225,-4.25994,30.0177,0.733944,2.92687,-0.0227812,
0.0711284,-0.0572418,0.144205,-2.05825,0.288146,0.135566,-0.0419597,0.0594863,-0.0105129,0.063233,-0.127767,0.223479,0.183923,0.00302855,0,0,0,0,0,0,0,3.21793,-1.69097,3.36032,-4.80789,0.903564,1.46727,-0.00074496,0.0661539,-0.0544046,0.13848,-2.0554,0.166777,0.156421,-0.041391,0.02559,0.012712,0.100051,-0.143941,0.0985003,-0.00866943,0.00127654,0,0,0,0,0,0,0,-3.97564,-33.225,-4.25994,30.0177,0.733944,2.92687,-0.0227812,
0.071144,-0.0573715,0.144247,-2.05815,0.29039,0.135639,-0.0419785,0.0479802,-0.0116532,0.0516509,-0.0997305,0.234892,0.148975,0.00195135,0,0,0,0,0,0,0,3.21184,-1.70844,3.34543,-4.37751,1.33953,1.18365,-0.00422769,0.0661539,-0.0544046,0.13848,-2.0554,0.166777,0.156421,-0.041391,0.02559,0.012712,0.100051,-0.143941,0.0985003,-0.00866943,0.00127654,0,0,0,0,0,0,0,-3.97564,-33.225,-4.25994,30.0177,0.733944,2.92687,-0.0227812,
0.0711591,-0.0575014,0.144289,-2.05806,0.292627,0.135714,-0.0419974,0.0387598,-0.0125709,0.0423724,-0.0773048,0.243833,0.121053,0.00109008,0,0,0,0,0,0,0,3.25246,-1.73605,3.37987,-3.87792,1.89921,0.890463,-0.00798443,0.0677336,-0.0535848,0.14342,-2.06086,0.170222,0.15682,-0.0413939,0.0794205,0.0363053,0.180085,-0.178029,0.122457,0.00765448,0.00028133,6.72882,2.94917,10.0042,-4.26108,2.99459,2.04049,-0.124401,7.15656,-28.3333,6.48744,22.5433,1.27777,0.639883,-0.0301054,
0.0701649,-0.0527095,0.145948,-2.06343,0.177975,0.154979,-0.0414831,0.0419005,-0.00717843,0.0452239,-0.0728506,0.261481,0.081011,0.000271375,0,0,0,0,0,0,0,3.25255,-1.73621,3.37997,-3.87775,1.89876,0.89275,-0.00798232,0.0677336,-0.0535848,0.14342,-2.06086,0.170222,0.15682,-0.0413939,0.0794205,0.0363053,0.180085,-0.178029,0.122457,0.00765448,0.00028133,0,0,0,0,0,0,0,7.15656,-28.3333,6.48744,22.5433,1.27777,0.639883,-0.0301054,
0.0705254,-0.0526457,0.146324,-2.06379,0.18125,0.154136,-0.0415079,0.0425341,-0.00414776,0.0455835,-0.0671318,0.291041,0.0437188,-0.000403787,0,0,0,0,0,0,0,3.30573,-1.75438,3.42295,-3.45839,2.58345,0.484234,-0.0114554,0.0677336,-0.0535848,0.14342,-2.06086,0.170222,0.15682,-0.0413939,0.0794205,0.0363053,0.180085,-0.178029,0.122457,0.00765448,0.00028133,0,0,0,0,0,0,0,7.15656,-28.3333,6.48744,22.5433,1.27777,0.639883,-0.0301054,
0.0708251,-0.0526219,0.146638,-2.06407,0.185237,0.15302,-0.0415331,0.0415177,-0.00272317,0.0443158,-0.0607343,0.332509,0.00708764,-0.000952836,0,0,0,0,0,0,0,3.3811,-1.771,3.48751,-3.04641,3.4063,0.00880482,-0.0146343,0.0677336,-0.0535848,0.14342,-2.06086,0.170222,0.15682,-0.0413939,0.0794205,0.0363053,0.180085,-0.178029,0.122457,0.00765448,0.00028133,0,0,0,0,0,0,0,7.15656,-28.3333,6.48744,22.5433,1.27777,0.639883,-0.0301054,
0.0710738,-0.0526285,0.1469,-2.06429,0.19002,0.151587,-0.0415574,0.0394338,-0.00234447,0.0420057,-0.0540724,0.385597,-0.0301571,-0.00136992,0,0,0,0,0,0,0,3.44779,-1.8955,3.54775,-2.62403,4.34772,-0.520392,-0.0174209,0.0700286,-0.0533441,0.147521,-2.06597,0.173467,0.156611,-0.0413925,0.0454741,-0.00214012,0.0962709,-0.0825746,0.141323,0.00809213,0.000548102,-4.24331,-4.80568,-10.4767,11.9319,2.3583,0.0547063,0.0333465,-2.98779,-38.7633,-3.41094,33.5803,1.65588,3.27202,-0.00996382,
0.0708804,-0.0533593,0.148413,-2.06687,0.17694,0.156461,-0.0414284,0.0412883,-0.0022294,0.0437606,-0.0532695,0.357658,-0.0274001,-0.00158486,0,0,0,0,0,0,0,3.28669,-1.8681,3.40894,-3.43692,2.55539,0.517419,-0.0114262,0.0700286,-0.0533441,0.147521,-2.06597,0.173467,0.156611,-0.0413925,0.0454741,-0.00214012,0.0962709,-0.0825746,0.141323,0.00809213,0.000548102,0,0,0,0,0,0,0,-2.98779,-38.7633,-3.41094,33.5803,1.65588,3.27202,-0.00996382,
0.07121,-0.0533913,0.148758,-2.0672,0.179454,0.156149,-0.04145,0.0412693,-0.00258427,0.0436312,-0.0507978,0.34898,-0.0297276,-0.00180762,0,0,0,0,0,0,0,3.36214,-1.88463,3.47358,-3.02494,3.378,0.0418283,-0.0146034,0.0700286,-0.0533441,0.147521,-2.06597,0.173467,0.156611,-0.0413925,0.0454741,-0.00214012,0.0962709,-0.0825746,0.141323,0.00809213,0.000548102,0,0,0,0,0,0,0,-2.98779,-38.7633,-3.41094,33.5803,1.65588,3.27202,-0.00996382,
0.0714901,-0.0534402,0.149052,-2.06746,0.182609,0.155583,-0.0414731,0.0400195,-0.0032906,0.0422707,-0.0472665,0.358058,-0.0379218,-0.00202514,0,0,0,0,0,0,0,3.44849,-1.89725,3.54855,-2.62222,4.34183,-0.496334,-0.0173998,0.0700286,-0.0533441,0.147521,-2.06597,0.173467,0.156611,-0.0413925,0.0454741,-0.00214012,0.0962709,-0.0825746,0.141323,0.00809213,0.000548102,0,0,0,0,0,0,0,-2.98779,-38.7633,-3.41094,33.5803,1.65588,3.27202,-0.00996382,
0.0726438,-0.0526209,0.152382,-2.06782,0.179504,0.156564,-0.0414523,0.0425014,-0.00538216,0.0447753,-0.0450896,0.337363,-0.0335711,-0.00232143,0,0,0,0,0,0,0,3.36565,-1.90838,3.47871,-2.98961,3.31388,0.286765,-0.0143839,0.071696,-0.0524083,0.151385,-2.06722,0.176321,0.156697,-0.0413939,0.0487686,-0.00453384,0.128713,-0.0229994,0.00674896,-0.018002,4.7558e-05,0.411821,-0.299215,4.05528,7.4469,-16.8218,-3.26176,-0.062568,-3.77331,-33.0742,-4.25994,28.3713,1.1679,2.63482,0.00376909,
0.0729822,-0.052729,0.152737,-2.06807,0.182374,0.156193,-0.0414791,0.0424615,-0.00700891,0.044693,-0.0421668,0.341643,-0.036143,-0.00252647,0,0,0,0,0,0,0,3.45238,-1.9206,3.55407,-2.58705,4.27569,-0.25316,-0.0171741,0.071696,-0.0524083,0.151385,-2.06722,0.176321,0.156697,-0.0413939,0.0487686,-0.00453384,0.128713,-0.0229994,0.00674896,-0.018002,4.7558e-05,0,0,0,0,0,0,0,-3.77331,-33.0742,-4.25994,28.3713,1.1679,2.63482,0.00376909,
0.0732593,-0.0528359,0.153029,-2.06826,0.186088,0.155509,-0.0415052,0.0408957,-0.00828002,0.0430552,-0.0386069,0.366177,-0.0459974,-0.00267412,0,0,0,0,0,0,0,3.5325,-1.92528,3.62255,-2.19478,5.36724,-0.844488,-0.0191311,0.071696,-0.0524083,0.151385,-2.06722,0.176321,0.156697,-0.0413939,0.0487686,-0.00453384,0.128713,-0.0229994,0.00674896,-0.018002,4.7558e-05,0,0,0,0,0,0,0,-3.77331,-33.0742,-4.25994,28.3713,1.1679,2.63482,0.00376909,
0.0734875,-0.0529427,0.153271,-2.06841,0.190681,0.15447,-0.0415299,0.0384229,-0.00929399,0.0404985,-0.0346525,0.407758,-0.0627807,-0.00275727,0,0,0,0,0,0,0,3.58047,-1.9167,3.65895,-1.81454,6.56656,-1.46159,-0.0199954,0.071696,-0.0524083,0.151385,-2.06722,0.176321,0.156697,-0.0413939,0.0487686,-0.00453384,0.128713,-0.0229994,0.00674896,-0.018002,4.7558e-05,0,0,0,0,0,0,0,-3.77331,-33.0742,-4.25994,28.3713,1.1679,2.63482,0.00376909,
0.0722337,-0.0519485,0.151947,-2.06788,0.176389,0.15701,-0.0414124,0.0441828,0.00405832,0.0464509,-0.0442523,0.32789,-0.0423881,-0.00266681,0,0,0,0,0,0,0,3.61373e-05,26.7249,0.318382,-21.5854,-1.53347,-0.716631,-0.00681162,0.0720822,-0.0523677,0.153667,-2.0678,0.176404,0.156313,-0.0413983,0.00964933,0.0076827,0.0264816,-0.00121196,0.0202141,-0.0128215,-0.000865447,-4.88991,1.52707,-12.7789,2.72343,1.68314,0.647557,-0.114126,0.94379,-28.4801,0.738844,23.19,1.38122,1.59386,0.0303194,
0.072643,-0.0516423,0.152381,-2.06849,0.177621,0.157424,-0.0414411,0.0455771,0.0109024,0.0480046,-0.0505003,0.293112,-0.0235567,-0.00285144,0,0,0,0,0,0,0,3.54721,-2.06699,3.65821,-2.47026,4.03397,1.49415,-0.0158369,0.0720822,-0.0523677,0.153667,-2.0678,0.176404,0.156313,-0.0413983,0.00964933,0.0076827,0.0264816,-0.00121196,0.0202141,-0.0128215,-0.000865447,0,0,0,0,0,0,0,0.94379,-28.4801,0.738844,23.19,1.38122,1.59386,0.0303194,
0.0729679,-0.0514322,0.152726,-2.06898,0.179855,0.157753,-0.0414675,0.0445849,0.0139743,0.0470339,-0.0528011,0.290343,-0.010619,-0.00294161,0,0,0,0,0,0,0,3.63189,-2.06966,3.73146,-2.0794,5.10415,0.88891,-0.0176827,0.0720822,-0.0523677,0.153667,-2.0678,0.176404,0.156313,-0.0413983,0.00964933,0.0076827,0.0264816,-0.00121196,0.0202141,-0.0128215,-0.000865447,0,0,0,0,0,0,0,0.94379,-28.4801,0.738844,23.19,1.38122,1.59386,0.0303194,
0.0732324,-0.0512932,0.153008,-2.06938,0.183043,0.157894,-0.0414926,0.0422796,0.0146541,0.0446743,-0.0520459,0.311975,-0.00497929,-0.00298019,0,0,0,0,0,0,0,3.68341,-2.0591,3.77148,-1.70046,6.28274,0.257867,-0.0184181,0.0720822,-0.0523677,0.153667,-2.0678,0.176404,0.156313,-0.0413983,0.00964933,0.0076827,0.0264816,-0.00121196,0.0202141,-0.0128215,-0.000865447,0,0,0,0,0,0,0,0.94379,-28.4801,0.738844,23.19,1.38122,1.59386,0.0303194,
0.0736555,-0.0593396,0.156883,-2.06244,0.29681,0.179247,-0.0425411,0.0341469,0.00859313,0.0368035,-0.0395509,0.30663,-0.00633887,-0.00283974,0,0,0,0,0,0,0,0.814297,-1.55467,1.09316,1.34649,1.33137,2.08607,-0.0211869,0.0729194,-0.0521391,0.155368,-2.06852,0.176497,0.156151,-0.0413956,0.0255687,-0.00679072,0.058766,-0.0156471,0.010754,-0.00687713,0.00124313,1.98992,-1.80918,4.03555,-1.80439,-1.18251,0.743049,0.263572,0.25745,-30.9517,0.0128308,24.8602,1.39953,1.77971,-0.00996382,
0.0736684,-0.059465,0.156926,-2.06235,0.299085,0.179154,-0.0425594,0.0276406,0.00373919,0.0305096,-0.0295613,0.302199,-0.00740408,-0.00272722,0,0,0,0,0,0,0,0.793625,-1.55215,1.07228,1.34651,1.34185,2.02808,-0.0212094,0.0729194,-0.0521391,0.155368,-2.06852,0.176497,0.156151,-0.0413956,0.0255687,-0.00679072,0.058766,-0.0156471,0.010754,-0.00687713,0.00124313,0,0,0,0,0,0,0,0.25745,-30.9517,0.0128308,24.8602,1.39953,1.77971,-0.00996382,
0.0736813,-0.0595906,0.156969,-2.06227,0.301355,0.179062,-0.0425776,0.0224356,-0.000149114,0.0254772,-0.0215758,0.2985,-0.00823365,-0.00263703,0,0,0,0,0,0,0,0.772996,-1.54964,1.05145,1.34659,1.35465,1.97031,-0.0212336,0.0729194,-0.0521391,0.155368,-2.06852,0.176497,0.156151,-0.0413956,0.0255687,-0.00679072,0.058766,-0.0156471,0.010754,-0.00687713,0.00124313,0,0,0,0,0,0,0,0.25745,-30.9517,0.0128308,24.8602,1.39953,1.77971,-0.00996382,
0.0854592,-0.0522782,0.167843,-2.07012,0.207592,0.20185,-0.0417077,0.0291338,-0.000751464,0.0315999,-0.0175044,0.253634,0.0220583,-0.00241768,0,0,0,0,0,0,0,7.52966,0.274536,7.29888,-0.531157,3.08685,4.60723,-0.0207729,0.0729194,-0.0521391,0.155368,-2.06852,0.176497,0.156151,-0.0413956,0.0255687,-0.00679072,0.058766,-0.0156471,0.010754,-0.00687713,0.00124313,0,0,0,0,0,0,0,0.25745,-30.9517,0.0128308,24.8602,1.39953,1.77971,-0.00996382,
0.0858984,-0.0523042,0.168284,-2.07013,0.208138,0.202949,-0.04172,0.0342888,-0.00124998,0.036309,-0.0142359,0.216574,0.045131,-0.00224068,0,0,0,0,0,0,0,7.48998,0.14531,7.28527,-0.510718,2.94103,4.32598,-0.0204623,0.0734862,-0.0513998,0.157295,-2.0691,0.176754,0.156279,-0.0414038,0.0216477,0.0165801,0.0617496,-0.0128011,0.0424993,0.0120905,-0.00109253,-0.490129,2.92136,0.372951,0.355747,3.96816,2.37096,-0.291957,1.32465,-31.7491,1.08797,25.7568,1.65039,1.36864,0.050461,
0.0863295,-0.0523309,0.168717,-2.07013,0.208641,0.204005,-0.0417322,0.0382092,-0.0016677,0.0398873,-0.0116078,0.18584,0.0624844,-0.00209759,0,0,0,0,0,0,0,7.44336,0.0121268,7.2678,-0.502491,2.79895,4.04863,-0.0199867,0.0734862,-0.0513998,0.157295,-2.0691,0.176754,0.156279,-0.0414038,0.0216477,0.0165801,0.0617496,-0.0128011,0.0424993,0.0120905,-0.00109253,0,0,0,0,0,0,0,1.32465,-31.7491,1.08797,25.7568,1.65039,1.36864,0.050461,
0.0867525,-0.0523584,0.169143,-2.07014,0.209104,0.205018,-0.0417443,0.041142,-0.0020227,0.0425609,-0.00948986,0.160245,0.0753152,-0.00198167,0,0,0,0,0,0,0,7.38744,-0.119716,7.24218,-0.496871,2.66075,3.78291,-0.0194521,0.0734862,-0.0513998,0.157295,-2.0691,0.176754,0.156279,-0.0414038,0.0216477,0.0165801,0.0617496,-0.0128011,0.0424993,0.0120905,-0.00109253,0,0,0,0,0,0,0,1.32465,-31.7491,1.08797,25.7568,1.65039,1.36864,0.050461,
0.0803511,-0.0556364,0.164985,-2.06622,0.277293,0.162313,-0.0423973,0.033283,-0.00485146,0.0351216,-0.00528521,0.194971,0.0526119,-0.00211836,0,0,0,0,0,0,0,3.03507,-0.056933,2.92801,-0.515731,0.103993,1.44174,-0.00959949,0.0734862,-0.0513998,0.157295,-2.0691,0.176754,0.156279,-0.0414038,0.0216477,0.0165801,0.0617496,-0.0128011,0.0424993,0.0120905,-0.00109253,0,0,0,0,0,0,0,1.32465,-31.7491,1.08797,25.7568,1.65039,1.36864,0.050461,
0.0803659,-0.055766,0.165028,-2.06613,0.279957,0.162009,-0.0424186,0.0269956,-0.00712335,0.0291729,-0.00192504,0.222566,0.0344983,-0.00222762,0,0,0,0,0,0,0,3.02307,-0.0143642,2.90633,-0.445486,0.195168,1.38911,-0.0107935,0.0734862,-0.0513998,0.157295,-2.0691,0.176754,0.156279,-0.0414038,0.0216477,0.0165801,0.0617496,-0.0128011,0.0424993,0.0120905,-0.00109253,0,0,0,0,0,0,0,1.32465,-31.7491,1.08797,25.7568,1.65039,1.36864,0.050461,
0.0803806,-0.0558961,0.165071,-2.06604,0.282613,0.161708,-0.04244,0.0219654,-0.00894945,0.0244167,0.000759234,0.244457,0.0200555,-0.00231494,0,0,0,0,0,0,0,3.01829,0.0305585,2.89512,-0.36806,0.288166,1.34368,-0.0122576,0.0747351,-0.0511977,0.159948,-2.06854,0.181506,0.156806,-0.0413942,0.0531997,0.0290695,0.116394,0.0233041,0.140476,0.036507,0.00157946,3.944,1.56117,6.83054,4.51315,12.2471,3.05206,0.333998,10.6319,-29.829,9.96278,21.5237,2.24823,0.221487,-0.0365141,
0.0803954,-0.0560264,0.165114,-2.06595,0.285261,0.161408,-0.0424613,0.017941,-0.0104187,0.0206146,0.00290253,0.261786,0.00854865,-0.0023847,0,0,0,0,0,0,0,3.03598,0.0591036,2.90247,-0.289154,0.416164,1.28842,-0.0139073,0.0747351,-0.0511977,0.159948,-2.06854,0.181506,0.156806,-0.0413942,0.0531997,0.0290695,0.116394,0.0233041,0.140476,0.036507,0.00157946,0,0,0,0,0,0,0,10.6319,-29.829,9.96278,21.5237,2.24823,0.221487,-0.0365141,
0.0877768,-0.0508068,0.172811,-2.07017,0.227864,0.200487,-0.0419032,0.0239449,-0.00917341,0.0261739,0.00214663,0.225522,0.03146,-0.00228732,0,0,0,0,0,0,0,4.7088,0.750076,4.51102,-1.23863,3.1785,3.9995,-0.021736,0.0747351,-0.0511977,0.159948,-2.06854,0.181506,0.156806,-0.0413942,0.0531997,0.0290695,0.116394,0.0233041,0.140476,0.036507,0.00157946,0,0,0,0,0,0,0,10.6319,-29.829,9.96278,21.5237,2.24823,0.221487,-0.0365141,
0.0881526,-0.0508417,0.173192,-2.07017,0.22846,0.201435,-0.0419184,0.0285524,-0.00821077,0.0304423,0.00156992,0.195312,0.0488623,-0.00220777,0,0,0,0,0,0,0,4.90417,0.861815,4.67406,-1.14859,3.26096,3.77226,-0.0255284,0.0747351,-0.0511977,0.159948,-2.06854,0.181506,0.156806,-0.0413942,0.0531997,0.0290695,0.116394,0.0233041,0.140476,0.036507,0.00157946,0,0,0,0,0,0,0,10.6319,-29.829,9.96278,21.5237,2.24823,0.221487,-0.0365141,
0.0885206,-0.0508779,0.173564,-2.07018,0.229011,0.202347,-0.0419334,0.0320422,-0.00747316,0.0336767,0.00113734,0.170042,0.0618944,-0.00214263,0,0,0,0,0,0,0,5.14095,0.91824,4.88337,-1.06083,3.33239,3.54076,-0.029506,0.0769601,-0.0514123,0.162853,-2.06796,0.184263,0.157563,-0.041398,0.0645851,-0.0135271,0.0640208,0.015721,0.0839301,0.000830598,0.00140518,1.42318,-5.32457,-6.54664,-0.947883,-7.06822,-4.45955,-0.0217845,-1.11126,-31.9515,-1.43523,26.6534,1.82708,1.86577,-0.0026396,
0.101045,-0.0540871,0.186807,-2.08165,0.300229,0.384395,-0.041568,0.03213,-0.00457837,0.0333437,-0.00203397,0.134713,0.0606771,-0.00190209,0,0,0,0,0,0,0,3.25328,0.0577339,3.13683,-0.601305,0.116458,1.43903,-0.011834,0.0769601,-0.0514123,0.162853,-2.06796,0.184263,0.157563,-0.041398,0.0645851,-0.0135271,0.0640208,0.015721,0.0839301,0.000830598,0.00140518,0,0,0,0,0,0,0,-1.11126,-31.9515,-1.43523,26.6534,1.82708,1.86577,-0.0026396,
0.0854726,-0.0561733,0.17213,-2.06506,0.284035,0.15833,-0.042474,0.0261128,-0.00697053,0.0278157,0.000570336,0.182162,0.0338778,-0.00211205,0,0,0,0,0,0,0,3.25802,0.106267,3.12991,-0.530667,0.224008,1.37678,-0.0133668,0.0769601,-0.0514123,0.162853,-2.06796,0.184263,0.157563,-0.041398,0.0645851,-0.0135271,0.0640208,0.015721,0.0839301,0.000830598,0.00140518,0,0,0,0,0,0,0,-1.11126,-31.9515,-1.43523,26.6534,1.82708,1.86577,-0.0026396,
0.085489,-0.0563062,0.172176,-2.06498,0.287003,0.157747,-0.0424977,0.0212994,-0.00889836,0.023397,0.00265457,0.219915,0.0125265,-0.00228008,0,0,0,0,0,0,0,3.27971,0.148714,3.1393,-0.455285,0.353141,1.31338,-0.0151547,0.0769601,-0.0514123,0.162853,-2.06796,0.184263,0.157563,-0.041398,0.0645851,-0.0135271,0.0640208,0.015721,0.0839301,0.000830598,0.00140518,0,0,0,0,0,0,0,-1.11126,-31.9515,-1.43523,26.6534,1.82708,1.86577,-0.0026396,
0.0855054,-0.0564396,0.172222,-2.06489,0.289962,0.157168,-0.0425213,0.0174491,-0.010454,0.0198655,0.00432203,0.249911,-0.00446899,-0.00241456,0,0,0,0,0,0,0,3.32045,0.172601,3.1742,-0.374923,0.494109,1.24777,-0.0172529,0.0795465,-0.0516437,0.166179,-2.0673,0.186827,0.157799,-0.041395,0.0846475,-0.00930876,0.119755,0.00141645,0.0251595,0.00878452,0.00159882,2.5078,0.527294,6.96673,-1.78807,-7.34632,0.994241,0.0242048,2.0586,-29.456,1.48866,25.4593,2.16308,1.54809,-0.0163725,
0.0931608,-0.0519966,0.17967,-2.06875,0.230251,0.195377,-0.0419912,0.0227329,-0.00938931,0.0248149,0.00349202,0.21598,0.0152897,-0.00236086,0,0,0,0,0,0,0,4.51821,0.606917,4.34537,-1.18391,2.46353,3.5494,-0.0186738,0.0795465,-0.0516437,0.166179,-2.0673,0.186827,0.157799,-0.041395,0.0846475,-0.00930876,0.119755,0.00141645,0.0251595,0.00878452,0.00159882,0,0,0,0,0,0,0,2.0586,-29.456,1.48866,25.4593,2.16308,1.54809,-0.0163725,
0.0935037,-0.0520391,0.18002,-2.06874,0.230857,0.196104,-0.0420083,0.026759,-0.00857358,0.0285897,0.00286174,0.187944,0.0304147,-0.00231688,0,0,0,0,0,0,0,4.67001,0.721981,4.46835,-1.10703,2.56709,3.34892,-0.0222058,0.0795465,-0.0516437,0.166179,-2.0673,0.186827,0.157799,-0.041395,0.0846475,-0.00930876,0.119755,0.00141645,0.0251595,0.00878452,0.00159882,0,0,0,0,0,0,0,2.0586,-29.456,1.48866,25.4593,2.16308,1.54809,-0.0163725,
0.0938386,-0.052083,0.180362,-2.06874,0.231431,0.196805,-0.0420254,0.0297788,-0.00795695,0.0314241,0.00239197,0.164709,0.0418588,-0.00228078,0,0,0,0,0,0,0,4.85712,0.81514,4.6248,-1.0161,2.68578,3.15735,-0.0262046,0.0795465,-0.0516437,0.166179,-2.0673,0.186827,0.157799,-0.041395,0.0846475,-0.00930876,0.119755,0.00141645,0.0251595,0.00878452,0.00159882,0,0,0,0,0,0,0,2.0586,-29.456,1.48866,25.4593,2.16308,1.54809,-0.0163725,
0.0941654,-0.0521284,0.180696,-2.06873,0.231976,0.197481,-0.0420424,0.0319931,-0.00749954,0.0335056,0.0020516,0.145392,0.0503823,-0.00225103,0,0,0,0,0,0,0,5.07706,0.837446,4.8214,-0.933291,2.78902,2.95655,-0.0302899,0.0820802,-0.0521088,0.16958,-2.06689,0.189104,0.158782,-0.0414022,0.062683,-0.0197126,0.0559946,0.0305506,0.0857253,0.00576082,-0.000481137,-2.74556,-1.30048,-7.97001,3.64177,7.57073,-0.377963,-0.259995,-4.61041,-31.8999,-4.61302,26.2289,1.35101,1.64696,0.0641939,
0.0911854,-0.0565226,0.179344,-2.06453,0.275935,0.160732,-0.0424728,0.0259938,-0.00929202,0.027956,0.00366908,0.19884,0.0182221,-0.00243729,0,0,0,0,0,0,0,3.36084,0.0819136,3.25199,-0.694221,0.12372,1.55642,-0.0135703,0.0820802,-0.0521088,0.16958,-2.06689,0.189104,0.158782,-0.0414022,0.062683,-0.0197126,0.0559946,0.0305506,0.0857253,0.00576082,-0.000481137,0,0,0,0,0,0,0,-4.61041,-31.8999,-4.61302,26.2289,1.35101,1.64696,0.0641939,
0.0912019,-0.0566552,0.179391,-2.06445,0.279228,0.159855,-0.0424983,0.0212068,-0.0107507,0.0235323,0.00497521,0.241395,-0.00734791,-0.00258688,0,0,0,0,0,0,0,3.36184,0.131646,3.24199,-0.627818,0.21031,1.49254,-0.0149792,0.0820802,-0.0521088,0.16958,-2.06689,0.189104,0.158782,-0.0414022,0.062683,-0.0197126,0.0559946,0.0305506,0.0857253,0.00576082,-0.000481137,0,0,0,0,0,0,0,-4.61041,-31.8999,-4.61302,26.2289,1.35101,1.64696,0.0641939,
0.0912187,-0.0567889,0.179438,-2.06437,0.282512,0.158984,-0.0425238,0.0173865,-0.0119407,0.0200061,0.00602981,0.275231,-0.0276592,-0.00270699,0,0,0,0,0,0,0,3.37897,0.176307,3.24761,-0.55743,0.319663,1.42846,-0.0166748,0.0820802,-0.0521088,0.16958,-2.06689,0.189104,0.158782,-0.0414022,0.062683,-0.0197126,0.0559946,0.0305506,0.0857253,0.00576082,-0.000481137,0,0,0,0,0,0,0,-4.61041,-31.8999,-4.61302,26.2289,1.35101,1.64696,0.0641939,
0.0987131,-0.0527954,0.188173,-2.06723,0.23549,0.191826,-0.0421064,0.0213524,-0.0108548,0.0236863,0.00513595,0.236184,-0.00861984,-0.00264067,0,0,0,0,0,0,0,4.45549,0.629741,4.26609,-1.06828,2.03462,3.0338,-0.0212473,0.0845579,-0.0519263,0.174043,-2.06625,0.192136,0.159479,-0.0413987,0.0722154,-0.00182139,0.148445,0.014158,0.0418385,0.0376559,0.00131982,1.19155,2.2364,11.5563,-2.04908,-5.48586,3.98688,0.225119,-0.702633,-31.7015,-1.10991,25.983,1.70532,1.6607,0.00376909,
0.0990027,-0.0528491,0.188473,-2.06722,0.236109,0.192348,-0.0421254,0.0243216,-0.0100257,0.0264425,0.0044604,0.20443,0.00615133,-0.00258725,0,0,0,0,0,0,0,4.60587,0.717299,4.39019,-0.986687,2.15446,2.86712,-0.024805,0.0845579,-0.0519263,0.174043,-2.06625,0.192136,0.159479,-0.0413987,0.0722154,-0.00182139,0.148445,0.014158,0.0418385,0.0376559,0.00131982,0,0,0,0,0,0,0,-0.702633,-31.7015,-1.10991,25.983,1.70532,1.6607,0.00376909,
0.0992841,-0.0529044,0.188765,-2.0672,0.236711,0.192852,-0.0421444,0.026493,-0.00940245,0.0284588,0.0039601,0.178581,0.0175223,-0.0025443,0,0,0,0,0,0,0,4.78885,0.779802,4.54575,-0.89155,2.28398,2.7042,-0.028679,0.0845579,-0.0519263,0.174043,-2.06625,0.192136,0.159479,-0.0413987,0.0722154,-0.00182139,0.148445,0.014158,0.0418385,0.0376559,0.00131982,0,0,0,0,0,0,0,-0.702633,-31.7015,-1.10991,25.983,1.70532,1.6607,0.00376909,
0.0995574,-0.0529613,0.18905,-2.06719,0.237297,0.193339,-0.0421634,0.0280258,-0.00894417,0.0298827,0.0036008,0.15753,0.0261851,-0.00250976,0,0,0,0,0,0,0,5.00311,0.804543,4.73251,-0.782115,2.40507,2.54031,-0.0326996,0.0845579,-0.0519263,0.174043,-2.06625,0.192136,0.159479,-0.0413987,0.0722154,-0.00182139,0.148445,0.014158,0.0418385,0.0376559,0.00131982,0,0,0,0,0,0,0,-0.702633,-31.7015,-1.10991,25.983,1.70532,1.6607,0.00376909,
0.0956042,-0.0554079,0.18565,-2.06468,0.267341,0.164757,-0.0425095,0.0224779,-0.0103564,0.0247063,0.00474151,0.215729,-0.00839162,-0.00267474,0,0,0,0,0,0,0,3.49333,0.175562,3.37675,-0.71899,0.233986,1.66296,-0.0161061,0.0862869,-0.0523296,0.178454,-2.06566,0.195777,0.159733,-0.0413942,0.048413,-0.000885572,0.142586,0.0196667,0.157533,0.00969843,0.00251554,-2.97529,0.116977,-0.732398,0.688595,14.4618,-3.49468,0.149466,4.34375,-29.3807,3.73811,23.7891,1.93145,1.0244,-0.0365141,
0.0956108,-0.0555367,0.185686,-2.0646,0.270924,0.163599,-0.0425363,0.0181475,-0.0115047,0.0206786,0.00567014,0.26217,-0.0356546,-0.0028102,0,0,0,0,0,0,0,3.50894,0.224984,3.38086,-0.653411,0.323556,1.59421,-0.017737,0.0862869,-0.0523296,0.178454,-2.06566,0.195777,0.159733,-0.0413942,0.048413,-0.000885572,0.142586,0.0196667,0.157533,0.00969843,0.00251554,0,0,0,0,0,0,0,4.34375,-29.3807,3.73811,23.7891,1.93145,1.0244,-0.0365141,
0.0956205,-0.0556664,0.185726,-2.06453,0.274502,0.162453,-0.0425632,0.0147623,-0.0124459,0.0175405,0.00643376,0.299194,-0.0571655,-0.00292128,0,0,0,0,0,0,0,3.54181,0.267698,3.40179,-0.583167,0.435368,1.5254,-0.0196259,0.0862869,-0.0523296,0.178454,-2.06566,0.195777,0.159733,-0.0413942,0.048413,-0.000885572,0.142586,0.0196667,0.157533,0.00969843,0.00251554,0,0,0,0,0,0,0,4.34375,-29.3807,3.73811,23.7891,1.93145,1.0244,-0.0365141,
0.0956327,-0.0557971,0.185768,-2.06445,0.278075,0.161317,-0.0425902,0.0121128,-0.0132243,0.0150931,0.00706377,0.328669,-0.0741336,-0.00301213,0,0,0,0,0,0,0,3.5933,0.299914,3.44104,-0.50711,0.567731,1.45587,-0.021825,0.0862869,-0.0523296,0.178454,-2.06566,0.195777,0.159733,-0.0413942,0.048413,-0.000885572,0.142586,0.0196667,0.157533,0.00969843,0.00251554,0,0,0,0,0,0,0,4.34375,-29.3807,3.73811,23.7891,1.93145,1.0244,-0.0365141,
0.100202,-0.0535821,0.192408,-2.06635,0.241343,0.187964,-0.0421714,0.0162161,-0.012075,0.018893,0.00616163,0.281055,-0.049057,-0.00292715,0,0,0,0,0,0,0,4.23254,0.453606,4.07639,-1.0324,1.57883,2.78598,-0.0202321,0.0880403,-0.0523923,0.183357,-2.0652,0.198851,0.159928,-0.0414039,0.0364761,-0.00624767,0.129654,0.0131216,0.0578875,-0.00285944,-6.61452e-05,-1.49212,-0.670263,-1.61651,-0.818146,-12.4557,-1.56973,-0.322711,-2.20227,-31.7015,-2.56194,26.8518,1.58905,1.80627,0.050461,
0.100454,-0.0536436,0.192673,-2.06632,0.242055,0.18836,-0.0421921,0.0192937,-0.0111988,0.0217439,0.00548237,0.242642,-0.0293386,-0.00285937,0,0,0,0,0,0,0,4.34899,0.53963,4.1702,-0.959544,1.69255,2.63874,-0.0233565,0.0880403,-0.0523923,0.183357,-2.0652,0.198851,0.159928,-0.0414039,0.0364761,-0.00624767,0.129654,0.0131216,0.0578875,-0.00285944,-6.61452e-05,0,0,0,0,0,0,0,-2.20227,-31.7015,-2.56194,26.8518,1.58905,1.80627,0.050461,
0.100699,-0.0537069,0.192931,-2.0663,0.242758,0.188743,-0.0422129,0.0215505,-0.0105414,0.0238349,0.00498189,0.21167,-0.0139045,-0.00280553,0,0,0,0,0,0,0,4.49543,0.60791,4.29284,-0.875445,1.82624,2.496,-0.0268668,0.0880403,-0.0523923,0.183357,-2.0652,0.198851,0.159928,-0.0414039,0.0364761,-0.00624767,0.129654,0.0131216,0.0578875,-0.00285944,-6.61452e-05,0,0,0,0,0,0,0,-2.20227,-31.7015,-2.56194,26.8518,1.58905,1.80627,0.050461,
0.108328,-0.0545437,0.200872,-2.07549,0.294328,0.370128,-0.0417041,0.0243764,-0.00689394,0.0260551,0.00114215,0.173463,0.0077493,-0.00256278,0,0,0,0,0,0,0,3.60004,0.231115,3.47393,-0.735992,0.334487,1.73079,-0.0180661,0.0880403,-0.0523923,0.183357,-2.0652,0.198851,0.159928,-0.0414039,0.0364761,-0.00624767,0.129654,0.0131216,0.0578875,-0.00285944,-6.61452e-05,0,0,0,0,0,0,0,-2.20227,-31.7015,-2.56194,26.8518,1.58905,1.80627,0.050461,
0.0992143,-0.0558326,0.195081,-2.06394,0.268804,0.166376,-0.042538,0.019185,-0.00865726,0.021213,0.00309006,0.230081,-0.0278977,-0.00274489,0,0,0,0,0,0,0,3.62748,0.28068,3.48924,-0.670835,0.427027,1.65725,-0.0198762,0.0880403,-0.0523923,0.183357,-2.0652,0.198851,0.159928,-0.0414039,0.0364761,-0.00624767,0.129654,0.0131216,0.0578875,-0.00285944,-6.61452e-05,0,0,0,0,0,0,0,-2.20227,-31.7015,-2.56194,26.8518,1.58905,1.80627,0.050461,
0.0991992,-0.0559633,0.195098,-2.06386,0.272602,0.164954,-0.042568,0.0149695,-0.0101944,0.0173983,0.00446651,0.279017,-0.0578563,-0.00294657,0,0,0,0,0,0,0,3.67282,0.292407,3.53175,-0.602766,0.528892,1.5876,-0.0219573,0.0891158,-0.0527176,0.187752,-2.06481,0.202984,0.160005,-0.0414039,0.0501775,0.00133598,0.146192,0.00330061,0.11154,0.00771159,-0.000692253,1.71268,0.947957,2.06733,-1.22762,6.70656,1.32138,-0.0782635,1.88404,-30.678,1.28633,25.0348,2.45605,1.17638,0.050461,
0.099193,-0.0560968,0.195123,-2.06379,0.276409,0.16356,-0.0425962,0.0118208,-0.0114916,0.0145455,0.00540678,0.318375,-0.0811493,-0.00306106,0,0,0,0,0,0,0,3.73798,0.321452,3.58417,-0.526018,0.663816,1.51361,-0.0243511,0.0891158,-0.0527176,0.187752,-2.06481,0.202984,0.160005,-0.0414039,0.0501775,0.00133598,0.146192,0.00330061,0.11154,0.00771159,-0.000692253,0,0,0,0,0,0,0,1.88404,-30.678,1.28633,25.0348,2.45605,1.17638,0.050461,
0.102944,-0.054231,0.201717,-2.06541,0.249647,0.18364,-0.0422778,0.0150545,-0.0109788,0.0175994,0.00506859,0.275397,-0.0571843,-0.00300831,0,0,0,0,0,0,0,4.196,0.481205,4.02708,-0.901124,1.37157,2.54321,-0.0226362,0.0891158,-0.0527176,0.187752,-2.06481,0.202984,0.160005,-0.0414039,0.0501775,0.00133598,0.146192,0.00330061,0.11154,0.00771159,-0.000692253,0,0,0,0,0,0,0,1.88404,-30.678,1.28633,25.0348,2.45605,1.17638,0.050461,
0.10316,-0.0543043,0.201948,-2.06538,0.250473,0.183938,-0.0423002,0.0174358,-0.0106149,0.019853,0.00484195,0.240959,-0.0383067,-0.00296703,0,0,0,0,0,0,0,4.31151,0.547866,4.12204,-0.826049,1.49323,2.41136,-0.0257468,0.0891158,-0.0527176,0.187752,-2.06481,0.202984,0.160005,-0.0414039,0.0501775,0.00133598,0.146192,0.00330061,0.11154,0.00771159,-0.000692253,0,0,0,0,0,0,0,1.88404,-30.678,1.28633,25.0348,2.45605,1.17638,0.050461,
0.103367,-0.0543794,0.202172,-2.06534,0.2513,0.184223,-0.0423227,0.0191345,-0.0103707,0.0214652,0.004705,0.213446,-0.0235154,-0.00293517,0,0,0,0,0,0,0,4.45578,0.555531,4.25283,-0.757537,1.6216,2.27133,-0.0291071,0.0908366,-0.0527708,0.192366,-2.06456,0.205585,0.160645,-0.0414005,0.0518503,-0.0164027,0.0879892,0.00876808,0.076448,0.0130633,0.000394136,0.209097,-2.21734,-7.2754,0.683433,-4.38649,0.668968,0.135799,-1.99597,-31.1501,-2.23662,26.6058,1.97998,1.70739,0.0303194,
0.103567,-0.0544565,0.202387,-2.06531,0.252133,0.184495,-0.0423452,0.0202861,-0.0102228,0.0225633,0.00464049,0.191576,-0.0120159,-0.00291095,0,0,0,0,0,0,0,4.6264,0.571666,4.40236,-0.659703,1.76376,2.14019,-0.0327815,0.0908366,-0.0527708,0.192366,-2.06456,0.205585,0.160645,-0.0414005,0.0518503,-0.0164027,0.0879892,0.00876808,0.076448,0.0130633,0.000394136,0,0,0,0,0,0,0,-1.99597,-31.1501,-2.23662,26.6058,1.97998,1.70739,0.0303194,
0.110004,-0.0546357,0.20896,-2.07393,0.291224,0.36619,-0.0417355,0.0235053,-0.00659061,0.0251583,0.00102857,0.159613,0.011625,-0.00269708,0,0,0,0,0,0,0,3.6983,0.281297,3.56706,-0.716009,0.421293,1.81925,-0.0203361,0.0908366,-0.0527708,0.192366,-2.06456,0.205585,0.160645,-0.0414005,0.0518503,-0.0164027,0.0879892,0.00876808,0.076448,0.0130633,0.000394136,0,0,0,0,0,0,0,-1.99597,-31.1501,-2.23662,26.6058,1.97998,1.70739,0.0303194,
0.10236,-0.056202,0.204397,-2.06352,0.267766,0.171142,-0.0425385,0.0193547,-0.00829868,0.0213631,0.00287015,0.196889,-0.0129602,-0.00280806,0,0,0,0,0,0,0,3.73695,0.326079,3.59371,-0.651483,0.514749,1.74121,-0.0222976,0.0908366,-0.0527708,0.192366,-2.06456,0.205585,0.160645,-0.0414005,0.0518503,-0.0164027,0.0879892,0.00876808,0.076448,0.0130633,0.000394136,0,0,0,0,0,0,0,-1.99597,-31.1501,-2.23662,26.6058,1.97998,1.70739,0.0303194,
0.10237,-0.0563261,0.204435,-2.06344,0.270803,0.170086,-0.0425648,0.0157377,-0.00974154,0.0180492,0.00439786,0.233435,-0.0367588,-0.00290525,0,0,0,0,0,0,0,3.79354,0.345811,3.6446,-0.581462,0.621401,1.66575,-0.0245239,0.0931181,-0.0528946,0.195749,-2.0642,0.208517,0.160687,-0.0413984,0.0861954,0.00448765,0.108285,0.0054309,0.0424826,0.000735446,-7.62161e-05,4.29313,2.6113,2.537,-0.417147,-4.24568,-1.54099,-0.058794,-2.86084,-31.2532,-3.11339,26.4551,2.04681,1.6607,0.0303194,
0.10237,-0.0564529,0.204463,-2.06335,0.274117,0.168863,-0.0425917,0.0125704,-0.0109636,0.0151401,0.00565579,0.269618,-0.0599763,-0.0029963,0,0,0,0,0,0,0,3.87009,0.365768,3.70893,-0.504524,0.754524,1.5875,-0.0270451,0.0931181,-0.0528946,0.195749,-2.0642,0.208517,0.160687,-0.0413984,0.0861954,0.00448765,0.108285,0.0054309,0.0424826,0.000735446,-7.62161e-05,0,0,0,0,0,0,0,-2.86084,-31.2532,-3.11339,26.4551,2.04681,1.6607,0.0303194,
0.110979,-0.054481,0.213699,-2.065,0.21665,0.209435,-0.0423691,0.0133759,-0.010695,0.0158773,0.00582801,0.226979,-0.0362897,-0.00297909,0,0,0,0,0,0,0,6.72353,1.17037,6.24909,-0.821243,1.47851,3.12974,-0.0452377,0.0931181,-0.0528946,0.195749,-2.0642,0.208517,0.160687,-0.0413984,0.0861954,0.00448765,0.108285,0.0054309,0.0424826,0.000735446,-7.62161e-05,0,0,0,0,0,0,0,-2.86084,-31.2532,-3.11339,26.4551,2.04681,1.6607,0.0303194,
0.111097,-0.0545617,0.213836,-2.06494,0.217275,0.209793,-0.0423927,0.0136554,-0.0105733,0.0161236,0.00607484,0.197212,-0.0200605,-0.00297452,0,0,0,0,0,0,0,7.02579,0.928708,6.54969,-0.669756,1.42823,2.91591,-0.0468664,0.0931181,-0.0528946,0.195749,-2.0642,0.208517,0.160687,-0.0413984,0.0861954,0.00448765,0.108285,0.0054309,0.0424826,0.000735446,-7.62161e-05,0,0,0,0,0,0,0,-2.86084,-31.2532,-3.11339,26.4551,2.04681,1.6607,0.0303194,
0.111201,-0.0546464,0.213958,-2.06488,0.218103,0.210024,-0.0424168,0.0135004,-0.0105749,0.0159639,0.00638906,0.178475,-0.0102716,-0.00298078,0,0,0,0,0,0,0,7.28394,0.542604,6.83933,-0.554472,1.29751,2.65722,-0.0455315,0.0958885,-0.0529531,0.199627,-2.0639,0.209936,0.161756,-0.041408,0.0704488,-0.00839243,0.0830753,0.0146901,0.0402697,0.0178563,-0.000898835,-1.96832,-1.61001,-3.15124,1.15739,-0.276604,2.14011,-0.102827,-5.37213,-31.277,-5.41045,26.0544,1.6806,1.59386,0.0907442,
0.111288,-0.0547352,0.214066,-2.06482,0.219167,0.210106,-0.0424413,0.0129832,-0.010681,0.0154652,0.00676437,0.169379,-0.00616941,-0.00299611,0,0,0,0,0,0,0,7.45737,0.0788612,7.07635,-0.46881,1.12124,2.36693,-0.0406751,0.0958885,-0.0529531,0.199627,-2.0639,0.209936,0.161756,-0.041408,0.0704488,-0.00839243,0.0830753,0.0146901,0.0402697,0.0178563,-0.000898835,0,0,0,0,0,0,0,-5.37213,-31.277,-5.41045,26.0544,1.6806,1.59386,0.0907442,
0.107972,-0.0563589,0.212196,-2.06358,0.268974,0.172018,-0.0425379,0.0127495,-0.0111192,0.0153112,0.00683805,0.174061,-0.00916241,-0.00304516,0,0,0,0,0,0,0,3.923,0.257799,3.78801,-0.815848,0.802689,2.19362,-0.0303863,0.0958885,-0.0529531,0.199627,-2.0639,0.209936,0.161756,-0.041408,0.0704488,-0.00839243,0.0830753,0.0146901,0.0402697,0.0178563,-0.000898835,0,0,0,0,0,0,0,-5.37213,-31.277,-5.41045,26.0544,1.6806,1.59386,0.0907442,
0.108056,-0.0564647,0.212304,-2.06352,0.270632,0.171777,-0.042564,0.0123128,-0.0115411,0.0149579,0.00697064,0.180704,-0.0133455,-0.00308983,0,0,0,0,0,0,0,4.06329,0.320156,3.89958,-0.703757,1.08302,2.0757,-0.0348472,0.0958885,-0.0529531,0.199627,-2.0639,0.209936,0.161756,-0.041408,0.0704488,-0.00839243,0.0830753,0.0146901,0.0402697,0.0178563,-0.000898835,0,0,0,0,0,0,0,-5.37213,-31.277,-5.41045,26.0544,1.6806,1.59386,0.0907442,
0.108131,-0.0565735,0.212403,-2.06345,0.272427,0.171451,-0.0425904,0.0117041,-0.011953,0.0144358,0.00715386,0.18944,-0.0188232,-0.00313137,0,0,0,0,0,0,0,4.24655,0.331365,4.05806,-0.570101,1.3575,1.94389,-0.0400016,0.0984137,-0.0530837,0.203809,-2.06359,0.211045,0.16231,-0.0414029,0.0862009,0.00587778,0.131509,0.0124877,-0.00134756,0.0259526,-0.000414648,1.96901,1.78378,6.0542,-0.275297,-5.20216,1.01204,0.0605234,-2.50378,-31.4992,-2.7603,25.7568,1.84539,1.77331,0.0706026,
0.108194,-0.0566854,0.212492,-2.06339,0.274383,0.171025,-0.042617,0.010947,-0.01236,0.0137685,0.00738074,0.200435,-0.0257225,-0.00317058,0,0,0,0,0,0,0,4.47454,0.299696,4.25214,-0.413319,1.59072,1.78208,-0.0449994,0.0984137,-0.0530837,0.203809,-2.06359,0.211045,0.16231,-0.0414029,0.0862009,0.00587778,0.131509,0.0124877,-0.00134756,0.0259526,-0.000414648,0,0,0,0,0,0,0,-2.50378,-31.4992,-2.7603,25.7568,1.84539,1.77331,0.0706026,
0.115362,-0.0554384,0.221007,-2.06377,0.22604,0.206967,-0.0425037,0.0104313,-0.0123372,0.013243,0.00773337,0.196249,-0.0231217,-0.00320178,0,0,0,0,0,0,0,6.25399,1.10327,5.81854,-0.75829,1.0827,2.94195,-0.0427273,0.0984137,-0.0530837,0.203809,-2.06359,0.211045,0.16231,-0.0414029,0.0862009,0.00587778,0.131509,0.0124877,-0.00134756,0.0259526,-0.000414648,0,0,0,0,0,0,0,-2.50378,-31.4992,-2.7603,25.7568,1.84539,1.77331,0.0706026,
0.115412,-0.0555411,0.22108,-2.06369,0.227791,0.206658,-0.0425307,0.00959814,-0.012436,0.012425,0.00814714,0.200769,-0.0262247,-0.00323803,0,0,0,0,0,0,0,6.52543,0.907288,6.08501,-0.609932,1.09598,2.77689,-0.0453764,0.0984137,-0.0530837,0.203809,-2.06359,0.211045,0.16231,-0.0414029,0.0862009,0.00587778,0.131509,0.0124877,-0.00134756,0.0259526,-0.000414648,0,0,0,0,0,0,0,-2.50378,-31.4992,-2.7603,25.7568,1.84539,1.77331,0.0706026,
0.115445,-0.0556485,0.221137,-2.06361,0.229896,0.206116,-0.0425582,0.00850003,-0.0126343,0.0113619,0.00860602,0.213237,-0.0345291,-0.00327819,0,0,0,0,0,0,0,6.77817,0.566401,6.35967,-0.479871,1.04514,2.57546,-0.0459376,0.100625,-0.0533943,0.207898,-2.06327,0.211617,0.162703,-0.0414047,0.0585909,-0.0144151,0.111899,0.0129375,0.0323273,0.00180915,-0.000721642,-3.45125,-2.53661,-2.45124,0.0562307,4.20936,-3.01794,-0.0383743,-0.984311,-30.7533,-1.43523,25.7806,1.98639,1.58105,0.0577852,
0.11546,-0.0557606,0.221177,-2.06352,0.232391,0.205319,-0.0425862,0.00718654,-0.0129104,0.0100985,0.00908918,0.232973,-0.0475562,-0.00332158,0,0,0,0,0,0,0,6.97204,0.16791,6.59525,-0.365275,0.937353,2.3385,-0.0435311,0.100625,-0.0533943,0.207898,-2.06327,0.211617,0.162703,-0.0414047,0.0585909,-0.0144151,0.111899,0.0129375,0.0323273,0.00180915,-0.000721642,0,0,0,0,0,0,0,-0.984311,-30.7533,-1.43523,25.7806,1.98639,1.58105,0.0577852,
0.112985,-0.0571339,0.220796,-2.06294,0.273118,0.170171,-0.0425638,0.00849959,-0.0129394,0.011411,0.008569,0.222894,-0.0405272,-0.00333171,0,0,0,0,0,0,0,4.19452,0.350997,4.02096,-0.639274,1.16404,2.22314,-0.0380117,0.100625,-0.0533943,0.207898,-2.06327,0.211617,0.162703,-0.0414047,0.0585909,-0.0144151,0.111899,0.0129375,0.0323273,0.00180915,-0.000721642,0,0,0,0,0,0,0,-0.984311,-30.7533,-1.43523,25.7806,1.98639,1.58105,0.0577852,
0.113086,-0.057241,0.220921,-2.06289,0.274662,0.170021,-0.042591,0.00932093,-0.0130291,0.0122507,0.00821735,0.216918,-0.036186,-0.0033449,0,0,0,0,0,0,0,4.39955,0.357061,4.19356,-0.500673,1.42467,2.08215,-0.0432815,0.100625,-0.0533943,0.207898,-2.06327,0.211617,0.162703,-0.0414047,0.0585909,-0.0144151,0.111899,0.0129375,0.0323273,0.00180915,-0.000721642,0,0,0,0,0,0,0,-0.984311,-30.7533,-1.43523,25.7806,1.98639,1.58105,0.0577852,
0.113177,-0.0573509,0.221037,-2.06283,0.276306,0.169808,-0.0426184,0.00974104,-0.0131699,0.0127046,0.00800385,0.214643,-0.0342645,-0.00336107,0,0,0,0,0,0,0,4.64211,0.262962,4.41207,-0.345626,1.63036,1.90151,-0.0480023,0.102666,-0.0536064,0.212288,-2.06304,0.212159,0.163102,-0.0414038,0.0763682,-0.00479616,0.115696,0.0144305,0.00175468,0.0120035,0.000308919,2.22217,1.20237,0.474592,0.18662,-3.82158,1.27429,0.12882,-2.55536,-31.4754,-2.71269,25.6815,1.63757,1.80627,0.050461,
0.121936,-0.0529572,0.229002,-2.07311,0.285871,0.436528,-0.041449,0.0183786,-0.00677657,0.019989,0.00350976,0.185792,0.0138807,-0.00343397,0,0,0,0,0,0,0,5.91668,1.0711,5.51289,-0.75099,0.840208,2.99616,-0.0405649,0.102666,-0.0536064,0.212288,-2.06304,0.212159,0.163102,-0.0414038,0.0763682,-0.00479616,0.115696,0.0144305,0.00175468,0.0120035,0.000308919,0,0,0,0,0,0,0,-2.55536,-31.4754,-2.71269,25.6815,1.63757,1.80627,0.050461,
0.118921,-0.0564782,0.228855,-2.06294,0.230868,0.207006,-0.0425847,0.0158372,-0.00810496,0.017729,0.00478241,0.194544,0.00263048,-0.00346334,0,0,0,0,0,0,0,6.15969,0.92451,5.74848,-0.614474,0.894149,2.85551,-0.0438416,0.102666,-0.0536064,0.212288,-2.06304,0.212159,0.163102,-0.0414038,0.0763682,-0.00479616,0.115696,0.0144305,0.00175468,0.0120035,0.000308919,0,0,0,0,0,0,0,-2.55536,-31.4754,-2.71269,25.6815,1.63757,1.80627,0.050461,
0.118949,-0.0565904,0.228908,-2.06285,0.233068,0.206423,-0.0426138,0.0133748,-0.00928894,0.0155149,0.00593018,0.21063,-0.012478,-0.00349865,0,0,0,0,0,0,0,6.39749,0.696552,5.99072,-0.476446,0.899917,2.69417,-0.0458658,0.102666,-0.0536064,0.212288,-2.06304,0.212159,0.163102,-0.0414038,0.0763682,-0.00479616,0.115696,0.0144305,0.00175468,0.0120035,0.000308919,0,0,0,0,0,0,0,-2.55536,-31.4754,-2.71269,25.6815,1.63757,1.80627,0.050461,
0.11896,-0.0567074,0.228945,-2.06276,0.23567,0.205571,-0.0426434,0.0109714,-0.0103559,0.0133322,0.00696635,0.233542,-0.0312837,-0.0035386,0,0,0,0,0,0,0,6.60613,0.377291,6.22275,-0.349037,0.851663,2.4982,-0.0456832,0.102666,-0.0536064,0.212288,-2.06304,0.212159,0.163102,-0.0414038,0.0763682,-0.00479616,0.115696,0.0144305,0.00175468,0.0120035,0.000308919,0,0,0,0,0,0,0,-2.55536,-31.4754,-2.71269,25.6815,1.63757,1.80627,0.050461,
0.124797,-0.054576,0.234625,-2.07429,0.279839,0.442983,-0.041906,0.0200863,-0.00528213,0.0211449,0.0033676,0.209837,0.0158734,-0.00374157,0,0,0,0,0,0,0,6.60573,0.637614,6.14149,-0.510968,1.39662,3.02584,-0.0601399,0.105031,-0.0541056,0.216196,-2.06279,0.213083,0.163464,-0.0414054,0.0938433,0.00389191,0.143125,0.0141349,0.057653,0.068407,-0.000834879,2.18438,1.08601,3.4287,-0.0369457,6.98729,7.05044,-0.142975,2.74494,-29.4798,2.1869,26.1298,2.44415,2.4627,0.0641939,
0.121445,-0.0575955,0.233077,-2.06303,0.237217,0.201403,-0.0425872,0.0170827,-0.00691198,0.0185362,0.00457793,0.213801,0.00367418,-0.00371492,0,0,0,0,0,0,0,6.94662,0.149425,6.49926,-0.323283,1.20292,2.67343,-0.0552602,0.105031,-0.0541056,0.216196,-2.06279,0.213083,0.163464,-0.0414054,0.0938433,0.00389191,0.143125,0.0141349,0.057653,0.068407,-0.000834879,0,0,0,0,0,0,0,2.74494,-29.4798,2.1869,26.1298,2.44415,2.4627,0.0641939,
0.121468,-0.057708,0.233125,-2.06295,0.239425,0.200794,-0.0426165,0.0142554,-0.00834286,0.0160492,0.0056843,0.226253,-0.0122835,-0.00370575,0,0,0,0,0,0,0,7.13302,-0.54517,6.77988,-0.230109,0.97227,2.22672,-0.0432089,0.105031,-0.0541056,0.216196,-2.06279,0.213083,0.163464,-0.0414054,0.0938433,0.00389191,0.143125,0.0141349,0.057653,0.068407,-0.000834879,0,0,0,0,0,0,0,2.74494,-29.4798,2.1869,26.1298,2.44415,2.4627,0.0641939,
0.121474,-0.0578256,0.233158,-2.06286,0.242045,0.199912,-0.0426464,0.011564,-0.00961355,0.0136536,0.00669652,0.246491,-0.0318862,-0.00371082,0,0,0,0,0,0,0,7.09143,-1.35907,6.92343,-0.267252,0.844961,1.70203,-0.0277829,0.105031,-0.0541056,0.216196,-2.06279,0.213083,0.163464,-0.0414054,0.0938433,0.00389191,0.143125,0.0141349,0.057653,0.068407,-0.000834879,0,0,0,0,0,0,0,2.74494,-29.4798,2.1869,26.1298,2.44415,2.4627,0.0641939,
0.124146,-0.0575427,0.237594,-2.0627,0.237046,0.20561,-0.0425807,0.0106151,-0.0102786,0.0128762,0.00709846,0.235989,-0.0294472,-0.00370139,0,0,0,0,0,0,0,6.60274,0.530807,6.13744,-0.471723,1.25729,3.02433,-0.058966,0.107965,-0.0541097,0.220917,-2.06247,0.213616,0.166511,-0.0414015,0.0878818,0.016113,0.164712,0.0133205,0.0172141,0.149979,0.000299278,-0.745184,1.52764,2.69833,-0.1018,-5.05487,10.1965,0.14177,4.82379,-30.4042,4.21419,26.4035,2.04681,2.29058,0.0101778,
0.124184,-0.0576511,0.237657,-2.06262,0.238931,0.205227,-0.0426106,0.00944533,-0.0109344,0.0118678,0.00756155,0.23591,-0.0331322,-0.00370654,0,0,0,0,0,0,0,6.91291,-0.0121259,6.47985,-0.294921,1.04852,2.66302,-0.0523613,0.107965,-0.0541097,0.220917,-2.06247,0.213616,0.166511,-0.0414015,0.0878818,0.016113,0.164712,0.0133205,0.0172141,0.149979,0.000299278,0,0,0,0,0,0,0,4.82379,-30.4042,4.21419,26.4035,2.04681,2.29058,0.0101778,
0.124206,-0.0577647,0.237703,-2.06254,0.241192,0.204589,-0.0426409,0.00808574,-0.0115858,0.0106612,0.00807063,0.245252,-0.0424514,-0.00372332,0,0,0,0,0,0,0,7.04908,-0.749526,6.73077,-0.221347,0.838507,2.20877,-0.0392447,0.107965,-0.0541097,0.220917,-2.06247,0.213616,0.166511,-0.0414015,0.0878818,0.016113,0.164712,0.0133205,0.0172141,0.149979,0.000299278,0,0,0,0,0,0,0,4.82379,-30.4042,4.21419,26.4035,2.04681,2.29058,0.0101778,
0.12421,-0.0578833,0.237734,-2.06246,0.24387,0.20367,-0.0426717,0.00656884,-0.012233,0.00928964,0.00860556,0.263152,-0.0569422,-0.00374946,0,0,0,0,0,0,0,6.95349,-1.57407,6.83615,-0.275385,0.766924,1.6786,-0.0242869,0.107965,-0.0541097,0.220917,-2.06247,0.213616,0.166511,-0.0414015,0.0878818,0.016113,0.164712,0.0133205,0.0172141,0.149979,0.000299278,0,0,0,0,0,0,0,4.82379,-30.4042,4.21419,26.4035,2.04681,2.29058,0.0101778,
0.126162,-0.0584129,0.242779,-2.06255,0.23755,0.205881,-0.0425936,0.00655958,-0.0124786,0.00935019,0.00862683,0.25054,-0.0497316,-0.00374852,0,0,0,0,0,0,0,6.61555,0.436198,6.1616,-0.416341,1.13778,2.96392,-0.0590537,0.110211,-0.0545341,0.226275,-2.06224,0.213672,0.169689,-0.0414009,0.0615114,-0.0072963,0.185752,0.00173431,-0.0162642,0.0735738,-0.000459042,-3.2963,-2.92616,2.63001,-1.44828,-4.18478,-9.5507,-0.09479,1.85627,-31.277,1.11177,26.2289,2.13836,1.7138,0.0239107,
0.126197,-0.0585257,0.24284,-2.06247,0.239487,0.205484,-0.042624,0.00614347,-0.0128011,0.00901445,0.00878622,0.248861,-0.0497056,-0.00376092,0,0,0,0,0,0,0,6.90052,-0.136987,6.4893,-0.251318,0.926796,2.59617,-0.0515471,0.110211,-0.0545341,0.226275,-2.06224,0.213672,0.169689,-0.0414009,0.0615114,-0.0072963,0.185752,0.00173431,-0.0162642,0.0735738,-0.000459042,0,0,0,0,0,0,0,1.85627,-31.277,1.11177,26.2289,2.13836,1.7138,0.0239107,
0.126216,-0.0586436,0.242885,-2.06239,0.241805,0.204827,-0.0426551,0.00538837,-0.0131884,0.00834788,0.00905331,0.257032,-0.0561849,-0.0037839,0,0,0,0,0,0,0,7.00316,-0.893656,6.71814,-0.192748,0.735387,2.1341,-0.0379779,0.110211,-0.0545341,0.226275,-2.06224,0.213672,0.169689,-0.0414009,0.0615114,-0.0072963,0.185752,0.00173431,-0.0162642,0.0735738,-0.000459042,0,0,0,0,0,0,0,1.85627,-31.277,1.11177,26.2289,2.13836,1.7138,0.0239107,
0.126218,-0.0587666,0.242915,-2.06231,0.244545,0.203883,-0.0426866,0.00435618,-0.0136267,0.00740968,0.00939569,0.274125,-0.068557,-0.00381531,0,0,0,0,0,0,0,6.87622,-1.71741,6.79856,-0.258379,0.699733,1.59512,-0.0233366,0.110211,-0.0545341,0.226275,-2.06224,0.213672,0.169689,-0.0414009,0.0615114,-0.0072963,0.185752,0.00173431,-0.0162642,0.0735738,-0.000459042,0,0,0,0,0,0,0,1.85627,-31.277,1.11177,26.2289,2.13836,1.7138,0.0239107,
0.12544,-0.0586819,0.242133,-2.06225,0.241845,0.202412,-0.0426331,0.00390079,-0.0138159,0.00699048,0.00958425,0.27827,-0.0713893,-0.00384658,0,0,0,0,0,0,0,6.84009,-0.27673,6.46071,-0.232576,0.811639,2.57621,-0.0497032,0.111828,-0.0549437,0.232318,-2.06203,0.213807,0.171583,-0.0413987,0.0473874,-0.0115446,0.187182,0.000994665,0.000813046,0.0569937,0.000964083,-1.7655,-0.531039,0.178776,-0.0924557,2.13466,-2.07251,0.177891,2.01099,-31.6261,1.3379,26.8796,1.8518,1.5545,0.00376909,
0.12544,-0.0588035,0.24216,-2.06216,0.244632,0.201457,-0.0426654,0.00311004,-0.0140947,0.00625144,0.00986481,0.292282,-0.0809972,-0.0038848,0,0,0,0,0,0,0,6.90339,-1.03017,6.65876,-0.189102,0.657147,2.11025,-0.0364762,0.111828,-0.0549437,0.232318,-2.06203,0.213807,0.171583,-0.0413987,0.0473874,-0.0115446,0.187182,0.000994665,0.000813046,0.0569937,0.000964083,0,0,0,0,0,0,0,2.01099,-31.6261,1.3379,26.8796,1.8518,1.5545,0.00376909,
0.125422,-0.0589301,0.24217,-2.06207,0.247881,0.200185,-0.0426983,0.00205846,-0.0144389,0.00526152,0.0101986,0.315064,-0.0965824,-0.00393002,0,0,0,0,0,0,0,6.75229,-1.82378,6.71219,-0.258475,0.665767,1.56978,-0.0229471,0.111828,-0.0549437,0.232318,-2.06203,0.213807,0.171583,-0.0413987,0.0473874,-0.0115446,0.187182,0.000994665,0.000813046,0.0569937,0.000964083,0,0,0,0,0,0,0,2.01099,-31.6261,1.3379,26.8796,1.8518,1.5545,0.00376909,
0.12539,-0.0590609,0.242166,-2.06198,0.251614,0.198586,-0.042732,0.000828708,-0.0148223,0.00409623,0.0105455,0.345366,-0.117244,-0.00398552,0,0,0,0,0,0,0,6.43958,-2.49431,6.62426,-0.404444,0.894665,1.01431,-0.0147563,0.111828,-0.0549437,0.232318,-2.06203,0.213807,0.171583,-0.0413987,0.0473874,-0.0115446,0.187182,0.000994665,0.000813046,0.0569937,0.000964083,0,0,0,0,0,0,0,2.01099,-31.6261,1.3379,26.8796,1.8518,1.5545,0.00376909,
