xiao-wang007/linearmpc_panda/paper_data/panda_torque_PD_controller_Start_at_0_torque_rate_limiter_low_pass_filter/4/trajectory.csv
Commanded Joint 0 Position,Commanded Joint 1 Position,Commanded Joint 2 Position,Commanded Joint 3 Position,Commanded Joint 4 Position,Commanded Joint 5 Position,Commanded Joint 6 Position,Commanded Joint 0 Velocity,Commanded Joint 1 Velocity,Commanded Joint 2 Velocity,Commanded Joint 3 Velocity,Commanded Joint 4 Velocity,Commanded Joint 5 Velocity,Commanded Joint 6 Velocity,Commanded Joint 0 Acceleration,Commanded Joint 1 Acceleration,Commanded Joint 2 Acceleration,Commanded Joint 3 Acceleration,Commanded Joint 4 Acceleration,Commanded Joint 5 Acceleration,Commanded Joint 6 Acceleration,Commanded Joint 0 Torque,Commanded Joint 1 Torque,Commanded Joint 2 Torque,Commanded Joint 3 Torque,Commanded Joint 4 Torque,Commanded Joint 5 Torque,Commanded Joint 6 Torque,Actual Joint 0 Position,Actual Joint 1 Position,Actual Joint 2 Position,Actual Joint 3 Position,Actual Joint 4 Position,Actual Joint 5 Position,Actual Joint 6 Position,Actual Joint 0 Velocity,Actual Joint 1 Velocity,Actual Joint 2 Velocity,Actual Joint 3 Velocity,Actual Joint 4 Velocity,Actual Joint 5 Velocity,Actual Joint 6 Velocity,Actual Joint 0 Acceleration,Actual Joint 1 Acceleration,Actual Joint 2 Acceleration,Actual Joint 3 Acceleration,Actual Joint 4 Acceleration,Actual Joint 5 Acceleration,Actual Joint 6 Acceleration,Actual Joint 0 Torque,Actual Joint 1 Torque,Actual Joint 2 Torque,Actual Joint 3 Torque,Actual Joint 4 Torque,Actual Joint 5 Torque,Actual Joint 6 Torque,
0.0769886,-0.151914,-0.0827395,-1.92825,-0.0188657,0.266066,-0.0283417,-4.5651e-05,0.0172767,-0.000474379,-0.0350354,-0.00430144,0.0521785,-0.000368433,-0.0285319,10.798,-0.296487,-21.8972,-2.6884,32.6115,-0.230271,0.0556824,19.5973,-0.183518,-24.4725,-0.567021,1.84068,-0.0238957,0.077015,-0.15314,-0.0826711,-1.92463,-0.0186041,0.2604,-0.0282965,-0.00644626,-0.00236548,0.00023174,0.00182652,0.00554473,-6.0761e-05,3.38472e-05,0,0,0,0,0,0,0,0.233646,-29.9043,0.488905,27.0779,0.557247,3.09258,0.0376436,
0.07698,-0.153178,-0.0827086,-1.9246,-0.0185927,0.260423,-0.0282946,-0.000238864,0.013578,-0.000599214,-0.0278773,-0.00354085,0.0419674,-0.000286206,-0.120758,-2.31172,-0.0780217,4.47386,0.475369,-6.38195,0.0513918,0.0499402,20.0381,-0.193929,-24.3888,-0.567307,1.58951,-0.0223821,0.077015,-0.15314,-0.0826711,-1.92463,-0.0186041,0.2604,-0.0282965,-0.00644626,-0.00236548,0.00023174,0.00182652,0.00554473,-6.0761e-05,3.38472e-05,0,0,0,0,0,0,0,0.233646,-29.9043,0.488905,27.0779,0.557247,3.09258,0.0376436,
0.076974,-0.153186,-0.0827151,-1.9246,-0.0185987,0.260432,-0.0282944,-0.000342531,0.0106721,-0.000642253,-0.0221806,-0.00298215,0.0337898,-0.000223539,-0.0647919,-1.81616,-0.0268992,3.56044,0.349183,-5.11101,0.0391674,0.0427546,20.6113,-0.205568,-24.2804,-0.566794,1.24221,-0.0204169,0.0770158,-0.153086,-0.0826684,-1.92469,-0.0186007,0.260396,-0.0282972,-0.00437589,0.000671343,-0.00124745,0.000745591,0.007552,-0.00118177,-0.000137382,0.258797,0.379603,-0.184898,-0.135116,0.250909,-0.140126,-0.0214036,0.182071,-29.9043,0.461134,27.0779,0.569149,3.11913,0.0440523,
0.0769694,-0.153192,-0.08272,-1.92459,-0.018605,0.26044,-0.0282942,-0.000389002,0.00838874,-0.000636554,-0.0176468,-0.00254252,0.027229,-0.000175278,-0.0290443,-1.42713,0.00356183,2.83364,0.274774,-4.10048,0.0301628,0.0368154,21.1354,-0.215008,-24.1126,-0.56479,0.856772,-0.0184171,0.0770158,-0.153086,-0.0826684,-1.92469,-0.0186007,0.260396,-0.0282972,-0.00437589,0.000671343,-0.00124745,0.000745591,0.007552,-0.00118177,-0.000137382,0,0,0,0,0,0,0,0.182071,-29.9043,0.461134,27.0779,0.569149,3.11913,0.0440523,
0.076857,-0.153067,-0.0828015,-1.92461,-0.0159213,0.25934,-0.0283206,-0.00233957,0.00686352,-0.00236098,-0.0131507,0.0386397,0.00555351,-0.00035001,-1.2191,-0.953263,-1.07776,2.81002,25.7389,-13.5472,-0.109207,0.476504,0.160294,0.466497,-0.257493,3.35398,-1.52619,-0.00126862,0.0770158,-0.153086,-0.0826684,-1.92469,-0.0186007,0.260396,-0.0282972,-0.00437589,0.000671343,-0.00124745,0.000745591,0.007552,-0.00118177,-0.000137382,0,0,0,0,0,0,0,0.182071,-29.9043,0.461134,27.0779,0.569149,3.11913,0.0440523,
0.0767862,-0.153067,-0.0828712,-1.92458,-0.0139587,0.258532,-0.028325,-0.00364245,0.00548938,-0.00363164,-0.00980952,0.0799787,-0.015753,-0.000387738,-0.814301,-0.858842,-0.794165,2.08826,25.8369,-13.3166,-0.0235802,0.470624,0.157837,0.460413,-0.25474,3.32495,-1.51288,-0.00122648,0.0770158,-0.153086,-0.0826684,-1.92469,-0.0186007,0.260396,-0.0282972,-0.00437589,0.000671343,-0.00124745,0.000745591,0.007552,-0.00118177,-0.000137382,0,0,0,0,0,0,0,0.182071,-29.9043,0.461134,27.0779,0.569149,3.11913,0.0440523,
0.0767305,-0.153071,-0.0829285,-1.92456,-0.0117987,0.257618,-0.0283271,-0.00430568,0.00430501,-0.00433788,-0.00738472,0.117981,-0.0354502,-0.000364056,-0.414516,-0.740231,-0.4414,1.5155,23.7515,-12.3108,0.0148015,0.464641,0.154951,0.454244,-0.252238,3.29621,-1.49958,-0.00120599,0.0770158,-0.153086,-0.0826684,-1.92469,-0.0186007,0.260396,-0.0282972,-0.00437589,0.000671343,-0.00124745,0.000745591,0.007552,-0.00118177,-0.000137382,0,0,0,0,0,0,0,0.182071,-29.9043,0.461134,27.0779,0.569149,3.11913,0.0440523,
0.0766906,-0.153075,-0.0829711,-1.92455,-0.00952326,0.256634,-0.0283282,-0.00444142,0.00332992,-0.00453505,-0.00565288,0.151272,-0.0529715,-0.000317931,-0.0848403,-0.609429,-0.123235,1.0824,20.8066,-10.9508,0.0288279,0.458972,0.157845,0.448507,-0.250326,3.26791,-1.48643,-0.00119539,0.0770267,-0.152963,-0.0826839,-1.92483,-0.018656,0.260786,-0.0282939,-0.0010236,0.0185864,-0.00254656,-0.0253446,0.00494715,0.071696,-0.00637711,0.419036,2.23938,-0.162389,-3.26127,-0.325607,9.10972,-0.779966,0.0828892,-27.4843,0.461134,24.5865,0.354916,3.72887,0.017502,
0.0767116,-0.152622,-0.0829098,-1.92441,-0.0101907,0.254881,-0.028374,-0.0074569,0.00614348,-0.00677586,0.000817244,0.251032,-0.135555,-0.000975764,-1.88468,1.75848,-1.4005,4.04383,62.35,-51.6145,-0.411146,3.90013,1.83827,3.96562,-1.89493,11.019,-9.08037,-0.00470268,0.0770267,-0.152963,-0.0826839,-1.92483,-0.018656,0.260786,-0.0282939,-0.0010236,0.0185864,-0.00254656,-0.0253446,0.00494715,0.071696,-0.00637711,0,0,0,0,0,0,0,0.0828892,-27.4843,0.461134,24.5865,0.354916,3.72887,0.017502,
0.0765964,-0.152535,-0.0830109,-1.92426,-0.00381287,0.250182,-0.0283898,-0.00884351,0.00707745,-0.00794755,0.00445896,0.360272,-0.225911,-0.00117381,-0.866627,0.583728,-0.732307,2.27607,68.2751,-56.4725,-0.123779,3.76523,1.82721,3.8562,-1.86395,11.019,-8.95823,-0.00446115,0.0770267,-0.152963,-0.0826839,-1.92483,-0.018656,0.260786,-0.0282939,-0.0010236,0.0185864,-0.00254656,-0.0253446,0.00494715,0.071696,-0.00637711,0,0,0,0,0,0,0,0.0828892,-27.4843,0.461134,24.5865,0.354916,3.72887,0.017502,
0.0765337,-0.152476,-0.0830674,-1.92417,0.00329473,0.244852,-0.0283986,-0.00864319,0.00714192,-0.00776899,0.0057406,0.465908,-0.313965,-0.00116025,0.125202,0.0402975,0.111595,0.801023,66.0223,-55.034,0.00847817,3.63911,1.80666,3.73926,-1.83835,11.019,-8.83233,-0.00484958,0.0770267,-0.152963,-0.0826839,-1.92483,-0.018656,0.260786,-0.0282939,-0.0010236,0.0185864,-0.00254656,-0.0253446,0.00494715,0.071696,-0.00637711,0,0,0,0,0,0,0,0.0828892,-27.4843,0.461134,24.5865,0.354916,3.72887,0.017502,
0.0765228,-0.152425,-0.0830753,-1.92414,0.0108649,0.239115,-0.0284041,-0.00718643,0.00698921,-0.00641486,0.00536934,0.56198,-0.394595,-0.00106539,0.91047,-0.0954471,0.846332,-0.232039,60.0452,-50.3936,0.0592864,3.52504,1.86362,3.62822,-1.81676,11.0202,-8.70149,-0.00550684,0.0769949,-0.151331,-0.0827028,-1.92861,-0.0184787,0.26529,-0.0282961,-0.00252019,0.0348008,-0.00606742,-0.16516,0.0730291,0.0360792,0.000983821,-0.187074,2.0268,-0.440108,-17.4769,8.51024,-4.45211,0.920116,0.435978,-20.5177,0.611891,20.0281,1.35742,1.10406,0.0239107,
0.0777628,-0.150433,-0.0817004,-1.92929,-0.0113147,0.254632,-0.0281403,0.00677891,0.0161033,0.0110127,-0.00240453,0.559386,-0.478896,0.000437423,8.72834,5.6963,10.8922,-4.85867,-1.62128,-52.688,0.939257,23.0777,5.94336,24.9203,-10.9029,11.0202,-14.384,0.136045,0.0769949,-0.151331,-0.0827028,-1.92861,-0.0184787,0.26529,-0.0282961,-0.00252019,0.0348008,-0.00606742,-0.16516,0.0730291,0.0360792,0.000983821,0,0,0,0,0,0,0,0.435978,-20.5177,0.611891,20.0281,1.35742,1.10406,0.0239107,
0.0784633,-0.150097,-0.0808377,-1.92958,-0.00577113,0.246598,-0.0281097,0.0229359,0.0212821,0.0303773,-0.00928519,0.586097,-0.583967,0.00111727,10.0981,3.23673,12.1029,-4.30042,16.6947,-65.6693,0.424902,21.189,5.60654,23.5009,-9.68687,11.0202,-14.384,0.062161,0.0769949,-0.151331,-0.0827028,-1.92861,-0.0184787,0.26529,-0.0282961,-0.00252019,0.0348008,-0.00606742,-0.16516,0.0730291,0.0360792,0.000983821,0,0,0,0,0,0,0,0.435978,-20.5177,0.611891,20.0281,1.35742,1.10406,0.0239107,
0.0793794,-0.149914,-0.0798347,-1.93002,0.000568661,0.237619,-0.0279068,0.0412501,0.0215963,0.0493769,-0.0185146,0.627373,-0.691649,0.00596459,11.4464,0.196422,11.8747,-5.7684,25.7971,-67.3014,3.02958,20.2695,4.47125,22.6958,-8.62947,11.0202,-14.384,0.0342133,0.0769949,-0.151331,-0.0827028,-1.92861,-0.0184787,0.26529,-0.0282961,-0.00252019,0.0348008,-0.00606742,-0.16516,0.0730291,0.0360792,0.000983821,0,0,0,0,0,0,0,0.435978,-20.5177,0.611891,20.0281,1.35742,1.10406,0.0239107,
0.078554,-0.149703,-0.0812573,-1.936,1.11912e-05,0.247825,-0.0280917,0.0582139,0.0255051,0.0638973,-0.0369682,0.627035,-0.735538,0.00602184,10.6023,2.443,9.07525,-11.5335,-0.211147,-27.4307,0.0357823,33.3932,6.26282,33.8917,-19.8993,10.965,-14.3477,0.159698,0.0769109,-0.150415,-0.0827922,-1.93429,-0.00904531,0.260675,-0.028297,0.000315961,0.0709006,-0.00310454,-0.087528,0.396224,-0.380502,-2.86035e-05,0.354518,4.51248,0.37036,9.70397,40.3994,-52.0726,-0.126553,3.07422,-32.6973,3.46437,29.5178,2.21801,0.526358,0.0376436,
0.0797963,-0.149421,-0.0799531,-1.93699,0.00583978,0.239393,-0.0279246,0.0776269,0.0274526,0.0837245,-0.0544408,0.647343,-0.799215,0.00899392,12.1331,1.2172,12.392,-10.9204,12.6923,-39.7983,1.85755,30.4681,6.93632,30.964,-18.4529,10.965,-14.3477,0.0335176,0.0769109,-0.150415,-0.0827922,-1.93429,-0.00904531,0.260675,-0.028297,0.000315961,0.0709006,-0.00310454,-0.087528,0.396224,-0.380502,-2.86035e-05,0,0,0,0,0,0,0,3.07422,-32.6973,3.46437,29.5178,2.21801,0.526358,0.0376436,
0.0811796,-0.149241,-0.0784916,-1.93819,0.0124345,0.230253,-0.0278804,0.0966858,0.0264764,0.103516,-0.0735456,0.682741,-0.867884,0.00829951,11.9118,-0.610141,12.3697,-11.9405,22.1241,-42.9177,-0.434006,28.7171,5.76661,30.1272,-18.0583,10.965,-14.3477,0.19863,0.0769109,-0.150415,-0.0827922,-1.93429,-0.00904531,0.260675,-0.028297,0.000315961,0.0709006,-0.00310454,-0.087528,0.396224,-0.380502,-2.86035e-05,0,0,0,0,0,0,0,3.07422,-32.6973,3.46437,29.5178,2.21801,0.526358,0.0376436,
0.0826581,-0.149042,-0.0769642,-1.93943,0.0196344,0.220518,-0.0278997,0.114312,0.0261549,0.120997,-0.0897663,0.726191,-0.937664,0.00615857,11.0163,-0.200947,10.9258,-10.1379,27.1561,-43.6126,-1.33809,25.3362,3.18983,26.5769,-19.4558,10.965,-14.3477,0.0451514,0.0769109,-0.150415,-0.0827922,-1.93429,-0.00904531,0.260675,-0.028297,0.000315961,0.0709006,-0.00310454,-0.087528,0.396224,-0.380502,-2.86035e-05,0,0,0,0,0,0,0,3.07422,-32.6973,3.46437,29.5178,2.21801,0.526358,0.0376436,
0.0785644,-0.149989,-0.0810694,-1.93663,-0.00010221,0.248275,-0.0280797,0.117319,0.0247102,0.123947,-0.103423,0.704104,-0.92635,0.00868811,1.8796,-0.90293,1.84338,-8.5352,-13.8045,7.07138,1.58096,33.9556,5.81644,35.7433,-25.172,10.6553,-14.2873,0.0449839,0.0766463,-0.147231,-0.0831885,-1.93352,0.0263805,0.229253,-0.0282978,-0.013051,0.0981304,-0.0193275,0.0454474,1.13988,-1.18954,0.000546653,-1.67087,3.40373,-2.02787,16.6219,92.9565,-101.13,0.0719071,8.68,-30.4518,8.53853,20.0043,2.5357,-1.8531,0.0440523,
0.0798355,-0.149956,-0.0797282,-1.93812,0.0057452,0.2401,-0.0280725,0.125633,0.0205849,0.132688,-0.120045,0.709468,-0.945445,0.00713078,5.19642,-2.57835,5.46322,-10.3892,3.35276,-11.9346,-0.973335,31.6594,5.03711,33.3166,-24.413,10.6553,-14.2873,0.167722,0.0766463,-0.147231,-0.0831885,-1.93352,0.0263805,0.229253,-0.0282978,-0.013051,0.0981304,-0.0193275,0.0454474,1.13988,-1.18954,0.000546653,0,0,0,0,0,0,0,8.68,-30.4518,8.53853,20.0043,2.5357,-1.8531,0.0440523,
0.0812488,-0.149916,-0.0782395,-1.93968,0.0123589,0.231049,-0.0281399,0.135838,0.01747,0.143367,-0.134943,0.732917,-0.982626,0.00401905,6.37791,-1.94676,6.67456,-9.31083,14.6555,-23.2379,-1.94483,27.6678,2.75665,29.0635,-25.393,10.6553,-14.2873,-0.00528609,0.0766463,-0.147231,-0.0831885,-1.93352,0.0263805,0.229253,-0.0282978,-0.013051,0.0981304,-0.0193275,0.0454474,1.13988,-1.18954,0.000546653,0,0,0,0,0,0,0,8.68,-30.4518,8.53853,20.0043,2.5357,-1.8531,0.0440523,
0.0786702,-0.147176,-0.0811571,-1.93673,0.0410613,0.211741,-0.0280643,0.139796,0.0129661,0.146635,-0.15491,0.76474,-1.0085,0.00358879,2.47343,-2.81496,2.04259,-12.4799,19.8894,-16.1696,-0.268914,37.9919,7.09678,40.0691,-32.0883,10.6553,-14.2873,0.184334,0.0766463,-0.147231,-0.0831885,-1.93352,0.0263805,0.229253,-0.0282978,-0.013051,0.0981304,-0.0193275,0.0454474,1.13988,-1.18954,0.000546653,0,0,0,0,0,0,0,8.68,-30.4518,8.53853,20.0043,2.5357,-1.8531,0.0440523,
0.0801724,-0.147152,-0.0795857,-1.93875,0.0482804,0.202349,-0.0281642,0.149391,0.0109651,0.156593,-0.174418,0.792271,-1.04159,0.000374347,5.99739,-1.25065,6.2238,-12.1925,17.2069,-20.6854,-2.00903,32.8328,5.66136,34.5493,-32.212,10.7101,-13.8719,-0.041547,0.0808032,-0.145459,-0.0812639,-1.93571,0.0599502,0.18044,-0.0282891,0.224545,0.0159713,0.102319,-0.215837,0.964561,-1.47812,-0.000839083,29.6994,-10.2699,15.2059,-32.6605,-21.9144,-36.0724,-0.173217,18.265,-22.3665,19.5596,12.4307,4.35577,-2.91419,0.185044,
0.0818213,-0.147051,-0.0778499,-1.94084,0.0557472,0.192552,-0.0283094,0.160737,0.011305,0.168669,-0.191733,0.820485,-1.0782,-0.00333012,7.09092,0.212433,7.54722,-10.8219,17.6339,-22.8816,-2.31529,29.3551,6.20761,30.9129,-31.0462,10.7101,-13.8719,-0.155183,0.0808032,-0.145459,-0.0812639,-1.93571,0.0599502,0.18044,-0.0282891,0.224545,0.0159713,0.102319,-0.215837,0.964561,-1.47812,-0.000839083,0,0,0,0,0,0,0,18.265,-22.3665,19.5596,12.4307,4.35577,-2.91419,0.185044,
0.083549,-0.146889,-0.0760238,-1.94298,0.0634859,0.182451,-0.0284691,0.171781,0.0130939,0.180588,-0.206735,0.849856,-1.11509,-0.00665657,6.90274,1.11809,7.44917,-9.37599,18.3564,-23.0508,-2.07903,27.1811,5.90982,28.6234,-30.3313,10.7101,-13.8719,-0.195038,0.0808032,-0.145459,-0.0812639,-1.93571,0.0599502,0.18044,-0.0282891,0.224545,0.0159713,0.102319,-0.215837,0.964561,-1.47812,-0.000839083,0,0,0,0,0,0,0,18.265,-22.3665,19.5596,12.4307,4.35577,-2.91419,0.185044,
0.0843624,-0.145447,-0.0775027,-1.94099,0.0749463,0.159178,-0.0284284,0.184393,0.0116281,0.194239,-0.233967,0.868584,-1.15318,-0.00889152,7.88227,-0.916129,8.53234,-17.0203,11.705,-23.8109,-1.39684,35.8152,6.32789,38.3021,-38.9936,10.7101,-13.8719,-0.0376502,0.0808032,-0.145459,-0.0812639,-1.93571,0.0599502,0.18044,-0.0282891,0.224545,0.0159713,0.102319,-0.215837,0.964561,-1.47812,-0.000839083,0,0,0,0,0,0,0,18.265,-22.3665,19.5596,12.4307,4.35577,-2.91419,0.185044,
0.0863301,-0.14532,-0.0754193,-1.94383,0.0827329,0.149057,-0.0286387,0.196708,0.0124667,0.207476,-0.258135,0.889532,-1.17559,-0.0123717,7.69721,0.524122,8.27262,-15.1048,13.0929,-14.0057,-2.17513,31.6801,6.30328,33.639,-37.5421,10.8652,-12.7336,-0.207553,0.0887292,-0.146184,-0.070981,-1.94717,0.0903413,0.128572,-0.0282727,0.286326,-0.0328551,0.390027,-0.405186,0.955504,-1.58462,-0.00111001,7.72267,-6.1033,35.9634,-23.6686,-1.1322,-13.3119,-0.0338665,18.745,-21.4699,19.5874,19.9051,4.46563,-1.0511,0.110886,
0.0883243,-0.145142,-0.0733089,-1.94672,0.090763,0.139261,-0.0288737,0.20722,0.0144445,0.21874,-0.278764,0.912378,-1.18537,-0.0157731,6.56947,1.23613,7.04047,-12.893,14.2782,-6.11426,-2.12583,28.8102,5.32753,30.4864,-36.9067,10.8652,-12.0196,-0.274908,0.0887292,-0.146184,-0.070981,-1.94717,0.0903413,0.128572,-0.0282727,0.286326,-0.0328551,0.390027,-0.405186,0.955504,-1.58462,-0.00111001,0,0,0,0,0,0,0,18.745,-21.4699,19.5874,19.9051,4.46563,-1.0511,0.110886,
0.0903095,-0.144935,-0.071208,-1.94964,0.0989953,0.129843,-0.0291098,0.215407,0.0167073,0.227515,-0.296,0.935709,-1.18373,-0.0185191,5.11738,1.41425,5.48407,-10.7725,14.5823,1.02629,-1.71626,26.7696,4.32613,28.2807,-36.3649,10.8652,-11.4057,-0.296643,0.0887292,-0.146184,-0.070981,-1.94717,0.0903413,0.128572,-0.0282727,0.286326,-0.0328551,0.390027,-0.405186,0.955504,-1.58462,-0.00111001,0,0,0,0,0,0,0,18.745,-21.4699,19.5874,19.9051,4.46563,-1.0511,0.110886,
0.0938201,-0.146125,-0.0655584,-1.9543,0.106946,0.109057,-0.0287974,0.234907,0.0161289,0.248459,-0.326943,0.960689,-1.17179,-0.0223493,12.1873,-0.361517,13.09,-19.3395,15.6123,7.463,-2.39388,31.7095,6.82679,33.6011,-43.2764,10.8652,-8.32843,-0.290961,0.0887292,-0.146184,-0.070981,-1.94717,0.0903413,0.128572,-0.0282727,0.286326,-0.0328551,0.390027,-0.405186,0.955504,-1.58462,-0.00111001,0,0,0,0,0,0,0,18.745,-21.4699,19.5874,19.9051,4.46563,-1.0511,0.110886,
0.0962157,-0.145922,-0.0630172,-1.95792,0.115656,0.101247,-0.0291229,0.247816,0.017972,0.262297,-0.352015,0.986303,-1.13268,-0.0260159,8.06802,1.15195,8.64906,-15.6703,16.009,24.4422,-2.29165,28.7516,5.79501,30.4517,-42.522,11.0054,-6.70916,-0.375172,0.104883,-0.146311,-0.0582601,-1.96451,0.125863,0.0727094,-0.0283275,0.589326,0.0298749,0.395317,-0.548412,1.13367,-1.7198,-0.00474065,37.875,7.84124,0.661269,-17.9033,22.2707,-16.8977,-0.453829,10.4296,-23.7392,11.0101,21.1746,3.70208,-0.633615,0.017502,
0.0985014,-0.145677,-0.0605933,-1.96152,0.124486,0.0944263,-0.0294449,0.255395,0.0205131,0.270437,-0.371633,1.0098,-1.07667,-0.0288631,4.73703,1.58821,5.0873,-12.2609,14.6852,35.0107,-1.7795,26.5241,4.50614,28.0729,-42.0538,11.0054,-5.89696,-0.399443,0.104883,-0.146311,-0.0582601,-1.96451,0.125863,0.0727094,-0.0283275,0.589326,0.0298749,0.395317,-0.548412,1.13367,-1.7198,-0.00474065,0,0,0,0,0,0,0,10.4296,-23.7392,11.0101,21.1746,3.70208,-0.633615,0.017502,
0.100686,-0.14543,-0.0582763,-1.96517,0.133372,0.0890547,-0.0297507,0.258941,0.022574,0.274275,-0.388503,1.02999,-0.995622,-0.0307361,2.21632,1.28803,2.39855,-10.5438,12.6207,50.6531,-1.17061,24.8595,3.5566,26.3076,-41.5007,11.0054,-5.0605,-0.392552,0.104883,-0.146311,-0.0582601,-1.96451,0.125863,0.0727094,-0.0283275,0.589326,0.0298749,0.395317,-0.548412,1.13367,-1.7198,-0.00474065,0,0,0,0,0,0,0,10.4296,-23.7392,11.0101,21.1746,3.70208,-0.633615,0.017502,
0.111204,-0.145634,-0.0515867,-1.97403,0.145717,0.0575987,-0.029239,0.281578,0.0274682,0.298272,-0.429229,1.07394,-0.947194,-0.0360276,14.1482,3.05889,14.9983,-25.4537,27.4658,30.2676,-3.30722,24.9574,4.54526,26.341,-48.2744,11.0054,1.27067,-0.546621,0.104883,-0.146311,-0.0582601,-1.96451,0.125863,0.0727094,-0.0283275,0.589326,0.0298749,0.395317,-0.548412,1.13367,-1.7198,-0.00474065,0,0,0,0,0,0,0,10.4296,-23.7392,11.0101,21.1746,3.70208,-0.633615,0.017502,
0.113898,-0.145238,-0.0487352,-1.97862,0.155629,0.0537535,-0.0296723,0.292602,0.0318802,0.309905,-0.45818,1.10695,-0.853886,-0.0396549,6.88957,2.7575,7.27081,-18.0946,20.6298,58.3172,-2.26702,23.3656,2.74661,24.6603,-47.9941,11.0054,1.89297,-0.543067,0.104883,-0.146311,-0.0582601,-1.96451,0.125863,0.0727094,-0.0283275,0.589326,0.0298749,0.395317,-0.548412,1.13367,-1.7198,-0.00474065,0,0,0,0,0,0,0,10.4296,-23.7392,11.0101,21.1746,3.70208,-0.633615,0.017502,
0.116366,-0.144874,-0.0461231,-1.98313,0.165369,0.052103,-0.0300721,0.29579,0.0345991,0.313227,-0.479197,1.12904,-0.72437,-0.0417179,1.99299,1.6993,2.07616,-13.1356,13.8092,80.9477,-1.28936,22.5016,1.89781,23.86,-47.0009,11.0714,3.12835,-0.519903,0.121051,-0.14482,-0.0359623,-1.98804,0.168237,0.0162848,-0.0291016,0.439522,0.101343,0.738353,-0.778112,1.29958,-1.6044,-0.0235366,-18.7254,8.93349,42.8795,-28.7125,20.739,14.4246,-2.3495,6.37104,-27.0598,6.2137,20.1273,2.75543,-0.149301,-0.050247,
0.128069,-0.143359,-0.0284611,-2.00017,0.190018,0.00772449,-0.0303387,0.317437,0.0453828,0.336385,-0.530667,1.17484,-0.633586,-0.0481165,13.5289,6.73985,14.4738,-32.1689,28.625,56.7397,-3.99916,16.9127,-0.0193914,17.9717,-52.5075,11.0714,11.9199,-0.779569,0.121051,-0.14482,-0.0359623,-1.98804,0.168237,0.0162848,-0.0291016,0.439522,0.101343,0.738353,-0.778112,1.29958,-1.6044,-0.0235366,0,0,0,0,0,0,0,6.37104,-27.0598,6.2137,20.1273,2.75543,-0.149301,-0.050247,
0.130874,-0.142729,-0.0254853,-2.00568,0.200563,0.00850464,-0.0308587,0.324073,0.0520573,0.343502,-0.562151,1.20349,-0.487365,-0.0514944,4.14806,4.17153,4.44831,-19.6775,17.9034,91.3882,-2.11116,17.2993,-0.992933,18.3722,-52.087,11.0714,11.9199,-0.69039,0.121051,-0.14482,-0.0359623,-1.98804,0.168237,0.0162848,-0.0291016,0.439522,0.101343,0.738353,-0.778112,1.29958,-1.6044,-0.0235366,0,0,0,0,0,0,0,6.37104,-27.0598,6.2137,20.1273,2.75543,-0.149301,-0.050247,
0.133353,-0.142205,-0.0228553,-2.01084,0.210715,0.0113936,-0.0313179,0.321239,0.0547661,0.340552,-0.578774,1.2166,-0.317668,-0.0526756,-1.77181,1.69302,-1.84368,-10.389,8.19436,106.061,-0.738263,17.4227,-1.23892,18.5059,-51.3895,11.0714,11.9199,-0.611696,0.121051,-0.14482,-0.0359623,-1.98804,0.168237,0.0162848,-0.0291016,0.439522,0.101343,0.738353,-0.778112,1.29958,-1.6044,-0.0235366,0,0,0,0,0,0,0,6.37104,-27.0598,6.2137,20.1273,2.75543,-0.149301,-0.050247,
0.13558,-0.141791,-0.0204926,-2.01571,0.220486,0.0158148,-0.0317244,0.312659,0.0541475,0.331508,-0.584873,1.21755,-0.143606,-0.0523038,-5.36241,-0.386674,-5.65292,-3.81169,0.597026,108.789,0.232386,17.4361,-1.79304,18.6293,-49.81,10.9617,12.4956,-0.549801,0.144129,-0.142809,-0.0159206,-2.01991,0.214628,-0.0247445,-0.0304087,0.757312,0.051422,0.569186,-0.990478,1.46041,-1.01684,-0.0444427,39.7237,-6.24011,-21.1459,-26.5458,20.1041,73.4456,-2.61326,2.2887,-27.0598,1.83778,19.7028,1.58264,1.14342,-0.157364,
0.151364,-0.141866,-0.00825918,-2.03311,0.238279,-0.0295059,-0.0319031,0.330938,0.0539784,0.35098,-0.624787,1.26498,-0.133923,-0.058791,11.4243,-0.105636,12.1702,-24.9465,29.6455,6.05161,-4.05455,8.39546,-8.34001,8.99892,-56.0273,10.9617,12.4956,-0.955923,0.144129,-0.142809,-0.0159206,-2.01991,0.214628,-0.0247445,-0.0304087,0.757312,0.051422,0.569186,-0.990478,1.46041,-1.01684,-0.0444427,0,0,0,0,0,0,0,2.2887,-27.0598,1.83778,19.7028,1.58264,1.14342,-0.157364,
0.154065,-0.141573,-0.00539844,-2.0389,0.249341,-0.0278235,-0.0324645,0.332276,0.0505023,0.352303,-0.644352,1.28855,-0.0650793,-0.0610663,0.836803,-2.17259,0.826612,-12.2284,14.7277,43.0273,-1.42204,10.8099,-7.70969,11.5438,-55.1321,10.9617,12.4956,-0.784191,0.144129,-0.142809,-0.0159206,-2.01991,0.214628,-0.0247445,-0.0304087,0.757312,0.051422,0.569186,-0.990478,1.46041,-1.01684,-0.0444427,0,0,0,0,0,0,0,2.2887,-27.0598,1.83778,19.7028,1.58264,1.14342,-0.157364,
0.156382,-0.141406,-0.00294799,-2.04428,0.259813,-0.0243093,-0.0329361,0.323748,0.0445816,0.343103,-0.650106,1.29264,0.0357913,-0.0606448,-5.33033,-3.70041,-5.74961,-3.59579,2.55604,63.0441,0.263447,12.2605,-6.84614,13.0356,-54.233,10.9617,12.4956,-0.656263,0.144129,-0.142809,-0.0159206,-2.01991,0.214628,-0.0247445,-0.0304087,0.757312,0.051422,0.569186,-0.990478,1.46041,-1.01684,-0.0444427,0,0,0,0,0,0,0,2.2887,-27.0598,1.83778,19.7028,1.58264,1.14342,-0.157364,
0.172106,-0.140038,0.0169122,-2.07416,0.290651,-0.0277187,-0.034091,0.340137,0.0552701,0.360836,-0.674895,1.31606,0.0990504,-0.0628785,10.2432,6.68029,11.083,-15.4934,14.6384,39.537,-1.39608,10.798,-8.61214,11.6962,-54.1027,10.6374,12.7838,-0.795382,0.16488,-0.141698,0.00918749,-2.06061,0.267361,-0.0322539,-0.0328392,0.521365,0.010499,0.768996,-1.32093,1.64714,0.288681,-0.0805454,-29.4934,-5.11537,24.9762,-41.3071,23.3406,163.19,-4.51284,-5.49908,-26.4607,-6.33483,28.6966,1.70532,5.34752,-0.0566557,
0.174812,-0.13949,0.0197872,-2.07976,0.301281,-0.0236382,-0.0345737,0.339754,0.057904,0.360544,-0.679701,1.31861,0.181252,-0.0623711,-0.239485,1.64617,-0.182842,-3.00334,1.5938,51.3759,0.317164,12.2486,-7.74859,13.188,-53.2036,10.6374,12.7838,-0.667454,0.16488,-0.141698,0.00918749,-2.06061,0.267361,-0.0322539,-0.0328392,0.521365,0.010499,0.768996,-1.32093,1.64714,0.288681,-0.0805454,0,0,0,0,0,0,0,-5.49908,-26.4607,-6.33483,28.6966,1.70532,5.34752,-0.0566557,
0.177123,-0.139155,0.022241,-2.08494,0.311339,-0.0184594,-0.0349807,0.329593,0.0547089,0.349781,-0.673486,1.30633,0.274472,-0.0600735,-6.35063,-1.99691,-6.72696,3.88384,-7.67295,58.2624,1.43596,13.0985,-6.77408,14.0392,-52.3047,10.6374,12.7838,-0.567914,0.16488,-0.141698,0.00918749,-2.06061,0.267361,-0.0322539,-0.0328392,0.521365,0.010499,0.768996,-1.32093,1.64714,0.288681,-0.0805454,0,0,0,0,0,0,0,-5.49908,-26.4607,-6.33483,28.6966,1.70532,5.34752,-0.0566557,
0.179142,-0.138978,0.0243836,-2.08983,0.320912,-0.0123888,-0.0353255,0.314159,0.0481943,0.333389,-0.660831,1.28439,0.371344,-0.0566776,-9.64639,-4.07165,-10.2444,7.90973,-13.7166,60.545,2.12244,13.5778,-5.75047,14.5031,-51.4021,10.6374,12.7838,-0.485832,0.16488,-0.141698,0.00918749,-2.06061,0.267361,-0.0322539,-0.0328392,0.521365,0.010499,0.768996,-1.32093,1.64714,0.288681,-0.0805454,0,0,0,0,0,0,0,-5.49908,-26.4607,-6.33483,28.6966,1.70532,5.34752,-0.0566557,
0.195662,-0.139443,0.0353626,-2.11852,0.348566,-0.00310423,-0.0366528,0.330127,0.0545634,0.350412,-0.674832,1.3076,0.408067,-0.0575514,9.98026,3.98069,10.6391,-8.75053,14.5054,22.9524,-0.546127,12.212,-8.34004,13.2625,-52.9786,10.3932,12.8068,-0.670364,0.188642,-0.140788,0.0279402,-2.10565,0.325114,-0.0116303,-0.0355823,0.732286,-0.0187033,0.510969,-1.29899,1.74498,0.748652,-0.103357,26.3652,-3.65029,-32.2533,2.74357,12.2306,57.4964,-2.85146,-7.7525,-31.6023,-9.13573,20.0757,0.813595,1.44189,-0.123489,
0.198301,-0.139017,0.0381651,-2.1238,0.359,0.0021239,-0.0370655,0.330081,0.0543095,0.350392,-0.672016,1.30694,0.457157,-0.0563592,-0.0289681,-0.158662,-0.0125268,1.75996,-0.41232,30.6811,0.745147,13.062,-7.36553,14.1137,-52.0797,10.3932,12.8068,-0.570824,0.188642,-0.140788,0.0279402,-2.10565,0.325114,-0.0116303,-0.0355823,0.732286,-0.0187033,0.510969,-1.29899,1.74498,0.748652,-0.103357,0,0,0,0,0,0,0,-7.7525,-31.6023,-9.13573,20.0757,0.813595,1.44189,-0.123489,
0.200562,-0.138779,0.0405654,-2.12873,0.368825,0.00813286,-0.0374146,0.320581,0.0493914,0.340322,-0.660846,1.29116,0.51595,-0.0538151,-5.93701,-3.07383,-6.29369,6.98115,-9.85984,36.7454,1.59007,13.5412,-6.34192,14.5776,-51.1771,10.3932,12.8068,-0.488742,0.188642,-0.140788,0.0279402,-2.10565,0.325114,-0.0116303,-0.0355823,0.732286,-0.0187033,0.510969,-1.29899,1.74498,0.748652,-0.103357,0,0,0,0,0,0,0,-7.7525,-31.6023,-9.13573,20.0757,0.813595,1.44189,-0.123489,
0.20254,-0.138677,0.0426663,-2.13339,0.378163,0.0148165,-0.0377088,0.305913,0.0420531,0.324779,-0.645251,1.26637,0.57985,-0.0504068,-9.16758,-4.58644,-9.71437,9.74708,-15.4922,39.9378,2.13015,13.781,-5.33948,14.7925,-50.2743,10.3932,12.8068,-0.419983,0.188642,-0.140788,0.0279402,-2.10565,0.325114,-0.0116303,-0.0355823,0.732286,-0.0187033,0.510969,-1.29899,1.74498,0.748652,-0.103357,0,0,0,0,0,0,0,-7.7525,-31.6023,-9.13573,20.0757,0.813595,1.44189,-0.123489,
0.195712,-0.13934,0.0354073,-2.11838,0.348507,-0.00315151,-0.0365076,0.32421,0.0511561,0.34415,-0.660552,1.2925,0.574327,-0.0508684,11.4355,5.68938,12.1066,-9.56346,16.3297,-3.45182,-0.288478,13.0763,-7.83123,14.2353,-52.0341,10.2354,12.6783,-0.571434,0.205046,-0.140256,0.0511297,-2.15267,0.383882,0.0206005,-0.0382649,0.451384,0.0539742,0.590913,-1.34204,1.67774,1.03935,-0.0636035,-35.1128,9.08469,9.99297,-5.38131,-8.40516,36.3372,4.9692,-8.26031,-32.8481,-9.46105,28.6966,0.484005,2.88018,-0.0630644,
0.198376,-0.138846,0.0382324,-2.1236,0.358926,0.00206064,-0.036865,0.325955,0.053278,0.345948,-0.658726,1.29449,0.589766,-0.0496296,1.0907,1.3262,1.12379,1.14116,1.24081,9.64892,0.774245,13.5555,-6.80761,14.6992,-51.1315,10.2354,12.6783,-0.489352,0.205046,-0.140256,0.0511297,-2.15267,0.383882,0.0206005,-0.0382649,0.451384,0.0539742,0.590913,-1.34204,1.67774,1.03935,-0.0636035,0,0,0,0,0,0,0,-8.26031,-32.8481,-9.46105,28.6966,0.484005,2.88018,-0.0630644,
0.200655,-0.138539,0.0406501,-2.12845,0.368745,0.00805772,-0.0371657,0.317751,0.0503071,0.337201,-0.648398,1.28107,0.62174,-0.0472215,-5.12749,-1.85679,-5.46658,6.45547,-8.38194,19.9837,1.50509,13.7953,-5.80517,14.9141,-50.2286,10.2354,12.6783,-0.420592,0.205046,-0.140256,0.0511297,-2.15267,0.383882,0.0206005,-0.0382649,0.451384,0.0539742,0.590913,-1.34204,1.67774,1.03935,-0.0636035,0,0,0,0,0,0,0,-8.26031,-32.8481,-9.46105,28.6966,0.484005,2.88018,-0.0630644,
0.202658,-0.138372,0.0427696,-2.13303,0.377859,0.0147278,-0.0374165,0.304271,0.0444176,0.322749,-0.633218,1.2527,0.664143,-0.0440478,-8.42519,-3.68099,-9.03253,9.48732,-17.7327,26.5023,1.98356,13.8811,-4.87746,14.9733,-49.3389,10.2308,12.6783,-0.359966,0.205046,-0.140256,0.0511297,-2.15267,0.383882,0.0206005,-0.0382649,0.451384,0.0539742,0.590913,-1.34204,1.67774,1.03935,-0.0636035,0,0,0,0,0,0,0,-8.26031,-32.8481,-9.46105,28.6966,0.484005,2.88018,-0.0630644,
0.211148,-0.13802,0.0576443,-2.16551,0.404961,0.0314741,-0.0390095,0.312777,0.0613626,0.332099,-0.651158,1.25222,0.665209,-0.0439581,5.31621,10.5907,5.84379,-11.2128,-0.302953,0.665968,0.0560472,13.572,-7.19572,14.7846,-50.9458,10.1617,12.6375,-0.488468,0.224716,-0.13988,0.0660809,-2.19822,0.441184,0.0622671,-0.0406154,0.480177,0.0575806,0.535592,-1.31208,1.55664,1.32695,-0.0645809,3.59907,0.450797,-6.9151,3.74429,-15.1372,35.9501,-0.122184,-5.64984,-31.2016,-6.3864,31.7117,2.20611,2.95342,-0.0969389,
0.213503,-0.137285,0.0601539,-2.1707,0.414313,0.0373152,-0.0393066,0.30911,0.0674685,0.32842,-0.650609,1.23557,0.678194,-0.0425934,-2.29193,3.81616,-2.29944,0.343122,-10.4048,8.11548,0.852934,13.8118,-6.19328,14.9995,-50.043,10.1617,12.6375,-0.419709,0.224716,-0.13988,0.0660809,-2.19822,0.441184,0.0622671,-0.0406154,0.480177,0.0575806,0.535592,-1.31208,1.55664,1.32695,-0.0645809,0,0,0,0,0,0,0,-5.64984,-31.2016,-6.3864,31.7117,2.20611,2.95342,-0.0969389,
0.215557,-0.136803,0.0623372,-2.1755,0.422984,0.0437448,-0.0395549,0.29863,0.0660155,0.317317,-0.640581,1.20525,0.703296,-0.0402825,-6.54987,-0.908121,-6.93912,6.26774,-18.9515,15.6887,1.44431,13.8976,-5.26556,15.0586,-49.1533,10.1571,12.6375,-0.359083,0.224716,-0.13988,0.0660809,-2.19822,0.441184,0.0622671,-0.0406154,0.480177,0.0575806,0.535592,-1.31208,1.55664,1.32695,-0.0645809,0,0,0,0,0,0,0,-5.64984,-31.2016,-6.3864,31.7117,2.20611,2.95342,-0.0969389,
0.211148,-0.13802,0.0576443,-2.16551,0.404961,0.0314741,-0.0390095,0.308264,0.078641,0.327754,-0.657049,1.21425,0.696531,-0.0409459,6.02133,7.89093,6.52274,-10.2924,5.62889,-4.22806,-0.414612,13.8118,-6.19328,14.9995,-50.043,10.1617,12.6375,-0.419709,0.224716,-0.13988,0.0660809,-2.19822,0.441184,0.0622671,-0.0406154,0.480177,0.0575806,0.535592,-1.31208,1.55664,1.32695,-0.0645809,0,0,0,0,0,0,0,-5.64984,-31.2016,-6.3864,31.7117,2.20611,2.95342,-0.0969389,
0.232833,-0.136948,0.0747554,-2.21564,0.469012,0.0821503,-0.0414919,0.303107,0.0808127,0.322443,-0.650577,1.18319,0.7201,-0.0389722,-3.22354,1.35733,-3.31934,4.04515,-19.4171,14.7308,1.23353,13.9374,-5.76597,15.1811,-49.1284,10.1003,12.5218,-0.357162,0.23891,-0.139991,0.0852587,-2.24195,0.493461,0.110191,-0.0422532,0.564101,-0.00614317,0.387413,-1.24029,1.49851,1.46295,-0.029943,10.4905,-7.96547,-18.5224,8.97354,-7.26638,16.9998,4.32974,-3.31707,-27.2582,-4.06157,26.7288,1.67419,0.0429594,-0.0163725,
0.234804,-0.136487,0.0768543,-2.22028,0.476827,0.0890512,-0.0416978,0.291761,0.0761836,0.310426,-0.636479,1.14192,0.748603,-0.0363236,-7.09081,-2.89323,-7.51057,8.81094,-25.7932,17.8146,1.65538,13.9147,-4.94662,15.1299,-48.261,9.2462,12.5218,-0.303702,0.23891,-0.139991,0.0852587,-2.24195,0.493461,0.110191,-0.0422532,0.564101,-0.00614317,0.387413,-1.24029,1.49851,1.46295,-0.029943,0,0,0,0,0,0,0,-3.31707,-27.2582,-4.06157,26.7288,1.67419,0.0429594,-0.0163725,
0.236558,-0.136213,0.0787222,-2.22466,0.484059,0.0963725,-0.0418671,0.277268,0.067801,0.295037,-0.618791,1.09433,0.781914,-0.0332919,-9.05827,-5.23913,-9.61816,11.0548,-29.7408,20.8191,1.8948,13.8098,-4.24857,14.9968,-47.4265,8.55579,12.5218,-0.255791,0.23891,-0.139991,0.0852587,-2.24195,0.493461,0.110191,-0.0422532,0.564101,-0.00614317,0.387413,-1.24029,1.49851,1.46295,-0.029943,0,0,0,0,0,0,0,-3.31707,-27.2582,-4.06157,26.7288,1.67419,0.0429594,-0.0163725,
0.244381,-0.138502,0.0910819,-2.25361,0.511742,0.124984,-0.0427633,0.283848,0.0718944,0.302301,-0.62591,1.08983,0.799764,-0.0326882,4.11264,2.55838,4.54032,-4.44914,-2.81546,11.156,0.37734,13.9374,-5.76597,15.1811,-49.1284,10.1003,12.5218,-0.357162,0.23891,-0.139991,0.0852587,-2.24195,0.493461,0.110191,-0.0422532,0.564101,-0.00614317,0.387413,-1.24029,1.49851,1.46295,-0.029943,0,0,0,0,0,0,0,-3.31707,-27.2582,-4.06157,26.7288,1.67419,0.0429594,-0.0163725,
0.246504,-0.138018,0.0933472,-2.25832,0.519548,0.131982,-0.0429681,0.280153,0.0696105,0.298475,-0.618613,1.067,0.814738,-0.0312695,-2.30976,-1.42741,-2.39128,4.56074,-14.266,9.35906,0.886665,13.9147,-4.94662,15.1299,-48.261,9.2462,12.5218,-0.303702,0.23891,-0.139991,0.0852587,-2.24195,0.493461,0.110191,-0.0422532,0.564101,-0.00614317,0.387413,-1.24029,1.49851,1.46295,-0.029943,0,0,0,0,0,0,0,-3.31707,-27.2582,-4.06157,26.7288,1.67419,0.0429594,-0.0163725,
0.248363,-0.137729,0.0953311,-2.26274,0.526738,0.139264,-0.0431373,0.270606,0.0629171,0.288377,-0.605222,1.03335,0.833861,-0.0292444,-5.96647,-4.1834,-6.31139,8.36927,-21.031,11.9516,1.26573,13.749,-4.46018,14.9921,-47.2052,8.55487,12.512,-0.253045,0.254939,-0.139139,0.101945,-2.2835,0.542676,0.161881,-0.0435095,0.348899,0.0808775,0.637372,-1.14723,1.30984,1.54148,-0.0281415,-26.9002,10.8776,31.245,11.6331,-23.5835,9.81638,0.225196,-0.627255,-29.8528,-1.36382,22.1466,2.22992,-1.06483,-0.0767973,
0.250028,-0.137583,0.0971097,-2.26693,0.533286,0.146885,-0.0432737,0.258101,0.0539818,0.275167,-0.588926,0.990385,0.8576,-0.0268072,-7.81557,-5.58457,-8.25613,10.1851,-26.8543,14.8373,1.52326,13.5834,-3.87789,14.7992,-46.4047,8.02053,12.512,-0.211904,0.254939,-0.139139,0.101945,-2.2835,0.542676,0.161881,-0.0435095,0.348899,0.0808775,0.637372,-1.14723,1.30984,1.54148,-0.0281415,0,0,0,0,0,0,0,-0.627255,-29.8528,-1.36382,22.1466,2.22992,-1.06483,-0.0767973,
0.26046,-0.13715,0.107914,-2.29482,0.558336,0.17774,-0.043933,0.268855,0.0652509,0.287075,-0.599482,0.976687,0.870665,-0.0265283,6.72099,7.04324,7.4423,-6.59739,-8.56104,8.16564,0.174281,13.8539,-5.15823,15.1252,-48.0397,9.24528,12.512,-0.300956,0.254939,-0.139139,0.101945,-2.2835,0.542676,0.161881,-0.0435095,0.348899,0.0808775,0.637372,-1.14723,1.30984,1.54148,-0.0281415,0,0,0,0,0,0,0,-0.627255,-29.8528,-1.36382,22.1466,2.22992,-1.06483,-0.0767973,
0.262569,-0.136555,0.110173,-2.29947,0.565142,0.18497,-0.0441037,0.267801,0.0670592,0.286144,-0.595935,0.951503,0.877271,-0.0254922,-0.65861,1.13013,-0.581882,2.21668,-15.74,4.12836,0.64756,13.749,-4.46018,14.9921,-47.2052,8.55487,12.512,-0.253045,0.254939,-0.139139,0.101945,-2.2835,0.542676,0.161881,-0.0435095,0.348899,0.0808775,0.637372,-1.14723,1.30984,1.54148,-0.0281415,0,0,0,0,0,0,0,-0.627255,-29.8528,-1.36382,22.1466,2.22992,-1.06483,-0.0767973,
0.264403,-0.136191,0.112139,-2.30383,0.571377,0.192366,-0.0442412,0.260092,0.0627523,0.278061,-0.585609,0.917084,0.886728,-0.0238306,-4.81817,-2.69176,-5.05214,6.45388,-21.5122,5.91083,1.0385,13.7654,-4.11176,15.0285,-46.2596,8.13238,12.4316,-0.211825,0.271678,-0.138814,0.116766,-2.32489,0.588836,0.217449,-0.0443643,0.560726,0.00777653,0.394058,-1.26141,1.32673,1.64058,-0.019928,26.4784,-9.13762,-30.4142,-14.2731,2.11048,12.3875,1.02669,-1.51593,-26.2862,-2.3358,27.8,2.40112,1.19652,-0.244339,
0.276995,-0.137125,0.12245,-2.33639,0.603319,0.233008,-0.0446808,0.26788,0.0700937,0.286627,-0.596855,0.901142,0.888567,-0.0230057,4.86759,4.58836,5.35388,-7.02893,-9.96353,1.14921,0.515596,13.931,-4.69405,15.2214,-47.0601,8.66672,12.4316,-0.252965,0.271678,-0.138814,0.116766,-2.32489,0.588836,0.217449,-0.0443643,0.560726,0.00777653,0.394058,-1.26141,1.32673,1.64058,-0.019928,0,0,0,0,0,0,0,-1.51593,-26.2862,-2.3358,27.8,2.40112,1.19652,-0.244339,
0.279026,-0.136571,0.124629,-2.34099,0.609341,0.240035,-0.0448148,0.265061,0.0699283,0.283771,-0.592448,0.871472,0.88653,-0.0217526,-1.76216,-0.103373,-1.78516,2.7542,-18.544,-1.27307,0.783143,13.7654,-4.11176,15.0285,-46.2596,8.13238,12.4316,-0.211825,0.271678,-0.138814,0.116766,-2.32489,0.588836,0.217449,-0.0443643,0.560726,0.00777653,0.394058,-1.26141,1.32673,1.64058,-0.019928,0,0,0,0,0,0,0,-1.51593,-26.2862,-2.3358,27.8,2.40112,1.19652,-0.244339,
0.2808,-0.136228,0.126535,-2.34527,0.614719,0.247272,-0.044921,0.256403,0.0645159,0.274672,-0.581038,0.831628,0.890146,-0.0200584,-5.41083,-3.38273,-5.6864,7.13149,-24.9025,2.26033,1.05887,13.5509,-3.62728,14.8382,-45.4859,7.25728,12.4316,-0.175526,0.271678,-0.138814,0.116766,-2.32489,0.588836,0.217449,-0.0443643,0.560726,0.00777653,0.394058,-1.26141,1.32673,1.64058,-0.019928,0,0,0,0,0,0,0,-1.51593,-26.2862,-2.3358,27.8,2.40112,1.19652,-0.244339,
0.282388,-0.136043,0.128244,-2.34934,0.619473,0.254824,-0.0450013,0.244826,0.0562512,0.262471,-0.566335,0.784143,0.900916,-0.0180528,-7.23597,-5.16543,-7.62573,9.18943,-29.6781,6.73088,1.25351,13.2874,-3.61652,14.6623,-44.6363,6.235,12.3486,-0.140612,0.284724,-0.137786,0.135697,-2.36472,0.629854,0.273276,-0.0449944,0.43228,-0.00549252,0.501395,-1.13963,1.20962,1.63004,-0.0202672,-16.0557,-1.65863,13.4171,15.223,-14.6388,-1.31764,-0.0424097,-0.730404,-26.9844,-2.51036,17.5128,2.07794,0.20867,-0.0429228,
0.28985,-0.13652,0.141217,-2.3755,0.642805,0.289397,-0.0452458,0.253499,0.0598802,0.271952,-0.574352,0.776139,0.90695,-0.0176171,5.42046,2.26811,5.92585,-5.01088,-5.00241,3.77108,0.272344,13.7142,-4.50289,15.0304,-46.165,8.13909,12.3486,-0.20879,0.284724,-0.137786,0.135697,-2.36472,0.629854,0.273276,-0.0449944,0.43228,-0.00549252,0.501395,-1.13963,1.20962,1.63004,-0.0202672,0,0,0,0,0,0,0,-0.730404,-26.9844,-2.51036,17.5128,2.07794,0.20867,-0.0429228,
0.291804,-0.136123,0.143319,-2.37988,0.648057,0.296658,-0.0453518,0.251633,0.0578276,0.270097,-0.56904,0.752219,0.907069,-0.0167432,-1.16598,-1.28288,-1.15981,3.32024,-14.9495,0.0745206,0.546162,13.4998,-4.01841,14.8401,-45.3914,7.26399,12.3486,-0.172491,0.284724,-0.137786,0.135697,-2.36472,0.629854,0.273276,-0.0449944,0.43228,-0.00549252,0.501395,-1.13963,1.20962,1.63004,-0.0202672,0,0,0,0,0,0,0,-0.730404,-26.9844,-2.51036,17.5128,2.07794,0.20867,-0.0429228,
0.293511,-0.135899,0.145158,-2.38399,0.652701,0.304085,-0.0454326,0.243984,0.0518676,0.262057,-0.558025,0.717861,0.911349,-0.0154138,-4.78046,-3.72501,-5.02467,6.88401,-21.4741,2.67511,0.830909,13.2874,-3.61652,14.6623,-44.6363,6.235,12.3486,-0.140612,0.284724,-0.137786,0.135697,-2.36472,0.629854,0.273276,-0.0449944,0.43228,-0.00549252,0.501395,-1.13963,1.20962,1.63004,-0.0202672,0,0,0,0,0,0,0,-0.730404,-26.9844,-2.51036,17.5128,2.07794,0.20867,-0.0429228,
0.295041,-0.135802,0.14681,-2.38791,0.656785,0.311792,-0.0454886,0.233435,0.0439193,0.250937,-0.544452,0.676407,0.921751,-0.0137305,-6.59349,-4.96769,-6.95012,8.48318,-25.9088,6.50159,1.05202,13.1662,-3.42134,14.5762,-43.6462,5.48825,12.3226,-0.109229,0.302424,-0.136878,0.149215,-2.40455,0.670055,0.329929,-0.0452986,0.389039,0.0271127,0.561529,-1.20175,1.08119,1.63197,-0.0030929,-5.40518,4.07565,7.51668,-7.7655,-16.0531,0.241766,2.14679,-2.35302,-28.2817,-3.1848,25.7568,1.61377,2.01867,-0.130813,
0.307533,-0.135179,0.154756,-2.41571,0.680343,0.345334,-0.0454644,0.244018,0.0547992,0.262607,-0.560257,0.656688,0.913674,-0.0133078,6.61431,6.79994,7.29345,-9.87817,-12.3244,-5.04823,0.264198,13.551,-4.14629,14.9201,-45.1369,7.37804,12.3226,-0.170834,0.302424,-0.136878,0.149215,-2.40455,0.670055,0.329929,-0.0452986,0.389039,0.0271127,0.561529,-1.20175,1.08119,1.63197,-0.0030929,0,0,0,0,0,0,0,-2.35302,-28.2817,-3.1848,25.7568,1.61377,2.01867,-0.130813,
0.309467,-0.134635,0.156845,-2.42018,0.684402,0.352222,-0.0455427,0.243559,0.0574444,0.262295,-0.559913,0.626824,0.903135,-0.0126038,-0.286779,1.65323,-0.194822,0.215051,-18.6647,-6.58734,0.440044,13.3386,-3.7444,14.7423,-44.3819,6.34904,12.3226,-0.138954,0.302424,-0.136878,0.149215,-2.40455,0.670055,0.329929,-0.0452986,0.389039,0.0271127,0.561529,-1.20175,1.08119,1.63197,-0.0030929,0,0,0,0,0,0,0,-2.35302,-28.2817,-3.1848,25.7568,1.61377,2.01867,-0.130813,
0.311154,-0.134298,0.158669,-2.42434,0.688021,0.359331,-0.0455983,0.237033,0.0543842,0.25544,-0.552126,0.591931,0.900231,-0.0114732,-4.07875,-1.91258,-4.2846,4.86695,-21.8082,-1.81459,0.706584,13.1662,-3.42134,14.5762,-43.6462,5.48825,12.3226,-0.109229,0.302424,-0.136878,0.149215,-2.40455,0.670055,0.329929,-0.0452986,0.389039,0.0271127,0.561529,-1.20175,1.08119,1.63197,-0.0030929,0,0,0,0,0,0,0,-2.35302,-28.2817,-3.1848,25.7568,1.61377,2.01867,-0.130813,
0.312665,-0.134114,0.160305,-2.4283,0.691262,0.366775,-0.0456309,0.227402,0.0481013,0.245258,-0.540637,0.554568,0.906291,-0.00999374,-6.01931,-3.92686,-6.36345,7.1805,-23.3518,3.78708,0.924672,12.8997,-3.58611,14.3287,-42.8519,4.81319,12.2381,-0.078424,0.316131,-0.135644,0.166601,-2.4431,0.703519,0.386174,-0.045393,0.561204,0.0173862,0.317404,-1.10049,1.00635,1.63732,-0.000767336,21.5207,-1.2158,-30.5156,12.6583,-9.35573,0.668607,0.290696,-3.2893,-27.2344,-4.63683,20.1273,1.81518,0.659109,-0.0703886,
0.320812,-0.134342,0.171632,-2.45357,0.712705,0.402164,-0.0455053,0.234199,0.0534338,0.252789,-0.550385,0.545058,0.909598,-0.00962131,4.248,3.33286,4.7067,-6.09234,-5.94412,2.06708,0.232769,13.2073,-4.16021,14.6411,-44.3048,6.3874,12.2381,-0.136909,0.316131,-0.135644,0.166601,-2.4431,0.703519,0.386174,-0.045393,0.561204,0.0173862,0.317404,-1.10049,1.00635,1.63732,-0.000767336,0,0,0,0,0,0,0,-3.2893,-27.2344,-4.63683,20.1273,1.81518,0.659109,-0.0703886,
0.32259,-0.133946,0.173559,-2.45783,0.716224,0.409377,-0.045558,0.231825,0.052636,0.250394,-0.546886,0.524027,0.908013,-0.00901585,-1.4834,-0.498645,-1.49694,2.1871,-13.1441,-0.99034,0.378414,13.0348,-3.83715,14.475,-43.5691,5.52661,12.2381,-0.107183,0.316131,-0.135644,0.166601,-2.4431,0.703519,0.386174,-0.045393,0.561204,0.0173862,0.317404,-1.10049,1.00635,1.63732,-0.000767336,0,0,0,0,0,0,0,-3.2893,-27.2344,-4.63683,20.1273,1.81518,0.659109,-0.0703886,
0.324156,-0.133723,0.175257,-2.46184,0.719375,0.416777,-0.0455902,0.224609,0.0477082,0.242777,-0.537624,0.497995,0.911412,-0.00801621,-4.51028,-3.07989,-4.76045,5.78869,-16.2699,2.12432,0.624772,12.8997,-3.58611,14.3287,-42.8519,4.81319,12.2381,-0.078424,0.316131,-0.135644,0.166601,-2.4431,0.703519,0.386174,-0.045393,0.561204,0.0173862,0.317404,-1.10049,1.00635,1.63732,-0.000767336,0,0,0,0,0,0,0,-3.2893,-27.2344,-4.63683,20.1273,1.81518,0.659109,-0.0703886,
0.325571,-0.133625,0.176794,-2.46566,0.722204,0.424466,-0.0456035,0.215046,0.040612,0.232651,-0.525605,0.469109,0.921341,-0.00674585,-5.9766,-4.4351,-6.32843,7.51163,-18.0537,6.20562,0.793978,12.8532,-3.58706,14.2926,-41.8782,4.3949,12.1759,-0.0484694,0.330646,-0.134955,0.183344,-2.48028,0.729724,0.443793,-0.0453995,0.337748,0.0458345,0.611739,-1.10432,0.860304,1.6966,8.93187e-05,-27.9321,3.55603,36.7919,-0.478969,-18.2555,7.40959,0.107082,-2.60693,-27.282,-3.68468,25.6577,1.3446,1.10406,-0.0566557,
0.33551,-0.133412,0.188664,-2.49083,0.736496,0.459856,-0.0454603,0.226074,0.0497588,0.244825,-0.539123,0.449432,0.919735,-0.0065235,6.89237,5.71676,7.60838,-8.44853,-12.2982,-1.0038,0.138967,13.1112,-4.02725,14.5862,-43.2903,5.6507,12.1759,-0.105077,0.330646,-0.134955,0.183344,-2.48028,0.729724,0.443793,-0.0453995,0.337748,0.0458345,0.611739,-1.10432,0.860304,1.6966,8.93187e-05,0,0,0,0,0,0,0,-2.60693,-27.282,-3.68468,25.6577,1.3446,1.10406,-0.0566557,
0.337322,-0.132954,0.190631,-2.49511,0.739171,0.466906,-0.0454943,0.226147,0.0512596,0.245043,-0.538359,0.42642,0.912053,-0.0060681,0.0456597,0.937959,0.136606,0.477405,-14.3828,-4.80164,0.284627,12.9761,-3.77621,14.4399,-42.5732,4.93729,12.1759,-0.0763179,0.330646,-0.134955,0.183344,-2.48028,0.729724,0.443793,-0.0453995,0.337748,0.0458345,0.611739,-1.10432,0.860304,1.6966,8.93187e-05,0,0,0,0,0,0,0,-2.60693,-27.282,-3.68468,25.6577,1.3446,1.10406,-0.0566557,
0.338901,-0.132686,0.192348,-2.49912,0.741656,0.474117,-0.0455102,0.220387,0.0477147,0.238944,-0.530942,0.403252,0.909909,-0.00525269,-3.5999,-2.21553,-3.81222,4.63535,-14.4796,-1.33988,0.509632,12.8532,-3.58706,14.2926,-41.8782,4.3949,12.1759,-0.0484694,0.330646,-0.134955,0.183344,-2.48028,0.729724,0.443793,-0.0453995,0.337748,0.0458345,0.611739,-1.10432,0.860304,1.6966,8.93187e-05,0,0,0,0,0,0,0,-2.60693,-27.282,-3.68468,25.6577,1.3446,1.10406,-0.0566557,
0.340289,-0.132622,0.193854,-2.50283,0.744175,0.481247,-0.0453449,0.211015,0.0397803,0.228807,-0.517529,0.385578,0.906172,-6.83933e-05,-5.85767,-4.95903,-6.33536,8.38326,-11.0468,-2.33558,3.24018,12.538,-3.72082,13.9722,-41.1775,3.93351,12.0914,-0.0229866,0.346701,-0.134173,0.196179,-2.51747,0.75399,0.50109,-0.0454007,0.454974,0.0317074,0.363692,-1.11297,0.602401,1.60382,-0.00372158,14.6533,-1.76588,-31.0059,-1.08178,-32.2378,-11.5976,-0.476362,-2.45221,-26.9606,-3.66088,22.1466,0.782467,1.6607,-0.0026396,
0.350786,-0.133318,0.200588,-2.5272,0.762676,0.518277,-0.0459252,0.213381,0.0385964,0.231081,-0.518289,0.41729,0.925175,-0.00625076,1.47858,-0.739929,1.42082,-0.475133,19.8205,11.8767,-3.86398,12.8,-4.05656,14.2816,-42.5501,4.97706,12.0914,-0.0735021,0.346701,-0.134173,0.196179,-2.51747,0.75399,0.50109,-0.0454007,0.454974,0.0317074,0.363692,-1.11297,0.602401,1.60382,-0.00372158,0,0,0,0,0,0,0,-2.45221,-26.9606,-3.66088,22.1466,0.782467,1.6607,-0.0026396,
0.352177,-0.133549,0.202069,-2.53054,0.766942,0.525113,-0.0460978,0.205482,0.0250884,0.22191,-0.498058,0.440477,0.911039,-0.00931454,-4.93655,-8.44247,-5.73192,12.6445,14.4915,-8.83498,-1.91486,12.6771,-3.86741,14.1342,-41.8551,4.43468,12.0914,-0.0456535,0.346701,-0.134173,0.196179,-2.51747,0.75399,0.50109,-0.0454007,0.454974,0.0317074,0.363692,-1.11297,0.602401,1.60382,-0.00372158,0,0,0,0,0,0,0,-2.45221,-26.9606,-3.66088,22.1466,0.782467,1.6607,-0.0026396,
0.353286,-0.134269,0.203229,-2.53332,0.771034,0.530866,-0.0461763,0.192113,0.00206235,0.206526,-0.467911,0.454695,0.872644,-0.0094143,-8.35606,-14.3913,-9.61455,18.8419,8.8864,-23.9969,-0.0623522,12.538,-3.72082,13.9722,-41.1775,3.93351,12.0914,-0.0229866,0.346701,-0.134173,0.196179,-2.51747,0.75399,0.50109,-0.0454007,0.454974,0.0317074,0.363692,-1.11297,0.602401,1.60382,-0.00372158,0,0,0,0,0,0,0,-2.45221,-26.9606,-3.66088,22.1466,0.782467,1.6607,-0.0026396,
0.354194,-0.135405,0.204156,-2.5357,0.774916,0.535675,-0.0461493,0.17637,-0.0267483,0.188391,-0.434053,0.460788,0.818344,-0.00685814,-9.83934,-18.0066,-11.3348,21.1612,3.80829,-33.9369,1.5976,12.3652,-4.17917,13.834,-40.3341,3.21253,11.972,0.0012662,0.357517,-0.134301,0.213683,-2.55222,0.777487,0.553599,-0.0453938,0.427793,-0.0422703,0.382736,-0.969049,0.619181,1.42586,0.00114212,-3.39766,-9.24721,2.38046,17.9905,2.09741,-22.2447,0.607962,-2.83307,-22.0928,-3.23638,17.6874,-2.96112,4.43841,-0.050247,
0.361418,-0.13483,0.217826,-2.56044,0.787744,0.570032,-0.0459076,0.181686,-0.0338233,0.193559,-0.431273,0.496308,0.837761,-0.0113544,3.323,-4.42191,3.23,1.73795,22.1997,12.1353,-2.81016,12.6341,-4.4512,14.1225,-41.6841,4.49358,11.972,-0.0447474,0.357517,-0.134301,0.213683,-2.55222,0.777487,0.553599,-0.0453938,0.427793,-0.0422703,0.382736,-0.969049,0.619181,1.42586,0.00114212,0,0,0,0,0,0,0,-2.83307,-22.0928,-3.23638,17.6874,-2.96112,4.43841,-0.050247,
0.362573,-0.135947,0.219012,-2.56291,0.792647,0.575694,-0.0460571,0.174226,-0.054992,0.184501,-0.406619,0.519623,0.811746,-0.0128214,-4.66274,-13.2304,-5.66073,15.4082,14.5717,-16.2596,-0.916896,12.495,-4.30461,13.9605,-41.0064,3.99241,11.972,-0.0220805,0.357517,-0.134301,0.213683,-2.55222,0.777487,0.553599,-0.0453938,0.427793,-0.0422703,0.382736,-0.969049,0.619181,1.42586,0.00114212,0,0,0,0,0,0,0,-2.83307,-22.0928,-3.23638,17.6874,-2.96112,4.43841,-0.050247,
0.363401,-0.137632,0.219825,-2.5648,0.797268,0.57993,-0.0460976,0.160075,-0.0861188,0.167923,-0.372651,0.531214,0.755295,-0.0112692,-8.84455,-19.4543,-10.3614,21.2306,7.24497,-35.2817,0.970166,12.3652,-4.17917,13.834,-40.3341,3.21253,11.972,0.0012662,0.357517,-0.134301,0.213683,-2.55222,0.777487,0.553599,-0.0453938,0.427793,-0.0422703,0.382736,-0.969049,0.619181,1.42586,0.00114212,0,0,0,0,0,0,0,-2.83307,-22.0928,-3.23638,17.6874,-2.96112,4.43841,-0.050247,
0.361438,-0.134794,0.217834,-2.56032,0.787592,0.569997,-0.0458832,0.169029,-0.0807715,0.177398,-0.380435,0.550367,0.786819,-0.0146009,5.5965,3.34209,5.92184,-4.86518,11.9705,19.7025,-2.0823,12.495,-4.30461,13.9605,-41.0064,3.99241,11.972,-0.0220805,0.357517,-0.134301,0.213683,-2.55222,0.777487,0.553599,-0.0453938,0.427793,-0.0422703,0.382736,-0.969049,0.619181,1.42586,0.00114212,0,0,0,0,0,0,0,-2.83307,-22.0928,-3.23638,17.6874,-2.96112,4.43841,-0.050247,
0.362608,-0.135892,0.219029,-2.56272,0.792396,0.575633,-0.0460216,0.164465,-0.0920608,0.1718,-0.364312,0.560404,0.77037,-0.0151427,-2.85274,-7.05584,-3.49857,10.0765,6.27314,-10.2807,-0.338673,12.4042,-4.61463,13.8901,-40.0181,3.33305,11.8946,0.00124648,0.374469,-0.136084,0.225164,-2.58457,0.803608,0.599907,-0.0453842,0.337216,-0.0408451,0.510874,-0.907673,0.728839,1.34889,0.00343324,-11.3221,0.178147,16.0173,7.67196,13.7073,-9.62073,0.28639,-3.82489,-24.9889,-3.83544,22.6663,-3.80982,4.28002,-0.150955,
0.363454,-0.137557,0.219856,-2.56455,0.7969,0.579842,-0.0460521,0.152746,-0.115278,0.158108,-0.337015,0.560924,0.721507,-0.0128744,-7.3244,-14.5106,-8.55779,17.0609,0.324948,-30.5392,1.41769,12.2722,-4.51205,13.73,-39.3579,2.87191,11.8946,0.0177626,0.374469,-0.136084,0.225164,-2.58457,0.803608,0.599907,-0.0453842,0.337216,-0.0408451,0.510874,-0.907673,0.728839,1.34889,0.00343324,0,0,0,0,0,0,0,-3.82489,-24.9889,-3.83544,22.6663,-3.80982,4.28002,-0.150955,
0.36409,-0.139676,0.220434,-2.56598,0.801058,0.582884,-0.0459612,0.138086,-0.145203,0.140951,-0.305438,0.552674,0.65327,-0.00802751,-9.16256,-18.7034,-10.723,19.7357,-5.15643,-42.6483,3.02933,12.1689,-4.41618,13.6283,-38.6977,2.19006,11.8946,0.033359,0.374469,-0.136084,0.225164,-2.58457,0.803608,0.599907,-0.0453842,0.337216,-0.0408451,0.510874,-0.907673,0.728839,1.34889,0.00343324,0,0,0,0,0,0,0,-3.82489,-24.9889,-3.83544,22.6663,-3.80982,4.28002,-0.150955,
0.378175,-0.137533,0.229049,-2.59147,0.814792,0.614491,-0.0454634,0.147392,-0.14291,0.15062,-0.310752,0.579795,0.677561,-0.00703817,5.8164,1.4333,6.04302,-3.3217,16.9504,15.1822,0.618337,12.4042,-4.61463,13.8901,-40.0181,3.33305,11.8946,0.00124648,0.374469,-0.136084,0.225164,-2.58457,0.803608,0.599907,-0.0453842,0.337216,-0.0408451,0.510874,-0.907673,0.728839,1.34889,0.00343324,0,0,0,0,0,0,0,-3.82489,-24.9889,-3.83544,22.6663,-3.80982,4.28002,-0.150955,
0.379122,-0.139368,0.229965,-2.59318,0.81997,0.618741,-0.0454112,0.141586,-0.160202,0.143405,-0.291317,0.59329,0.648318,-0.00432574,-3.62838,-10.8074,-4.50931,12.1469,8.43457,-18.2773,1.69527,12.0475,-5.09532,13.569,-39.4316,2.89606,11.7924,0.0189597,0.385881,-0.140632,0.24099,-2.61212,0.829935,0.647973,-0.0453835,0.441206,-0.144784,0.218406,-0.757501,0.715363,1.27009,-0.000888628,12.9987,-12.9923,-36.5585,18.7715,-1.6846,-9.85065,-0.540234,-4.25335,-19.6211,-5.03752,15.2713,-2.07581,3.7362,-0.143631,
0.379717,-0.141855,0.230477,-2.59429,0.824731,0.621374,-0.0452543,0.12816,-0.190345,0.127515,-0.260766,0.593637,0.584482,0.000463407,-8.39169,-18.8395,-9.93109,19.0948,0.21676,-39.8972,2.99322,11.9442,-4.99945,13.4673,-38.7714,2.21421,11.7924,0.0345562,0.385881,-0.140632,0.24099,-2.61212,0.829935,0.647973,-0.0453835,0.441206,-0.144784,0.218406,-0.757501,0.715363,1.27009,-0.000888628,0,0,0,0,0,0,0,-4.25335,-19.6211,-5.03752,15.2713,-2.07581,3.7362,-0.143631,
0.38009,-0.144841,0.230725,-2.59501,0.829042,0.622728,-0.0449749,0.111842,-0.226916,0.108218,-0.226667,0.582687,0.501433,0.00735568,-10.1986,-22.8569,-12.0609,21.3119,-6.84361,-51.9057,4.30767,11.8838,-4.91269,13.3909,-38.1134,1.55587,11.7924,0.0466676,0.385881,-0.140632,0.24099,-2.61212,0.829935,0.647973,-0.0453835,0.441206,-0.144784,0.218406,-0.757501,0.715363,1.27009,-0.000888628,0,0,0,0,0,0,0,-4.25335,-19.6211,-5.03752,15.2713,-2.07581,3.7362,-0.143631,
0.388559,-0.143983,0.243654,-2.61719,0.841554,0.660611,-0.0454118,0.114436,-0.232606,0.110645,-0.225985,0.607294,0.527004,0.0062203,1.62144,-3.55595,1.51735,0.426393,15.3794,15.982,-0.709609,12.0475,-5.09532,13.569,-39.4316,2.89606,11.7924,0.0189597,0.385881,-0.140632,0.24099,-2.61212,0.829935,0.647973,-0.0453835,0.441206,-0.144784,0.218406,-0.757501,0.715363,1.27009,-0.000888628,0,0,0,0,0,0,0,-4.25335,-19.6211,-5.03752,15.2713,-2.07581,3.7362,-0.143631,
0.389113,-0.146786,0.244101,-2.6181,0.84674,0.663492,-0.0452969,0.105406,-0.256159,0.0997072,-0.203623,0.615509,0.493619,0.00784812,-5.64421,-14.7209,-6.83644,13.976,5.13468,-20.8659,1.01739,11.8172,-5.59266,13.415,-38.7974,2.25107,11.6854,0.0353649,0.395295,-0.150339,0.250682,-2.63508,0.853754,0.685932,-0.0453804,0.128417,-0.297123,0.382885,-0.650925,0.732501,0.997767,-0.000111123,-39.0986,-19.0424,20.5599,13.322,2.1423,-34.0402,0.0971881,-0.932736,-14.1304,-0.836168,12.7283,-1.44043,6.17608,-0.0566557,
0.389385,-0.150211,0.244213,-2.61849,0.851414,0.664668,-0.0450526,0.0911389,-0.29056,0.0825609,-0.172532,0.609234,0.424293,0.0123874,-8.91665,-21.5004,-10.7164,19.4317,-3.92242,-43.3285,2.83707,11.7568,-5.5059,13.3385,-38.1393,1.59273,11.6854,0.0474763,0.395295,-0.150339,0.250682,-2.63508,0.853754,0.685932,-0.0453804,0.128417,-0.297123,0.382885,-0.650925,0.732501,0.997767,-0.000111123,0,0,0,0,0,0,0,-0.932736,-14.1304,-0.836168,12.7283,-1.44043,6.17608,-0.0566557,
0.389491,-0.154089,0.244119,-2.61855,0.855567,0.664556,-0.0446615,0.0755511,-0.329382,0.0636899,-0.139688,0.591231,0.336642,0.0196862,-9.74234,-24.2641,-11.7944,20.5278,-11.2518,-54.7822,4.56171,11.7622,-5.42421,13.3124,-37.4779,1.11647,11.6854,0.0610743,0.395295,-0.150339,0.250682,-2.63508,0.853754,0.685932,-0.0453804,0.128417,-0.297123,0.382885,-0.650925,0.732501,0.997767,-0.000111123,0,0,0,0,0,0,0,-0.932736,-14.1304,-0.836168,12.7283,-1.44043,6.17608,-0.0566557,
0.39709,-0.155897,0.252373,-2.63873,0.863847,0.693997,-0.0452448,0.0762731,-0.340512,0.063949,-0.140131,0.595037,0.34157,0.0185622,0.451215,-6.95578,0.16194,-0.276937,2.3788,3.08004,-0.702496,11.8172,-5.59266,13.415,-38.7974,2.25107,11.6854,0.0353649,0.395295,-0.150339,0.250682,-2.63508,0.853754,0.685932,-0.0453804,0.128417,-0.297123,0.382885,-0.650925,0.732501,0.997767,-0.000111123,0,0,0,0,0,0,0,-0.932736,-14.1304,-0.836168,12.7283,-1.44043,6.17608,-0.0566557,
0.397372,-0.159608,0.252474,-2.6391,0.868309,0.695022,-0.0450019,0.0680887,-0.365165,0.0536654,-0.121192,0.587586,0.298876,0.0209228,-5.11521,-15.4081,-6.42727,11.8368,-4.65654,-26.6835,1.4754,11.7568,-5.5059,13.3385,-38.1393,1.59273,11.6854,0.0474763,0.395295,-0.150339,0.250682,-2.63508,0.853754,0.685932,-0.0453804,0.128417,-0.297123,0.382885,-0.650925,0.732501,0.997767,-0.000111123,0,0,0,0,0,0,0,-0.932736,-14.1304,-0.836168,12.7283,-1.44043,6.17608,-0.0566557,
0.397444,-0.16382,0.252313,-2.63902,0.872307,0.694609,-0.0446049,0.0562749,-0.397435,0.0389166,-0.0949567,0.570008,0.228784,0.0266639,-7.38367,-20.1691,-9.21803,16.3971,-10.9867,-43.8075,3.5882,11.7622,-5.42421,13.3124,-37.4779,1.11647,11.6854,0.0610743,0.395295,-0.150339,0.250682,-2.63508,0.853754,0.685932,-0.0453804,0.128417,-0.297123,0.382885,-0.650925,0.732501,0.997767,-0.000111123,0,0,0,0,0,0,0,-0.932736,-14.1304,-0.836168,12.7283,-1.44043,6.17608,-0.0566557,
0.3974,-0.168376,0.252001,-2.63869,0.875846,0.693147,-0.04404,0.0439159,-0.431854,0.0233189,-0.0678686,0.544482,0.146481,0.035452,-7.72433,-21.512,-9.74853,16.9301,-15.9535,-51.4392,5.49255,11.7919,-5.35737,13.3163,-36.8193,0.743126,11.6854,0.0813943,0.395295,-0.150339,0.250682,-2.63508,0.853754,0.685932,-0.0453804,0.128417,-0.297123,0.382885,-0.650925,0.732501,0.997767,-0.000111123,0,0,0,0,0,0,0,-0.932736,-14.1304,-0.836168,12.7283,-1.44043,6.17608,-0.0566557,
0.397127,-0.15585,0.252396,-2.63862,0.863704,0.693988,-0.0452482,0.0514898,-0.421884,0.0320064,-0.0811147,0.5555,0.189284,0.0311386,4.73367,6.23159,5.42971,-8.27884,6.88647,26.7519,-2.69589,11.7568,-5.5059,13.3385,-38.1393,1.59273,11.6854,0.0474763,0.395295,-0.150339,0.250682,-2.63508,0.853754,0.685932,-0.0453804,0.128417,-0.297123,0.382885,-0.650925,0.732501,0.997767,-0.000111123,0,0,0,0,0,0,0,-0.932736,-14.1304,-0.836168,12.7283,-1.44043,6.17608,-0.0566557,
0.397432,-0.15954,0.252513,-2.63892,0.868067,0.695004,-0.045005,0.0488039,-0.429745,0.0285283,-0.0723906,0.553477,0.176826,0.0309894,-1.6787,-4.91314,-2.17386,5.45254,-1.26447,-7.78657,-0.0932275,11.7622,-5.42421,13.3124,-37.4779,1.11647,11.6854,0.0610743,0.395295,-0.150339,0.250682,-2.63508,0.853754,0.685932,-0.0453804,0.128417,-0.297123,0.382885,-0.650925,0.732501,0.997767,-0.000111123,0,0,0,0,0,0,0,-0.932736,-14.1304,-0.836168,12.7283,-1.44043,6.17608,-0.0566557,
0.397522,-0.163735,0.252367,-2.63878,0.871967,0.69458,-0.0446052,0.0412964,-0.448677,0.0191572,-0.0544968,0.54029,0.130867,0.0347884,-4.6922,-11.8328,-5.85691,11.1837,-8.24178,-28.7242,2.37435,11.7919,-5.35737,13.3163,-36.8193,0.743126,11.6854,0.0813943,0.395295,-0.150339,0.250682,-2.63508,0.853754,0.685932,-0.0453804,0.128417,-0.297123,0.382885,-0.650925,0.732501,0.997767,-0.000111123,0,0,0,0,0,0,0,-0.932736,-14.1304,-0.836168,12.7283,-1.44043,6.17608,-0.0566557,
0.397481,-0.168276,0.252054,-2.63842,0.875434,0.6931,-0.0440369,0.0320027,-0.47245,0.00751438,-0.0345247,0.518905,0.0676983,0.0420369,-5.80856,-14.8582,-7.27675,12.4825,-13.3657,-39.4806,4.53032,11.7472,-5.30914,13.2338,-36.1788,0.517238,11.6854,0.113743,0.395295,-0.150339,0.250682,-2.63508,0.853754,0.685932,-0.0453804,0.128417,-0.297123,0.382885,-0.650925,0.732501,0.997767,-0.000111123,0,0,0,0,0,0,0,-0.932736,-14.1304,-0.836168,12.7283,-1.44043,6.17608,-0.0566557,
0.39716,-0.155807,0.252417,-2.63852,0.863587,0.693982,-0.0452494,0.0424206,-0.453795,0.0196916,-0.0530585,0.533273,0.126159,0.0364022,6.5112,11.6595,7.61078,-11.5836,8.98012,36.5377,-3.52167,11.7622,-5.42421,13.3124,-37.4779,1.11647,11.6854,0.0610743,0.395295,-0.150339,0.250682,-2.63508,0.853754,0.685932,-0.0453804,0.128417,-0.297123,0.382885,-0.650925,0.732501,0.997767,-0.000111123,0,0,0,0,0,0,0,-0.932736,-14.1304,-0.836168,12.7283,-1.44043,6.17608,-0.0566557,
0.397481,-0.159477,0.252546,-2.63877,0.867874,0.694991,-0.0450042,0.0419582,-0.454779,0.0189806,-0.04861,0.533792,0.12615,0.0352522,-0.288976,-0.61479,-0.444375,2.78032,0.32435,-0.00523673,-0.718769,11.7919,-5.35737,13.3163,-36.8193,0.743126,11.6854,0.0813943,0.395295,-0.150339,0.250682,-2.63508,0.853754,0.685932,-0.0453804,0.128417,-0.297123,0.382885,-0.650925,0.732501,0.997767,-0.000111123,0,0,0,0,0,0,0,-0.932736,-14.1304,-0.836168,12.7283,-1.44043,6.17608,-0.0566557,
0.397573,-0.163654,0.252399,-2.6386,0.871718,0.694553,-0.0446019,0.0358715,-0.468244,0.0114968,-0.0345259,0.523131,0.089955,0.0382596,-3.80421,-8.41576,-4.67742,8.80253,-6.66335,-22.622,1.87962,11.7472,-5.30914,13.2338,-36.1788,0.517238,11.6854,0.113743,0.395295,-0.150339,0.250682,-2.63508,0.853754,0.685932,-0.0453804,0.128417,-0.297123,0.382885,-0.650925,0.732501,0.997767,-0.000111123,0,0,0,0,0,0,0,-0.932736,-14.1304,-0.836168,12.7283,-1.44043,6.17608,-0.0566557,
0.397187,-0.155768,0.252433,-2.63844,0.863494,0.693979,-0.0452484,0.0458553,-0.449905,0.0231044,-0.0518995,0.535316,0.143881,0.0334139,6.23984,11.4619,7.25477,-10.8585,7.61555,33.7039,-3.02857,11.7919,-5.35737,13.3163,-36.8193,0.743126,11.6854,0.0813943,0.395295,-0.150339,0.250682,-2.63508,0.853754,0.685932,-0.0453804,0.128417,-0.297123,0.382885,-0.650925,0.732501,0.997767,-0.000111123,0,0,0,0,0,0,0,-0.932736,-14.1304,-0.836168,12.7283,-1.44043,6.17608,-0.0566557,
0.397508,-0.159417,0.25256,-2.63865,0.867741,0.694976,-0.0450018,0.0447231,-0.451152,0.0216465,-0.0468055,0.534429,0.140035,0.0328971,-0.707601,-0.779377,-0.911192,3.18372,-0.554254,-2.40416,-0.32296,11.7472,-5.30914,13.2338,-36.1788,0.517238,11.6854,0.113743,0.395295,-0.150339,0.250682,-2.63508,0.853754,0.685932,-0.0453804,0.128417,-0.297123,0.382885,-0.650925,0.732501,0.997767,-0.000111123,0,0,0,0,0,0,0,-0.932736,-14.1304,-0.836168,12.7283,-1.44043,6.17608,-0.0566557,
0.397616,-0.163557,0.25242,-2.63839,0.871472,0.694516,-0.0446024,0.0384641,-0.464439,0.013808,-0.0310405,0.520802,0.100545,0.0363012,-3.91189,-8.30407,-4.89907,9.85312,-8.51707,-24.6811,2.12753,11.3888,-5.27526,12.8068,-35.5872,0.524111,11.6854,0.116134,0.395295,-0.150339,0.250682,-2.63508,0.853754,0.685932,-0.0453804,0.128417,-0.297123,0.382885,-0.650925,0.732501,0.997767,-0.000111123,0,0,0,0,0,0,0,-0.932736,-14.1304,-0.836168,12.7283,-1.44043,6.17608,-0.0566557,
0.397611,-0.168029,0.252127,-2.63785,0.874659,0.692985,-0.0440407,0.0306488,-0.483344,0.00373648,-0.0113422,0.496335,0.042152,0.0430852,-4.88453,-11.8158,-6.29468,12.3114,-15.2918,-36.4955,4.24004,10.9812,-5.14113,12.4508,-34.9406,-0.606782,11.6854,0.109025,0.395295,-0.150339,0.250682,-2.63508,0.853754,0.685932,-0.0453804,0.128417,-0.297123,0.382885,-0.650925,0.732501,0.997767,-0.000111123,0,0,0,0,0,0,0,-0.932736,-14.1304,-0.836168,12.7283,-1.44043,6.17608,-0.0566557,
0.397193,-0.155729,0.252432,-2.63838,0.863446,0.693969,-0.0452476,0.0416301,-0.461449,0.0167595,-0.0326315,0.513356,0.105419,0.0372803,6.86328,13.6846,8.13936,-13.3058,10.638,39.5419,-3.62807,11.7472,-5.30914,13.2338,-36.1788,0.517238,11.6854,0.113743,0.395295,-0.150339,0.250682,-2.63508,0.853754,0.685932,-0.0453804,0.128417,-0.297123,0.382885,-0.650925,0.732501,0.997767,-0.000111123,0,0,0,0,0,0,0,-0.932736,-14.1304,-0.836168,12.7283,-1.44043,6.17608,-0.0566557,
0.397529,-0.15934,0.252564,-2.63851,0.867594,0.694948,-0.0450052,0.041689,-0.459437,0.016715,-0.0294162,0.514382,0.108814,0.0358827,0.0368321,1.25699,-0.0277749,2.00956,0.641404,2.12173,-0.873475,11.3888,-5.27526,12.8068,-35.5872,0.524111,11.6854,0.116134,0.395295,-0.150339,0.250682,-2.63508,0.853754,0.685932,-0.0453804,0.128417,-0.297123,0.382885,-0.650925,0.732501,0.997767,-0.000111123,0,0,0,0,0,0,0,-0.932736,-14.1304,-0.836168,12.7283,-1.44043,6.17608,-0.0566557,
0.397656,-0.163444,0.252435,-2.63816,0.871182,0.694463,-0.0446118,0.0365333,-0.470164,0.0101532,-0.0148049,0.501203,0.0749138,0.0385411,-3.22229,-6.70409,-4.10112,9.13204,-8.23708,-21.1875,1.66147,10.9812,-5.14113,12.4508,-34.9406,-0.606782,11.6854,0.109025,0.395295,-0.150339,0.250682,-2.63508,0.853754,0.685932,-0.0453804,0.128417,-0.297123,0.382885,-0.650925,0.732501,0.997767,-0.000111123,0,0,0,0,0,0,0,-0.932736,-14.1304,-0.836168,12.7283,-1.44043,6.17608,-0.0566557,
0.397672,-0.167889,0.252157,-2.63754,0.874213,0.692901,-0.0440555,0.0296154,-0.487252,0.00115677,0.0038092,0.476745,0.0208867,0.0447409,-4.32368,-10.6803,-5.62278,11.6338,-15.2861,-33.7669,3.87488,10.7195,-4.97254,12.2017,-34.2486,-1.5192,11.6854,0.101494,0.395295,-0.150339,0.250682,-2.63508,0.853754,0.685932,-0.0453804,0.128417,-0.297123,0.382885,-0.650925,0.732501,0.997767,-0.000111123,0,0,0,0,0,0,0,-0.932736,-14.1304,-0.836168,12.7283,-1.44043,6.17608,-0.0566557,
0.397201,-0.155673,0.252428,-2.63829,0.863357,0.693948,-0.0452546,0.0411157,-0.463626,0.0148071,-0.0186694,0.495543,0.0880319,0.0384569,7.18767,14.7667,8.53145,-14.0491,11.7486,41.9658,-3.92749,11.3888,-5.27526,12.8068,-35.5872,0.524111,11.6854,0.116134,0.395295,-0.150339,0.250682,-2.63508,0.853754,0.685932,-0.0453804,0.128417,-0.297123,0.382885,-0.650925,0.732501,0.997767,-0.000111123,0,0,0,0,0,0,0,-0.932736,-14.1304,-0.836168,12.7283,-1.44043,6.17608,-0.0566557,
0.397556,-0.159247,0.252571,-2.63833,0.867373,0.694904,-0.0450199,0.0417596,-0.460249,0.0154297,-0.0159782,0.496826,0.0943169,0.0366336,0.402432,2.11062,0.389124,1.68202,0.802085,3.9281,-1.1396,10.9812,-5.14113,12.4508,-34.9406,-0.606782,11.6854,0.109025,0.395295,-0.150339,0.250682,-2.63508,0.853754,0.685932,-0.0453804,0.128417,-0.297123,0.382885,-0.650925,0.732501,0.997767,-0.000111123,0,0,0,0,0,0,0,-0.932736,-14.1304,-0.836168,12.7283,-1.44043,6.17608,-0.0566557,
0.397704,-0.163324,0.252456,-2.6379,0.870812,0.69439,-0.0446336,0.0370968,-0.470113,0.00946428,-0.00191119,0.483438,0.0626089,0.0389641,-2.91427,-6.16517,-3.72838,8.79189,-8.36719,-19.8175,1.45657,10.7195,-4.97254,12.2017,-34.2486,-1.5192,11.6854,0.101494,0.395295,-0.150339,0.250682,-2.63508,0.853754,0.685932,-0.0453804,0.128417,-0.297123,0.382885,-0.650925,0.732501,0.997767,-0.000111123,0,0,0,0,0,0,0,-0.932736,-14.1304,-0.836168,12.7283,-1.44043,6.17608,-0.0566557,
0.397739,-0.16775,0.252192,-2.63719,0.873693,0.692799,-0.0440827,0.0305715,-0.486752,0.000986688,0.0159982,0.458769,0.0103182,0.0449444,-4.07832,-10.3996,-5.29849,11.1934,-15.4183,-32.6817,3.73771,10.6059,-4.84996,12.0731,-33.5499,-2.14237,11.6854,0.0949148,0.395295,-0.150339,0.250682,-2.63508,0.853754,0.685932,-0.0453804,0.128417,-0.297123,0.382885,-0.650925,0.732501,0.997767,-0.000111123,0,0,0,0,0,0,0,-0.932736,-14.1304,-0.836168,12.7283,-1.44043,6.17608,-0.0566557,
