xiao-wang007/linearmpc_panda/paper_data/panda_inverse_dynamics_controller_Start_at_0/4/trajectory.csv
Commanded Joint 0 Position,Commanded Joint 1 Position,Commanded Joint 2 Position,Commanded Joint 3 Position,Commanded Joint 4 Position,Commanded Joint 5 Position,Commanded Joint 6 Position,Commanded Joint 0 Velocity,Commanded Joint 1 Velocity,Commanded Joint 2 Velocity,Commanded Joint 3 Velocity,Commanded Joint 4 Velocity,Commanded Joint 5 Velocity,Commanded Joint 6 Velocity,Commanded Joint 0 Acceleration,Commanded Joint 1 Acceleration,Commanded Joint 2 Acceleration,Commanded Joint 3 Acceleration,Commanded Joint 4 Acceleration,Commanded Joint 5 Acceleration,Commanded Joint 6 Acceleration,Commanded Joint 0 Torque,Commanded Joint 1 Torque,Commanded Joint 2 Torque,Commanded Joint 3 Torque,Commanded Joint 4 Torque,Commanded Joint 5 Torque,Commanded Joint 6 Torque,Actual Joint 0 Position,Actual Joint 1 Position,Actual Joint 2 Position,Actual Joint 3 Position,Actual Joint 4 Position,Actual Joint 5 Position,Actual Joint 6 Position,Actual Joint 0 Velocity,Actual Joint 1 Velocity,Actual Joint 2 Velocity,Actual Joint 3 Velocity,Actual Joint 4 Velocity,Actual Joint 5 Velocity,Actual Joint 6 Velocity,Actual Joint 0 Acceleration,Actual Joint 1 Acceleration,Actual Joint 2 Acceleration,Actual Joint 3 Acceleration,Actual Joint 4 Acceleration,Actual Joint 5 Acceleration,Actual Joint 6 Acceleration,Actual Joint 0 Torque,Actual Joint 1 Torque,Actual Joint 2 Torque,Actual Joint 3 Torque,Actual Joint 4 Torque,Actual Joint 5 Torque,Actual Joint 6 Torque,
0.0702787,-0.022564,-0.094701,-1.80957,0.00274699,0.216846,-0.0153901,0.000377159,0.0215321,0.000274544,-0.033307,-0.00347102,0.055158,-0.000412098,0.235724,13.4575,0.17159,-20.8169,-2.16939,34.4737,-0.257561,0.0570513,23.6093,0.011121,-24.2202,-0.598162,2.11671,-0.0254129,0.0702242,-0.0235101,-0.0947511,-1.80677,0.00298844,0.21098,-0.0153383,0.00312136,0.00310719,0.00280378,-0.00382627,-0.00794438,0.00164052,-0.000219956,0,0,0,0,0,0,0,-0.0440639,-34.6452,0.163588,27.3279,0.764157,2.93328,0.0303194,
0.0702603,-0.0234493,-0.0947145,-1.80681,0.00294286,0.210958,-0.0153402,0.000510755,0.0176391,0.000433102,-0.026866,-0.00285314,0.0438979,-0.000339555,0.0834978,-2.4331,0.0990986,4.02559,0.386176,-7.03754,0.0453394,0.0513973,24.0499,0.000867131,-24.1366,-0.59872,1.86552,-0.023892,0.0702242,-0.0235101,-0.0947511,-1.80677,0.00298844,0.21098,-0.0153383,0.00312136,0.00310719,0.00280378,-0.00382627,-0.00794438,0.00164052,-0.000219956,0,0,0,0,0,0,0,-0.0440639,-34.6452,0.163588,27.3279,0.764157,2.93328,0.0303194,
0.0702665,-0.0234358,-0.0947081,-1.80681,0.00294428,0.210949,-0.0153405,0.000564541,0.0144487,0.000506297,-0.0216689,-0.00224694,0.0349121,-0.000278276,0.0336164,-1.994,0.0457473,3.2482,0.378877,-5.61612,0.0382995,0.0442311,24.6215,-0.0108257,-24.0286,-0.598378,1.51767,-0.0219222,0.0702242,-0.0235101,-0.0947511,-1.80677,0.00298844,0.21098,-0.0153383,0.00312136,0.00310719,0.00280378,-0.00382627,-0.00794438,0.00164052,-0.000219956,0,0,0,0,0,0,0,-0.0440639,-34.6452,0.163588,27.3279,0.764157,2.93328,0.0303194,
0.0702712,-0.0234247,-0.0947032,-1.80682,0.00294764,0.210942,-0.0153407,0.000570161,0.0118359,0.000527106,-0.0174764,-0.00171342,0.027758,-0.000227269,0.00351196,-1.63301,0.0130055,2.62033,0.333447,-4.47131,0.031879,0.0383143,25.1455,-0.0202271,-23.8608,-0.596512,1.13221,-0.0199198,0.0702242,-0.0235101,-0.0947511,-1.80677,0.00298844,0.21098,-0.0153383,0.00312136,0.00310719,0.00280378,-0.00382627,-0.00794438,0.00164052,-0.000219956,0,0,0,0,0,0,0,-0.0440639,-34.6452,0.163588,27.3279,0.764157,2.93328,0.0303194,
0.0702749,-0.0234155,-0.0946994,-1.80682,0.00295164,0.210937,-0.0153408,0.000547536,0.00969786,0.00051643,-0.0140942,-0.00127073,0.0220732,-0.000185232,-0.0141402,-1.33627,-0.00667232,2.11387,0.276683,-3.55302,0.0262729,0.0362608,25.4758,-0.0236877,-23.5924,-0.59152,0.764178,-0.0182247,0.0702252,-0.0232176,-0.0947416,-1.80711,0.00299605,0.210584,-0.0153347,0.000950571,0.0184641,0.00608473,-0.0295832,-0.00462469,-0.00576546,0.00108969,-0.271349,1.91962,0.410118,-3.21961,0.414961,-0.925748,0.163706,0.158268,-30.9755,0.314344,23.2654,0.6488,2.09832,-0.0026396,
0.0701638,-0.0229258,-0.0947993,-1.80724,0.00509129,0.209286,-0.0153538,-0.000530843,0.0110383,-0.000525673,-0.0125051,0.0313538,-0.00150955,-0.000330665,-0.673987,0.837775,-0.651315,0.993165,20.3903,-14.7392,-0.0908956,0.50426,0.155488,0.507507,-0.229515,2.77518,-1.44619,-0.00132037,0.0702252,-0.0232176,-0.0947416,-1.80711,0.00299605,0.210584,-0.0153347,0.000950571,0.0184641,0.00608473,-0.0295832,-0.00462469,-0.00576546,0.00108969,0,0,0,0,0,0,0,0.158268,-30.9755,0.314344,23.2654,0.6488,2.09832,-0.0026396,
0.0701249,-0.0228241,-0.0948376,-1.80728,0.00667761,0.208384,-0.0153579,-0.00139948,0.0113726,-0.00137789,-0.0110127,0.064741,-0.0237536,-0.000365828,-0.542901,0.208908,-0.532637,0.932761,20.867,-13.9026,-0.0219767,0.498663,0.153768,0.501864,-0.226974,2.75016,-1.43392,-0.00127838,0.0702252,-0.0232176,-0.0947416,-1.80711,0.00299605,0.210584,-0.0153347,0.000950571,0.0184641,0.00608473,-0.0295832,-0.00462469,-0.00576546,0.00108969,0,0,0,0,0,0,0,0.158268,-30.9755,0.314344,23.2654,0.6488,2.09832,-0.0026396,
0.0700929,-0.0227455,-0.0948692,-1.80731,0.00843611,0.2074,-0.0153601,-0.00191953,0.0110633,-0.00189145,-0.00972581,0.0957553,-0.0435918,-0.000348697,-0.325031,-0.193271,-0.320975,0.804308,19.3839,-12.3988,0.0107072,0.492988,0.151661,0.496134,-0.224674,2.72534,-1.42163,-0.00125036,0.0702252,-0.0232176,-0.0947416,-1.80711,0.00299605,0.210584,-0.0153347,0.000950571,0.0184641,0.00608473,-0.0295832,-0.00462469,-0.00576546,0.00108969,0,0,0,0,0,0,0,0.158268,-30.9755,0.314344,23.2654,0.6488,2.09832,-0.0026396,
0.0698978,-0.0226646,-0.0950436,-1.80723,0.0393613,0.191215,-0.0154051,-7.18396e-05,0.0098769,2.64497e-06,-0.00968546,0.264456,-0.135335,-0.000183252,1.15481,-0.741508,1.18381,0.025221,105.438,-57.3396,0.103403,0.487296,0.143589,0.4901,-0.222123,2.69878,-1.4079,-0.0012374,0.0702395,-0.0234354,-0.0946382,-1.8074,0.00342744,0.210421,-0.0153376,-0.00105219,0.0342554,0.0171693,-0.0209121,0.0607915,-0.0389427,0.00123559,-0.250345,1.97391,1.38557,1.08388,8.17703,-4.14715,0.0182382,1.57856,-31.4,1.68703,23.2416,1.11297,2.11114,0.0239107,
0.070078,-0.0230063,-0.094784,-1.8074,0.0122554,0.205826,-0.0153963,-0.00237206,0.0124117,-0.00217388,-0.00775378,0.344584,-0.176857,-0.00066239,-1.43764,1.58422,-1.36033,1.2073,50.0804,-25.9512,-0.299461,4.11201,0.527696,4.14275,-1.56195,10.9777,-6.00331,-0.00158441,0.0702395,-0.0234354,-0.0946382,-1.8074,0.00342744,0.210421,-0.0153376,-0.00105219,0.0342554,0.0171693,-0.0209121,0.0607915,-0.0389427,0.00123559,0,0,0,0,0,0,0,1.57856,-31.4,1.68703,23.2416,1.11297,2.11114,0.0239107,
0.0700094,-0.0228793,-0.0948488,-1.80743,0.0186565,0.202528,-0.0154053,-0.00361133,0.0131062,-0.00335923,-0.00688647,0.435696,-0.223947,-0.000755171,-0.774544,0.434068,-0.740848,0.542067,56.9446,-29.4311,-0.0579882,4.03016,0.559947,4.06196,-1.5165,10.9777,-5.85989,-0.000798017,0.0702395,-0.0234354,-0.0946382,-1.8074,0.00342744,0.210421,-0.0153376,-0.00105219,0.0342554,0.0171693,-0.0209121,0.0607915,-0.0389427,0.00123559,0,0,0,0,0,0,0,1.57856,-31.4,1.68703,23.2416,1.11297,2.11114,0.0239107,
0.0699878,-0.0227869,-0.0948677,-1.80748,0.0256471,0.198882,-0.0154072,-0.00343098,0.012793,-0.00316086,-0.00681566,0.523321,-0.270307,-0.000651623,0.112719,-0.195738,0.123981,0.0442598,54.7658,-28.975,0.0647175,3.94108,0.584154,3.97316,-1.47133,10.8955,-5.72054,-0.000380657,0.0702395,-0.0234354,-0.0946382,-1.8074,0.00342744,0.210421,-0.0153376,-0.00105219,0.0342554,0.0171693,-0.0209121,0.0607915,-0.0389427,0.00123559,0,0,0,0,0,0,0,1.57856,-31.4,1.68703,23.2416,1.11297,2.11114,0.0239107,
0.0719949,-0.0236667,-0.0921767,-1.80972,0.0274437,0.189584,-0.0150226,0.0188318,0.0111292,0.019903,-0.00929903,0.579319,-0.412815,0.00328101,13.9143,-1.03984,14.4149,-1.55211,34.9987,-89.0677,2.4579,26.2652,4.75575,26.6644,-8.86957,10.8971,-14.1054,0.166486,0.0705487,-0.0236723,-0.0936812,-1.80932,0.0149437,0.203792,-0.0153339,0.00943741,-0.0441197,0.0318972,-0.12111,0.750933,-0.430561,0.000306476,1.3112,-9.79689,1.84099,-12.5247,86.2677,-48.9523,-0.11614,5.53394,-28.857,5.66224,23.7891,2.0285,1.54809,0.0440523,
0.0730523,-0.0236819,-0.091089,-1.81,0.0342823,0.180831,-0.0147789,0.0415004,0.00852339,0.0431135,-0.0143193,0.634419,-0.549082,0.00871758,14.1678,-1.62866,14.5065,-3.13767,34.4375,-85.1669,3.39785,24.408,4.27613,24.9017,-7.6627,10.8971,-14.1054,0.166511,0.0705487,-0.0236723,-0.0936812,-1.80932,0.0149437,0.203792,-0.0153339,0.00943741,-0.0441197,0.0318972,-0.12111,0.750933,-0.430561,0.000306476,0,0,0,0,0,0,0,5.53394,-28.857,5.66224,23.7891,2.0285,1.54809,0.0440523,
0.0742222,-0.0238687,-0.08992,-1.81058,0.0415719,0.171587,-0.01457,0.0624487,0.00214926,0.0637178,-0.0259344,0.689776,-0.670375,0.0121985,13.0927,-3.98383,12.8777,-7.25943,34.5985,-75.8078,2.17559,22.9764,1.78169,23.3882,-8.05585,10.8971,-14.1054,0.295335,0.0705487,-0.0236723,-0.0936812,-1.80932,0.0149437,0.203792,-0.0153339,0.00943741,-0.0441197,0.0318972,-0.12111,0.750933,-0.430561,0.000306476,0,0,0,0,0,0,0,5.53394,-28.857,5.66224,23.7891,2.0285,1.54809,0.0440523,
0.0754123,-0.024072,-0.0887278,-1.81123,0.0492828,0.161852,-0.0144931,0.079711,-0.00336521,0.0807779,-0.0370439,0.744593,-0.779679,0.0116813,10.7889,-3.44654,10.6626,-6.94347,34.2604,-68.3152,-0.323237,20.3619,-2.43478,20.3501,-11.0568,10.8971,-14.1054,0.256069,0.0705487,-0.0236723,-0.0936812,-1.80932,0.0149437,0.203792,-0.0153339,0.00943741,-0.0441197,0.0318972,-0.12111,0.750933,-0.430561,0.000306476,0,0,0,0,0,0,0,5.53394,-28.857,5.66224,23.7891,2.0285,1.54809,0.0440523,
0.0723993,-0.0239452,-0.0918339,-1.81063,0.0269227,0.190284,-0.0148918,0.0914728,-0.00591453,0.0923649,-0.0470566,0.749159,-0.810749,0.0154402,7.35113,-1.59333,7.24186,-6.2579,2.85394,-19.4191,2.34931,33.5818,5.55343,33.6444,-16.4616,10.8971,-14.1054,0.201365,0.0705487,-0.0236723,-0.0936812,-1.80932,0.0149437,0.203792,-0.0153339,0.00943741,-0.0441197,0.0318972,-0.12111,0.750933,-0.430561,0.000306476,0,0,0,0,0,0,0,5.53394,-28.857,5.66224,23.7891,2.0285,1.54809,0.0440523,
0.0737112,-0.0241708,-0.0905047,-1.8116,0.0335602,0.181935,-0.014693,0.105976,-0.0103727,0.107123,-0.0619267,0.765266,-0.857317,0.0173233,9.06447,-2.78633,9.22405,-9.29384,10.0665,-29.1047,1.17694,30.709,4.34128,30.8153,-16.6935,10.7322,-13.9037,0.277657,0.071788,-0.0237239,-0.0912849,-1.81313,0.0505552,0.18156,-0.0153554,0.128137,-0.0507839,0.210054,-0.217911,1.41527,-1.13121,-0.00341584,14.8374,-0.833019,22.2696,-12.1002,83.0415,-87.5814,-0.46529,22.4504,-24.9373,22.3844,9.19342,6.07788,-5.89149,0.017502,
0.075121,-0.0243706,-0.0890773,-1.81266,0.0407256,0.17286,-0.0146305,0.120024,-0.0132918,0.121382,-0.0759863,0.791348,-0.912717,0.0154215,8.7798,-1.82444,8.91162,-8.78721,16.3017,-34.6248,-1.18866,27.1052,0.924491,27.3626,-18.766,10.7322,-13.9037,0.23457,0.071788,-0.0237239,-0.0912849,-1.81313,0.0505552,0.18156,-0.0153554,0.128137,-0.0507839,0.210054,-0.217911,1.41527,-1.13121,-0.00341584,0,0,0,0,0,0,0,22.4504,-24.9373,22.3844,9.19342,6.07788,-5.89149,0.017502,
0.076584,-0.0245088,-0.087599,-1.81378,0.0483199,0.163465,-0.0146062,0.132594,-0.0140898,0.134064,-0.0886807,0.822934,-0.965059,0.0129442,7.8566,-0.498783,7.92626,-7.93403,19.7411,-32.7142,-1.54831,23.6144,1.64839,23.8497,-18.1791,10.7322,-13.9037,0.0690323,0.071788,-0.0237239,-0.0912849,-1.81313,0.0505552,0.18156,-0.0153554,0.128137,-0.0507839,0.210054,-0.217911,1.41527,-1.13121,-0.00341584,0,0,0,0,0,0,0,22.4504,-24.9373,22.3844,9.19342,6.07788,-5.89149,0.017502,
0.0780758,-0.0245948,-0.0860931,-1.81499,0.0562394,0.154276,-0.0145925,0.143372,-0.01342,0.144897,-0.10121,0.856336,-1.00178,0.0106974,6.73614,0.418625,6.77074,-7.83053,20.876,-22.95,-1.40428,21.9425,2.2587,22.14,-17.3905,10.7322,-13.123,0.0278794,0.071788,-0.0237239,-0.0912849,-1.81313,0.0505552,0.18156,-0.0153554,0.128137,-0.0507839,0.210054,-0.217911,1.41527,-1.13121,-0.00341584,0,0,0,0,0,0,0,22.4504,-24.9373,22.3844,9.19342,6.07788,-5.89149,0.017502,
0.0755831,-0.0238273,-0.0874544,-1.816,0.0690772,0.161737,-0.0148743,0.164745,-0.0115373,0.16637,-0.118407,0.908299,-1.05152,0.0137268,13.3582,1.17672,13.4203,-10.7482,32.4768,-31.0908,1.89338,36.0836,7.41029,36.3902,-21.064,10.6679,-13.6199,0.293424,0.0785314,-0.0257041,-0.0810798,-1.82189,0.0904109,0.1374,-0.0153941,0.139424,-0.0494847,0.218338,-0.297181,0.924881,-1.28377,-0.00173215,1.41087,0.162393,1.03545,-9.9087,-61.298,-19.0699,0.210462,7.56122,-37.8905,7.96327,32.533,0.795284,0.71221,0.110886,
0.0776394,-0.0237772,-0.0853801,-1.81753,0.0778318,0.151531,-0.0148227,0.183203,-0.00797507,0.184954,-0.132987,0.945505,-1.09638,0.0122722,11.5362,2.22636,11.6155,-9.11295,23.2539,-28.0344,-0.909073,31.6911,4.13292,31.9608,-22.75,10.6679,-13.6199,0.228462,0.0785314,-0.0257041,-0.0810798,-1.82189,0.0904109,0.1374,-0.0153941,0.139424,-0.0494847,0.218338,-0.297181,0.924881,-1.28377,-0.00173215,0,0,0,0,0,0,0,7.56122,-37.8905,7.96327,32.533,0.795284,0.71221,0.110886,
0.0796894,-0.023646,-0.0833111,-1.81906,0.0865674,0.141157,-0.0148218,0.197813,-0.00310057,0.199688,-0.14472,0.974793,-1.13644,0.00984085,9.13113,3.04656,9.20843,-7.33274,18.3049,-25.0399,-1.51962,27.5664,4.49622,27.8155,-22.0995,10.6679,-13.6199,0.049609,0.0785314,-0.0257041,-0.0810798,-1.82189,0.0904109,0.1374,-0.0153941,0.139424,-0.0494847,0.218338,-0.297181,0.924881,-1.28377,-0.00173215,0,0,0,0,0,0,0,7.56122,-37.8905,7.96327,32.533,0.795284,0.71221,0.110886,
0.0820485,-0.0258937,-0.0775272,-1.82627,0.105237,0.116623,-0.0152819,0.203697,-0.00331401,0.205569,-0.170615,0.968067,-1.16707,0.00735668,3.67738,-0.133399,3.6756,-16.1844,-4.20348,-19.1417,-1.55261,32.6142,3.87954,32.8729,-29.5276,10.6679,-13.5719,0.14196,0.0785314,-0.0257041,-0.0810798,-1.82189,0.0904109,0.1374,-0.0153941,0.139424,-0.0494847,0.218338,-0.297181,0.924881,-1.28377,-0.00173215,0,0,0,0,0,0,0,7.56122,-37.8905,7.96327,32.533,0.795284,0.71221,0.110886,
0.0839129,-0.0258461,-0.0756476,-1.82848,0.113032,0.106557,-0.0153522,0.209568,-0.00146068,0.211444,-0.19179,0.96931,-1.18531,0.00412726,3.66967,1.15833,3.67168,-13.2348,0.776827,-11.3971,-2.01838,28.5693,3.59563,28.7987,-28.4274,10.7891,-12.3992,-0.0475437,0.0862775,-0.025957,-0.0687338,-1.83158,0.121342,0.0974423,-0.015382,0.298957,-0.0156273,0.51146,-0.26822,0.881311,-1.19646,-3.08264e-05,19.9417,4.23218,36.6403,3.62012,-5.44624,10.9134,0.212665,18.6974,-27.0836,18.1592,19.9289,3.66546,-1.41548,-0.0227812,
0.0857902,-0.0257601,-0.0737553,-1.83075,0.121054,0.0970381,-0.0154355,0.214587,0.000981249,0.216463,-0.210198,0.975997,-1.18623,0.00121991,3.13692,1.52621,3.13693,-11.5048,4.17945,-0.574892,-1.8171,26.2932,3.18344,26.5019,-27.7786,10.7891,-11.7798,-0.0969229,0.0862775,-0.025957,-0.0687338,-1.83158,0.121342,0.0974423,-0.015382,0.298957,-0.0156273,0.51146,-0.26822,0.881311,-1.19646,-3.08264e-05,0,0,0,0,0,0,0,18.6974,-27.0836,18.1592,19.9289,3.66546,-1.41548,-0.0227812,
0.0876628,-0.0256622,-0.071868,-1.83311,0.12925,0.0884663,-0.0155195,0.218483,0.00323095,0.220353,-0.227106,0.985714,-1.16327,-0.00112333,2.43498,1.40606,2.43164,-10.5676,6.07281,14.3444,-1.46452,24.7485,2.43136,24.9427,-27.3521,10.7891,-10.3516,-0.108122,0.0862775,-0.025957,-0.0687338,-1.83158,0.121342,0.0974423,-0.015382,0.298957,-0.0156273,0.51146,-0.26822,0.881311,-1.19646,-3.08264e-05,0,0,0,0,0,0,0,18.6974,-27.0836,18.1592,19.9289,3.66546,-1.41548,-0.0227812,
0.0919947,-0.0260698,-0.0629351,-1.83689,0.138079,0.0815163,-0.0156049,0.243617,0.0022511,0.245854,-0.249595,1.00494,-1.11966,-0.00425654,15.7085,-0.612406,15.9381,-14.0552,12.0153,27.2585,-1.95826,29.6185,4.1402,29.9297,-34.3071,10.7891,-8.39284,-0.0861003,0.0862775,-0.025957,-0.0687338,-1.83158,0.121342,0.0974423,-0.015382,0.298957,-0.0156273,0.51146,-0.26822,0.881311,-1.19646,-3.08264e-05,0,0,0,0,0,0,0,18.6974,-27.0836,18.1592,19.9289,3.66546,-1.41548,-0.0227812,
0.094563,-0.0260285,-0.0603392,-1.83969,0.147023,0.0748571,-0.0157492,0.259102,0.00283318,0.261579,-0.269636,1.02754,-1.06221,-0.00701109,9.67801,0.363803,9.82816,-12.5261,14.1247,35.9074,-1.72159,26.8237,2.60294,27.1292,-33.6816,10.6215,-7.48417,-0.148564,0.0943882,-0.0257592,-0.0553106,-1.84377,0.138529,0.0611838,-0.0153886,0.186888,0.0285765,0.334873,-0.377885,0.345541,-0.966762,-0.000610427,-14.0087,5.52548,-22.0735,-13.7082,-66.9713,28.7127,-0.07245,-5.67364,-28.7062,-5.61278,23.5907,0.831906,1.7669,0.050461,
0.0969774,-0.0259624,-0.0578987,-1.84257,0.156084,0.0693868,-0.0158896,0.26764,0.00391803,0.270277,-0.287703,1.04857,-0.986524,-0.00911877,5.33641,0.67803,5.43594,-11.2917,13.1466,47.303,-1.3173,24.9991,1.65831,25.2925,-33.3071,10.6215,-5.88201,-0.163992,0.0943882,-0.0257592,-0.0553106,-1.84377,0.138529,0.0611838,-0.0153886,0.186888,0.0285765,0.334873,-0.377885,0.345541,-0.966762,-0.000610427,0,0,0,0,0,0,0,-5.67364,-28.7062,-5.61278,23.5907,0.831906,1.7669,0.050461,
0.099261,-0.0258843,-0.0555899,-1.84549,0.165159,0.065198,-0.016021,0.271202,0.00508748,0.273942,-0.303351,1.06573,-0.89394,-0.0105818,2.2263,0.730905,2.2911,-9.78019,10.7257,57.865,-0.914396,23.6053,0.83788,23.8905,-32.9524,10.6215,-3.55982,-0.162457,0.0943882,-0.0257592,-0.0553106,-1.84377,0.138529,0.0611838,-0.0153886,0.186888,0.0285765,0.334873,-0.377885,0.345541,-0.966762,-0.000610427,0,0,0,0,0,0,0,-5.67364,-28.7062,-5.61278,23.5907,0.831906,1.7669,0.050461,
0.0980771,-0.0253691,-0.0515595,-1.85081,0.149704,0.0516655,-0.0158878,0.261877,0.00926225,0.264645,-0.331779,1.00838,-0.81377,-0.0145274,-5.82811,2.60923,-5.81077,-17.7675,-35.8444,50.1067,-2.46601,22.4307,2.82276,22.6572,-39.4764,10.6215,-2.03704,-0.313798,0.0943882,-0.0257592,-0.0553106,-1.84377,0.138529,0.0611838,-0.0153886,0.186888,0.0285765,0.334873,-0.377885,0.345541,-0.966762,-0.000610427,0,0,0,0,0,0,0,-5.67364,-28.7062,-5.61278,23.5907,0.831906,1.7669,0.050461,
0.0998128,-0.0251549,-0.0498026,-1.8544,0.156715,0.0493399,-0.0161049,0.252893,0.0127646,0.255637,-0.355265,0.981993,-0.709156,-0.0170495,-5.61487,2.189,-5.63005,-14.6786,-16.4934,65.3834,-1.57628,21.3564,1.29898,21.6014,-38.6016,10.4874,-0.144021,-0.296785,0.103776,-0.0237227,-0.0392421,-1.85742,0.160852,0.0423268,-0.0153812,0.281621,0.0972206,0.479692,-0.361245,0.704827,-0.168074,-0.00503422,11.8416,8.5805,18.1024,2.08008,44.9108,99.8359,-0.552974,1.12232,-40.136,0.786451,32.0609,2.22442,6.39489,0.0980684,
0.101508,-0.0249497,-0.0480873,-1.85798,0.164202,0.0485402,-0.0162974,0.244697,0.0153427,0.247394,-0.373754,0.972756,-0.587316,-0.0184514,-5.12275,1.61131,-5.15194,-11.5557,-5.77337,76.1499,-0.876178,20.6086,0.321907,20.8508,-38.2474,10.4874,2.02695,-0.269421,0.103776,-0.0237227,-0.0392421,-1.85742,0.160852,0.0423268,-0.0153812,0.281621,0.0972206,0.479692,-0.361245,0.704827,-0.168074,-0.00503422,0,0,0,0,0,0,0,1.12232,-40.136,0.786451,32.0609,2.22442,6.39489,0.0980684,
0.103172,-0.0247626,-0.0464036,-1.86152,0.171979,0.0491233,-0.0164668,0.237368,0.0169511,0.240007,-0.387515,0.97263,-0.455275,-0.0189954,-4.58071,1.00525,-4.6169,-8.60033,-0.0785996,82.5256,-0.340053,19.9752,-0.445985,20.2123,-37.9034,10.4874,3.78221,-0.240427,0.103776,-0.0237227,-0.0392421,-1.85742,0.160852,0.0423268,-0.0153812,0.281621,0.0972206,0.479692,-0.361245,0.704827,-0.168074,-0.00503422,0,0,0,0,0,0,0,1.12232,-40.136,0.786451,32.0609,2.22442,6.39489,0.0980684,
0.108753,-0.0228394,-0.0341904,-1.86406,0.17594,0.0412844,-0.0158847,0.248838,0.0228575,0.251605,-0.394644,0.976629,-0.368318,-0.0211723,7.16893,3.6915,7.24862,-4.45566,2.49934,54.3485,-1.36055,21.3564,1.29898,21.6014,-38.6016,10.4874,-0.144021,-0.296785,0.103776,-0.0237227,-0.0392421,-1.85742,0.160852,0.0423268,-0.0153812,0.281621,0.0972206,0.479692,-0.361245,0.704827,-0.168074,-0.00503422,0,0,0,0,0,0,0,1.12232,-40.136,0.786451,32.0609,2.22442,6.39489,0.0980684,
0.11092,-0.0225597,-0.0319999,-1.86748,0.184275,0.0420026,-0.016093,0.253243,0.025279,0.256045,-0.401284,0.989662,-0.276699,-0.0221452,2.7531,1.51344,2.77509,-4.15013,8.14599,57.2615,-0.608028,20.531,-0.0334638,20.778,-38.3019,10.3274,1.89769,-0.269299,0.108327,-0.0191314,-0.03106,-1.86911,0.175061,0.0435052,-0.0153611,0.14298,0.0521358,0.2348,-0.354923,0.539335,0.271986,0.00176465,-17.3301,-5.63559,-30.6116,0.790219,-20.6865,55.0076,0.849859,-13.9653,-41.4333,-13.7616,46.5573,0.27618,9.4912,-0.0227812,
0.112946,-0.0223474,-0.0299521,-1.8709,0.192782,0.043656,-0.0162738,0.253242,0.0255296,0.25603,-0.406387,1.00442,-0.180024,-0.0222366,-0.000504566,0.156631,-0.00901756,-3.18928,9.22341,60.4218,-0.0571773,19.8976,-0.801356,20.1394,-37.9578,10.3274,3.65295,-0.240306,0.108327,-0.0191314,-0.03106,-1.86911,0.175061,0.0435052,-0.0153611,0.14298,0.0521358,0.2348,-0.354923,0.539335,0.271986,0.00176465,0,0,0,0,0,0,0,-13.9653,-41.4333,-13.7616,46.5573,0.27618,9.4912,-0.0227812,
0.111217,-0.0187327,-0.028118,-1.87538,0.187181,0.0480405,-0.0157714,0.238629,0.0242397,0.241389,-0.404813,0.965529,-0.0835378,-0.0226864,-9.13294,-0.806231,-9.15075,0.983804,-24.3068,60.3042,-0.281128,20.531,-0.0334638,20.778,-38.3019,10.3274,1.89769,-0.269299,0.108327,-0.0191314,-0.03106,-1.86911,0.175061,0.0435052,-0.0153611,0.14298,0.0521358,0.2348,-0.354923,0.539335,0.271986,0.00176465,0,0,0,0,0,0,0,-13.9653,-41.4333,-13.7616,46.5573,0.27618,9.4912,-0.0227812,
0.112661,-0.018637,-0.0266535,-1.87861,0.194202,0.0509703,-0.0159423,0.227019,0.0217847,0.229726,-0.404623,0.947952,0.00641593,-0.0224237,-7.25679,-1.53435,-7.28957,0.118407,-10.9854,56.2211,0.164192,19.8976,-0.801356,20.1394,-37.9578,10.3274,3.65295,-0.240306,0.108327,-0.0191314,-0.03106,-1.86911,0.175061,0.0435052,-0.0153611,0.14298,0.0521358,0.2348,-0.354923,0.539335,0.271986,0.00176465,0,0,0,0,0,0,0,-13.9653,-41.4333,-13.7616,46.5573,0.27618,9.4912,-0.0227812,
0.114112,-0.018577,-0.0251833,-1.88185,0.201578,0.0544895,-0.0160896,0.217891,0.0189285,0.220534,-0.404516,0.942774,0.0931121,-0.0216211,-5.70498,-1.78515,-5.74485,0.0668465,-3.23633,54.1851,0.501617,19.2481,-1.28245,19.4873,-37.585,10.1959,5.06131,-0.211191,0.115386,-0.0156825,-0.0181734,-1.87817,0.198368,0.054994,-0.0153669,0.144594,0.157021,0.278748,-0.105837,0.421965,0.469931,-0.000729459,0.201777,13.1107,5.49349,31.1357,-14.6712,24.7431,-0.311764,-15.3379,-47.6976,-15.1343,44.9625,-2.66816,9.76952,0.017502,
0.115568,-0.018539,-0.0237095,-1.88505,0.209192,0.0585941,-0.016215,0.210698,0.0160914,0.213272,-0.403781,0.944551,0.177104,-0.0204309,-4.49547,-1.77316,-4.53901,0.45968,1.11067,52.4948,0.743912,18.7606,-1.61577,18.9917,-37.1943,10.1959,6.13795,-0.18261,0.115386,-0.0156825,-0.0181734,-1.87817,0.198368,0.054994,-0.0153669,0.144594,0.157021,0.278748,-0.105837,0.421965,0.469931,-0.000729459,0,0,0,0,0,0,0,-15.3379,-47.6976,-15.1343,44.9625,-2.66816,9.76952,0.017502,
0.118398,-0.0151856,-0.0151024,-1.88359,0.210062,0.0643399,-0.015761,0.205534,0.015912,0.208133,-0.396092,0.914871,0.259669,-0.0208966,-3.22737,-0.112136,-3.21188,4.80548,-18.5504,51.6033,-0.29109,19.7976,-0.739435,20.0437,-37.9452,10.1959,3.66277,-0.239768,0.115386,-0.0156825,-0.0181734,-1.87817,0.198368,0.054994,-0.0153669,0.144594,0.157021,0.278748,-0.105837,0.421965,0.469931,-0.000729459,0,0,0,0,0,0,0,-15.3379,-47.6976,-15.1343,44.9625,-2.66816,9.76952,0.017502,
0.119852,-0.0151542,-0.0136292,-1.88663,0.217049,0.0691785,-0.0159141,0.200764,0.0135144,0.203338,-0.392937,0.906566,0.328702,-0.0205443,-2.98115,-1.49849,-2.99668,1.97206,-5.19057,43.1456,0.220231,19.2481,-1.28245,19.4873,-37.585,10.1959,5.06131,-0.211191,0.115386,-0.0156825,-0.0181734,-1.87817,0.198368,0.054994,-0.0153669,0.144594,0.157021,0.278748,-0.105837,0.421965,0.469931,-0.000729459,0,0,0,0,0,0,0,-15.3379,-47.6976,-15.1343,44.9625,-2.66816,9.76952,0.017502,
0.121294,-0.0151603,-0.0121679,-1.8897,0.22442,0.0742334,-0.0160426,0.196675,0.010658,0.199203,-0.391077,0.909516,0.389332,-0.0196483,-2.55565,-1.78525,-2.58457,1.16229,1.84395,37.894,0.559968,18.7606,-1.61577,18.9917,-37.1943,10.1959,6.13795,-0.18261,0.115386,-0.0156825,-0.0181734,-1.87817,0.198368,0.054994,-0.0153669,0.144594,0.157021,0.278748,-0.105837,0.421965,0.469931,-0.000729459,0,0,0,0,0,0,0,-15.3379,-47.6976,-15.1343,44.9625,-2.66816,9.76952,0.017502,
0.122731,-0.0151819,-0.0107136,-1.89275,0.232035,0.0795478,-0.0161486,0.193249,0.00798766,0.195718,-0.389277,0.918002,0.444327,-0.0183697,-2.14138,-1.66896,-2.17767,1.12509,5.30381,34.3716,0.799127,18.3921,-1.61092,18.6146,-36.9367,10.14,6.86773,-0.154919,0.117139,-0.0128435,-0.0126671,-1.88222,0.215314,0.0726381,-0.0153493,0.0993867,-0.0145624,0.230803,-0.0721048,0.539701,0.578886,0.00643362,-5.6509,-21.448,-5.9931,4.21656,14.717,13.6194,0.895385,-0.702633,-37.7159,-1.10991,33.0289,2.76184,7.95312,-0.117081,
0.119691,-0.0140278,-0.0100627,-1.88687,0.227955,0.0840551,-0.0156814,0.186681,-0.0084637,0.18914,-0.375035,0.90283,0.500204,-0.0185303,-4.1048,-10.2821,-4.11186,8.90144,-9.48259,34.9232,-0.100345,19.3199,-1.1196,19.559,-37.7499,10.14,4.98547,-0.210815,0.117139,-0.0128435,-0.0126671,-1.88222,0.215314,0.0726381,-0.0153493,0.0993867,-0.0145624,0.230803,-0.0721048,0.539701,0.578886,0.00643362,0,0,0,0,0,0,0,-0.702633,-37.7159,-1.10991,33.0289,2.76184,7.95312,-0.117081,
0.120995,-0.0145371,-0.00874054,-1.88958,0.235182,0.0899344,-0.0158091,0.181945,-0.0195059,0.184365,-0.367705,0.902941,0.547146,-0.0180153,-2.96005,-6.90135,-2.9843,4.58127,0.0692182,29.3386,0.321821,18.8324,-1.45292,19.0634,-37.3592,10.14,6.06211,-0.182235,0.117139,-0.0128435,-0.0126671,-1.88222,0.215314,0.0726381,-0.0153493,0.0993867,-0.0145624,0.230803,-0.0721048,0.539701,0.578886,0.00643362,0,0,0,0,0,0,0,-0.702633,-37.7159,-1.10991,33.0289,2.76184,7.95312,-0.117081,
0.122319,-0.0149552,-0.00739845,-1.89235,0.242713,0.0959286,-0.015914,0.178673,-0.0260566,0.181044,-0.363576,0.910627,0.587571,-0.0170359,-2.0449,-4.09423,-2.07541,2.58071,4.80413,25.2654,0.612169,18.3921,-1.61092,18.6146,-36.9367,10.14,6.86773,-0.154919,0.117139,-0.0128435,-0.0126671,-1.88222,0.215314,0.0726381,-0.0153493,0.0993867,-0.0145624,0.230803,-0.0721048,0.539701,0.578886,0.00643362,0,0,0,0,0,0,0,-0.702633,-37.7159,-1.10991,33.0289,2.76184,7.95312,-0.117081,
0.12366,-0.0152921,-0.00604111,-1.89516,0.250438,0.102045,-0.0159985,0.176452,-0.029267,0.178769,-0.360932,0.921616,0.62296,-0.0157416,-1.38857,-2.00649,-1.42215,1.6524,6.8679,22.1186,0.808927,18.0051,-1.49129,18.2177,-36.6191,10.1023,7.33992,-0.127322,0.120355,-0.0104358,-0.00586713,-1.8859,0.229311,0.0927875,-0.0153826,0.0970445,-0.0597512,0.140248,-0.0981071,0.394235,0.754354,-0.00229708,-0.292773,-5.64861,-11.3193,-3.25028,-18.1833,21.9336,-1.09134,-7.85565,-48.6458,-7.83446,39.682,1.43066,4.8568,0.131027,
0.122343,-0.0119197,-0.00383653,-1.89045,0.240395,0.106271,-0.0156667,0.166777,-0.041117,0.169093,-0.35044,0.888958,0.666965,-0.0158077,-6.0468,-7.40623,-6.04747,6.55753,-20.4112,27.5029,-0.0413447,18.8503,-1.30604,19.08,-37.4908,10.1023,5.96956,-0.181366,0.120355,-0.0104358,-0.00586713,-1.8859,0.229311,0.0927875,-0.0153826,0.0970445,-0.0597512,0.140248,-0.0981071,0.394235,0.754354,-0.00229708,0,0,0,0,0,0,0,-7.85565,-48.6458,-7.83446,39.682,1.43066,4.8568,0.131027,
0.12343,-0.0125044,-0.00273185,-1.89307,0.247112,0.112956,-0.0157705,0.160602,-0.0475112,0.162891,-0.345736,0.879083,0.700711,-0.0152413,-3.85913,-3.99641,-3.8758,2.93967,-6.17169,21.0914,0.354017,18.41,-1.46404,18.6313,-37.0683,10.1023,6.77517,-0.154051,0.120355,-0.0104358,-0.00586713,-1.8859,0.229311,0.0927875,-0.0153826,0.0970445,-0.0597512,0.140248,-0.0981071,0.394235,0.754354,-0.00229708,0,0,0,0,0,0,0,-7.85565,-48.6458,-7.83446,39.682,1.43066,4.8568,0.131027,
0.124573,-0.0129732,-0.00157257,-1.89575,0.254251,0.119608,-0.0158533,0.157045,-0.0497298,0.159295,-0.343641,0.881746,0.726854,-0.0142618,-2.22329,-1.38661,-2.2478,1.30973,1.66408,16.3394,0.61221,18.0051,-1.49129,18.2177,-36.6191,10.1023,7.33992,-0.127322,0.120355,-0.0104358,-0.00586713,-1.8859,0.229311,0.0927875,-0.0153826,0.0970445,-0.0597512,0.140248,-0.0981071,0.394235,0.754354,-0.00229708,0,0,0,0,0,0,0,-7.85565,-48.6458,-7.83446,39.682,1.43066,4.8568,0.131027,
0.125759,-0.0133441,-0.000369701,-1.89846,0.261672,0.126233,-0.0159167,0.155305,-0.0490554,0.157508,-0.342664,0.890929,0.747125,-0.0129952,-1.08771,0.421517,-1.11696,0.610485,5.7394,12.669,0.791622,17.6268,-1.42566,17.8308,-36.1512,10.1023,7.70906,-0.102164,0.120355,-0.0104358,-0.00586713,-1.8859,0.229311,0.0927875,-0.0153826,0.0970445,-0.0597512,0.140248,-0.0981071,0.394235,0.754354,-0.00229708,0,0,0,0,0,0,0,-7.85565,-48.6458,-7.83446,39.682,1.43066,4.8568,0.131027,
0.122329,-0.0119146,-0.00385242,-1.89046,0.240418,0.106734,-0.0156244,0.149616,-0.0567781,0.151823,-0.335714,0.864706,0.772825,-0.0130781,-3.55514,-4.8267,-3.55309,4.34366,-16.3894,16.0626,-0.0518281,18.41,-1.46404,18.6313,-37.0683,10.1023,6.77517,-0.154051,0.120355,-0.0104358,-0.00586713,-1.8859,0.229311,0.0927875,-0.0153826,0.0970445,-0.0597512,0.140248,-0.0981071,0.394235,0.754354,-0.00229708,0,0,0,0,0,0,0,-7.85565,-48.6458,-7.83446,39.682,1.43066,4.8568,0.131027,
0.123401,-0.0124864,-0.00276272,-1.89305,0.247146,0.113674,-0.0157083,0.146517,-0.0597179,0.148701,-0.333392,0.859963,0.791748,-0.0125585,-1.93716,-1.83737,-1.95132,1.45154,-2.9643,11.8268,0.324774,18.0051,-1.49129,18.2177,-36.6191,10.1023,7.33992,-0.127322,0.120355,-0.0104358,-0.00586713,-1.8859,0.229311,0.0927875,-0.0153826,0.0970445,-0.0597512,0.140248,-0.0981071,0.394235,0.754354,-0.00229708,0,0,0,0,0,0,0,-7.85565,-48.6458,-7.83446,39.682,1.43066,4.8568,0.131027,
0.124526,-0.0129395,-0.00162237,-1.8957,0.254295,0.120536,-0.0157719,0.145321,-0.0591012,0.147469,-0.332862,0.866711,0.80496,-0.011638,-0.747493,0.385448,-0.769674,0.330963,4.21738,8.25782,0.575316,17.6268,-1.42566,17.8308,-36.1512,10.1023,7.70906,-0.102164,0.120355,-0.0104358,-0.00586713,-1.8859,0.229311,0.0927875,-0.0153826,0.0970445,-0.0597512,0.140248,-0.0981071,0.394235,0.754354,-0.00229708,0,0,0,0,0,0,0,-7.85565,-48.6458,-7.83446,39.682,1.43066,4.8568,0.131027,
0.125691,-0.0132941,-0.000441603,-1.89837,0.261726,0.127315,-0.0158175,0.145389,-0.0561461,0.147495,-0.332924,0.879142,0.813439,-0.010451,0.0428019,1.8469,0.0158647,-0.0387151,7.76968,5.2991,0.741852,17.2895,-1.09509,17.4891,-35.9151,10.0671,7.77986,-0.0766262,0.123079,-0.0115111,-0.000810158,-1.89089,0.2436,0.121532,-0.0153699,0.0631096,-0.0666415,0.0972121,-0.117903,0.240108,1.10801,0.00232436,-4.24186,-0.861279,-5.37954,-2.47451,-19.2659,44.2064,0.57768,-8.10955,-43.0559,-7.98522,36.7184,1.93695,3.59704,-0.0301054,
0.124535,-0.0129362,0.00068556,-1.89527,0.253144,0.138818,-0.0155707,0.135619,-0.0617552,0.137745,-0.325146,0.838799,0.860897,-0.0105457,-6.10676,-3.50567,-6.0937,4.86098,-25.2146,29.6615,-0.059153,18.0259,-1.28412,18.2427,-36.8631,10.0671,7.2109,-0.125996,0.123079,-0.0115111,-0.000810158,-1.89089,0.2436,0.121532,-0.0153699,0.0631096,-0.0666415,0.0972121,-0.117903,0.240108,1.10801,0.00232436,0,0,0,0,0,0,0,-8.10955,-43.0559,-7.98522,36.7184,1.93695,3.59704,-0.0301054,
0.125397,-0.0134901,0.00156449,-1.89775,0.259385,0.14677,-0.0156348,0.130054,-0.0632516,0.132169,-0.322095,0.827066,0.887532,-0.0100387,-3.47806,-0.935265,-3.48475,1.90725,-7.33317,16.6466,0.31687,17.6476,-1.21849,17.8558,-36.3952,10.0671,7.58003,-0.100838,0.123079,-0.0115111,-0.000810158,-1.89089,0.2436,0.121532,-0.0153699,0.0631096,-0.0666415,0.0972121,-0.117903,0.240108,1.10801,0.00232436,0,0,0,0,0,0,0,-8.10955,-43.0559,-7.98522,36.7184,1.93695,3.59704,-0.0301054,
0.12634,-0.0139339,0.00252326,-1.90028,0.266169,0.154348,-0.0156795,0.127617,-0.0616974,0.129704,-0.321156,0.831259,0.899475,-0.00914901,-1.52321,0.971392,-1.54047,0.586424,2.62056,7.4647,0.556028,17.2895,-1.09509,17.4891,-35.9151,10.0671,7.77986,-0.0766262,0.123079,-0.0115111,-0.000810158,-1.89089,0.2436,0.121532,-0.0153699,0.0631096,-0.0666415,0.0972121,-0.117903,0.240108,1.10801,0.00232436,0,0,0,0,0,0,0,-8.10955,-43.0559,-7.98522,36.7184,1.93695,3.59704,-0.0301054,
0.12735,-0.014285,0.00354813,-1.90285,0.273322,0.161607,-0.0157069,0.127335,-0.0581364,0.129385,-0.321114,0.843824,0.901056,-0.0080024,-0.175691,2.22566,-0.199349,0.0267046,7.85298,0.987852,0.716634,16.8343,-0.577987,17.0309,-35.7748,10.0138,7.65863,-0.0513491,0.126341,-0.0127806,0.00552704,-1.89669,0.246614,0.165084,-0.0153777,0.0820983,-0.103116,0.12603,-0.135516,-0.0691607,1.4014,0.000308032,2.37358,-4.55929,3.60219,-2.20159,-38.6586,36.6737,-0.252041,-13.2075,-37.6921,-12.7856,32.16,1.40594,3.23174,0.0440523,
0.127864,-0.0144154,0.00709117,-1.90085,0.253869,0.184857,-0.0155689,0.121182,-0.0653304,0.123265,-0.312522,0.789695,0.956015,-0.0083865,-3.8458,-4.49628,-3.82488,5.36984,-33.8304,34.3496,-0.240061,17.5359,-0.859086,17.7492,-36.7406,10.0138,7.39032,-0.0981536,0.126341,-0.0127806,0.00552704,-1.89669,0.246614,0.165084,-0.0153777,0.0820983,-0.103116,0.12603,-0.135516,-0.0691607,1.4014,0.000308032,0,0,0,0,0,0,0,-13.2075,-37.6921,-12.7856,32.16,1.40594,3.23174,0.0440523,
0.128692,-0.015027,0.00793587,-1.90321,0.259643,0.19348,-0.0156215,0.11765,-0.0675529,0.11973,-0.308867,0.776109,0.980397,-0.00802518,-2.20744,-1.38908,-2.20981,2.28425,-8.49135,15.2387,0.225823,17.1777,-0.735682,17.3825,-36.2605,10.0138,7.59015,-0.0739423,0.126341,-0.0127806,0.00552704,-1.89669,0.246614,0.165084,-0.0153777,0.0820983,-0.103116,0.12603,-0.135516,-0.0691607,1.4014,0.000308032,0,0,0,0,0,0,0,-13.2075,-37.6921,-12.7856,32.16,1.40594,3.23174,0.0440523,
0.129585,-0.0155161,0.00884429,-1.90563,0.266174,0.201483,-0.0156527,0.116439,-0.0662707,0.118494,-0.307708,0.784162,0.984378,-0.0071992,-0.756711,0.801372,-0.772163,0.72425,5.03304,2.48784,0.51624,16.8343,-0.577987,17.0309,-35.7748,10.0138,7.65863,-0.0513491,0.126341,-0.0127806,0.00552704,-1.89669,0.246614,0.165084,-0.0153777,0.0820983,-0.103116,0.12603,-0.135516,-0.0691607,1.4014,0.000308032,0,0,0,0,0,0,0,-13.2075,-37.6921,-12.7856,32.16,1.40594,3.23174,0.0440523,
0.127864,-0.0144154,0.00709117,-1.90085,0.253869,0.184857,-0.0155689,0.112465,-0.0718379,0.114553,-0.301798,0.741965,1.02267,-0.00774394,-2.48381,-3.47948,-2.46351,3.69417,-26.3727,23.9343,-0.340462,17.2131,-0.552367,17.4225,-36.4889,10.0721,7.40338,-0.0725284,0.128119,-0.0142335,0.00970746,-1.90433,0.247668,0.210473,-0.0154033,0.0389696,-0.129001,0.0739469,-0.196353,-0.118384,1.52503,-0.00508839,-5.39109,-3.23565,-6.51034,-7.60468,-6.1529,15.4539,-0.674552,-10.6724,-37.9659,-10.7345,34.5245,3.02459,5.54619,0.245468,
0.129714,-0.0164622,0.0113589,-1.91086,0.259811,0.239699,-0.0155876,0.105597,-0.0722283,0.107671,-0.299177,0.732317,1.03707,-0.00704002,-4.29269,-0.243993,-4.30129,1.63821,-6.02991,8.99876,0.439948,16.8697,-0.394672,17.0708,-36.0032,10.0721,7.47187,-0.0499352,0.128119,-0.0142335,0.00970746,-1.90433,0.247668,0.210473,-0.0154033,0.0389696,-0.129001,0.0739469,-0.196353,-0.118384,1.52503,-0.00508839,0,0,0,0,0,0,0,-10.6724,-37.9659,-10.7345,34.5245,3.02459,5.54619,0.245468,
0.13044,-0.0169326,0.0121,-1.91323,0.266152,0.247742,-0.0156008,0.102625,-0.0695438,0.104664,-0.298669,0.744396,1.03072,-0.00596323,-1.85727,1.67781,-1.87893,0.317463,7.54878,-3.96971,0.672995,16.5376,-0.223268,16.7307,-35.5157,10.0721,7.43099,-0.0284017,0.128119,-0.0142335,0.00970746,-1.90433,0.247668,0.210473,-0.0154033,0.0389696,-0.129001,0.0739469,-0.196353,-0.118384,1.52503,-0.00508839,0,0,0,0,0,0,0,-10.6724,-37.9659,-10.7345,34.5245,3.02459,5.54619,0.245468,
0.131267,-0.0173077,0.012941,-1.91563,0.272794,0.255193,-0.015594,0.102772,-0.0650106,0.104757,-0.299001,0.761553,1.01085,-0.0045998,0.091324,2.83325,0.0579043,-0.208027,10.7233,-12.4198,0.85214,16.2134,-0.0488166,16.3988,-35.0303,10.0114,7.31171,-0.00836461,0.128119,-0.0142335,0.00970746,-1.90433,0.247668,0.210473,-0.0154033,0.0389696,-0.129001,0.0739469,-0.196353,-0.118384,1.52503,-0.00508839,0,0,0,0,0,0,0,-10.6724,-37.9659,-10.7345,34.5245,3.02459,5.54619,0.245468,
0.129072,-0.0158441,0.0106992,-1.90849,0.254275,0.230911,-0.0155198,0.0950534,-0.0700159,0.0970623,-0.293475,0.716794,1.04948,-0.00474473,-4.82387,-3.12829,-4.8092,3.45404,-27.9746,24.1482,-0.090578,16.8697,-0.394672,17.0708,-36.0032,10.0721,7.47187,-0.0499352,0.128119,-0.0142335,0.00970746,-1.90433,0.247668,0.210473,-0.0154033,0.0389696,-0.129001,0.0739469,-0.196353,-0.118384,1.52503,-0.00508839,0,0,0,0,0,0,0,-10.6724,-37.9659,-10.7345,34.5245,3.02459,5.54619,0.245468,
0.129683,-0.0164185,0.0113254,-1.91076,0.259817,0.239613,-0.0155376,0.0913106,-0.0703714,0.0933057,-0.291488,0.711978,1.05714,-0.00424092,-2.33925,-0.2222,-2.3479,1.24167,-3.00996,4.78645,0.314879,16.5363,-0.125933,16.7313,-35.6344,10.1196,7.26244,-0.0278892,0.130343,-0.0145261,0.0137593,-1.91175,0.246707,0.254984,-0.01538,0.0595161,-0.0538737,0.0698678,-0.163169,-0.0682592,1.48056,0.00129494,2.56832,9.39091,-0.509885,4.14809,6.26558,-5.55887,0.797916,-9.83532,-38.4657,-9.6118,34.9252,1.90673,4.42559,0.0303194,
0.130402,-0.0168764,0.0120593,-1.91308,0.265936,0.247565,-0.0155331,0.0910397,-0.0677459,0.0929931,-0.291186,0.722556,1.04451,-0.00327955,-0.169323,1.64092,-0.195386,0.189042,6.61131,-7.89436,0.600859,16.2121,0.0485184,16.3994,-35.149,10.059,7.14316,-0.00785212,0.130343,-0.0145261,0.0137593,-1.91175,0.246707,0.254984,-0.01538,0.0595161,-0.0538737,0.0698678,-0.163169,-0.0682592,1.48056,0.00129494,0,0,0,0,0,0,0,-9.83532,-38.4657,-9.6118,34.9252,1.90673,4.42559,0.0303194,
0.131222,-0.017243,0.0128927,-1.91543,0.272263,0.254896,-0.0155119,0.0933289,-0.06336,0.0952275,-0.291686,0.736209,1.01887,-0.0020958,1.43078,2.74118,1.39656,-0.312315,8.53361,-16.0293,0.739843,15.8934,0.216081,16.0732,-34.6675,9.33547,6.96214,0.0111352,0.130343,-0.0145261,0.0137593,-1.91175,0.246707,0.254984,-0.01538,0.0595161,-0.0538737,0.0698678,-0.163169,-0.0682592,1.48056,0.00129494,0,0,0,0,0,0,0,-9.83532,-38.4657,-9.6118,34.9252,1.90673,4.42559,0.0303194,
0.131375,-0.0155563,0.0148276,-1.91595,0.254029,0.275083,-0.0154746,0.0883059,-0.0628173,0.0902422,-0.288541,0.704284,1.05117,-0.00243198,-3.13937,0.339195,-3.11586,1.96511,-19.9537,20.1931,-0.210113,16.5363,-0.125933,16.7313,-35.6344,10.1196,7.26244,-0.0278892,0.130343,-0.0145261,0.0137593,-1.91175,0.246707,0.254984,-0.01538,0.0595161,-0.0538737,0.0698678,-0.163169,-0.0682592,1.48056,0.00129494,0,0,0,0,0,0,0,-9.83532,-38.4657,-9.6118,34.9252,1.90673,4.42559,0.0303194,
0.132018,-0.0159612,0.0154857,-1.91824,0.259589,0.283529,-0.0154758,0.0867224,-0.0603748,0.0886457,-0.288046,0.702417,1.0521,-0.0019766,-0.989683,1.52655,-0.997826,0.309825,-1.16693,0.576387,0.284613,16.2477,-0.175652,16.4377,-35.0441,10.1244,7.00854,-0.00877985,0.131505,-0.0155956,0.0158526,-1.91766,0.247685,0.293536,-0.0153809,0.078535,-0.0901622,0.141211,-0.154195,0.173412,0.882389,-0.000854419,2.37736,-4.53607,8.91795,1.12174,30.2089,-74.7708,-0.26867,9.13623,-28.8808,8.73689,10.3122,1.41235,-0.766367,0.0577852,
0.132762,-0.0162942,0.0162441,-1.92057,0.26557,0.291176,-0.0154571,0.0879927,-0.0566267,0.0898772,-0.288651,0.711455,1.03284,-0.00111233,0.793946,2.34258,0.769698,-0.37824,5.64916,-12.0365,0.54017,15.9289,-0.00808866,16.1115,-34.5626,9.40095,6.82752,0.0102075,0.131505,-0.0155956,0.0158526,-1.91766,0.247685,0.293536,-0.0153809,0.078535,-0.0901622,0.141211,-0.154195,0.173412,0.882389,-0.000854419,0,0,0,0,0,0,0,9.13623,-28.8808,8.73689,10.3122,1.41235,-0.766367,0.0577852,
0.133598,-0.0165666,0.0170924,-1.92292,0.271684,0.298167,-0.0154222,0.0912764,-0.0521092,0.0931101,-0.289687,0.72202,1.00107,-1.87709e-05,2.05227,2.82342,2.02059,-0.647863,6.60306,-19.8571,0.683473,15.6123,0.150797,15.7873,-34.0888,8.7956,6.5963,0.0267752,0.131505,-0.0155956,0.0158526,-1.91766,0.247685,0.293536,-0.0153809,0.078535,-0.0901622,0.141211,-0.154195,0.173412,0.882389,-0.000854419,0,0,0,0,0,0,0,9.13623,-28.8808,8.73689,10.3122,1.41235,-0.766367,0.0577852,
0.133181,-0.0169836,0.0175671,-1.92205,0.257307,0.308152,-0.0154421,0.0943883,-0.0572139,0.0962402,-0.289212,0.714163,0.979909,-0.000291843,1.94498,-3.19042,1.9563,0.297032,-4.91074,-13.2233,-0.17067,16.2477,-0.175652,16.4377,-35.0441,10.1244,7.00854,-0.00877985,0.131505,-0.0155956,0.0158526,-1.91766,0.247685,0.293536,-0.0153809,0.078535,-0.0901622,0.141211,-0.154195,0.173412,0.882389,-0.000854419,0,0,0,0,0,0,0,9.13623,-28.8808,8.73689,10.3122,1.41235,-0.766367,0.0577852,
0.13409,-0.0174621,0.0184909,-1.9244,0.263342,0.314911,-0.0154281,0.0982562,-0.0577332,0.100087,-0.290313,0.722218,0.952888,0.00011537,2.41743,-0.32455,2.40445,-0.688154,5.03459,-16.888,0.254508,15.942,-0.0850974,16.1279,-34.573,9.43529,6.73493,0.0105257,0.133464,-0.0166702,0.0183931,-1.92433,0.250883,0.32004,-0.015393,0.0747789,-0.110156,0.128424,-0.208649,0.191962,0.544958,-0.00342015,-0.469511,-2.49928,-1.59843,-6.80681,2.31871,-42.1788,-0.320716,9.69165,-28.9562,9.38753,12.28,1.74743,-0.646433,0.138352,
0.135057,-0.0178282,0.0194704,-1.92678,0.269572,0.321267,-0.0153958,0.102763,-0.0553395,0.104557,-0.291707,0.733517,0.921209,0.000899252,2.81688,1.49605,2.79382,-0.871327,7.06177,-19.7994,0.489926,15.6253,0.0737885,15.8037,-34.0992,8.82994,6.5037,0.0270934,0.133464,-0.0166702,0.0183931,-1.92433,0.250883,0.32004,-0.015393,0.0747789,-0.110156,0.128424,-0.208649,0.191962,0.544958,-0.00342015,0,0,0,0,0,0,0,9.69165,-28.9562,9.38753,12.28,1.74743,-0.646433,0.138352,
0.136071,-0.0181083,0.020497,-1.92917,0.27581,0.327241,-0.0153493,0.107559,-0.0512726,0.10931,-0.293011,0.742768,0.886334,0.00188411,2.99719,2.54184,2.97018,-0.814847,5.7819,-21.7968,0.615535,15.3213,0.221552,15.4924,-33.6324,8.32405,6.24544,0.0435059,0.133464,-0.0166702,0.0183931,-1.92433,0.250883,0.32004,-0.015393,0.0747789,-0.110156,0.128424,-0.208649,0.191962,0.544958,-0.00342015,0,0,0,0,0,0,0,9.69165,-28.9562,9.38753,12.28,1.74743,-0.646433,0.138352,
0.13512,-0.0180279,0.0200855,-1.9291,0.26005,0.331071,-0.0154141,0.107401,-0.0554562,0.10917,-0.295685,0.723392,0.849651,0.00168018,-0.0986442,-2.61479,-0.0875337,-1.67138,-12.1099,-22.9268,-0.127458,15.942,-0.0850974,16.1279,-34.573,9.43529,6.73493,0.0105257,0.133464,-0.0166702,0.0183931,-1.92433,0.250883,0.32004,-0.015393,0.0747789,-0.110156,0.128424,-0.208649,0.191962,0.544958,-0.00342015,0,0,0,0,0,0,0,9.69165,-28.9562,9.38753,12.28,1.74743,-0.646433,0.138352,
0.136035,-0.0184397,0.021014,-1.93157,0.265743,0.33665,-0.0153844,0.108794,-0.0546593,0.110548,-0.298252,0.721046,0.819196,0.0020865,0.870666,0.498057,0.86125,-1.60412,-1.46621,-19.0345,0.253953,15.6316,0.0639078,15.8137,-34.1224,8.8448,6.46344,0.0270785,0.135367,-0.0175717,0.0216287,-1.93146,0.256006,0.337231,-0.0153801,0.0599359,-0.0194391,0.150789,-0.208564,0.312941,0.284971,0.000238173,-1.85539,11.3397,2.79563,0.0105985,15.1224,-32.4985,0.45729,12.1514,-23.64,11.8353,11.8317,1.60095,-1.09138,0.017502,
0.137004,-0.0187313,0.0219968,-1.93403,0.27164,0.342077,-0.0153386,0.111284,-0.0510173,0.113009,-0.300121,0.724271,0.791046,0.0028152,1.5562,2.27629,1.53831,-1.16845,2.01574,-17.5935,0.455437,15.3276,0.211671,15.5024,-33.6556,8.33891,6.20518,0.043491,0.135367,-0.0175717,0.0216287,-1.93146,0.256006,0.337231,-0.0153801,0.0599359,-0.0194391,0.150789,-0.208564,0.312941,0.284971,0.000238173,0,0,0,0,0,0,0,12.1514,-23.64,11.8353,11.8317,1.60095,-1.09138,0.017502,
0.138024,-0.0189378,0.0230287,-1.93647,0.277452,0.347298,-0.0152782,0.114507,-0.0459756,0.116205,-0.301132,0.724717,0.763346,0.00376216,2.01458,3.15108,1.99762,-0.631754,0.278171,-17.313,0.59185,15.0204,0.351416,15.188,-33.1981,7.94974,5.93705,0.0588746,0.135367,-0.0175717,0.0216287,-1.93146,0.256006,0.337231,-0.0153801,0.0599359,-0.0194391,0.150789,-0.208564,0.312941,0.284971,0.000238173,0,0,0,0,0,0,0,12.1514,-23.64,11.8353,11.8317,1.60095,-1.09138,0.017502,
0.137143,-0.0180872,0.0234451,-1.93663,0.265665,0.345716,-0.015362,0.11455,-0.0421674,0.116274,-0.307197,0.710901,0.723172,0.00364196,0.0265484,2.38009,0.0429257,-3.79016,-8.63498,-25.1084,-0.0751243,15.6316,0.0639078,15.8137,-34.1224,8.8448,6.46344,0.0270785,0.135367,-0.0175717,0.0216287,-1.93146,0.256006,0.337231,-0.0153801,0.0599359,-0.0194391,0.150789,-0.208564,0.312941,0.284971,0.000238173,0,0,0,0,0,0,0,12.1514,-23.64,11.8353,11.8317,1.60095,-1.09138,0.017502,
0.138115,-0.0182126,0.0244297,-1.93926,0.27127,0.350359,-0.0153172,0.115918,-0.0368682,0.117635,-0.311663,0.708835,0.694615,0.00403263,0.855313,3.312,0.850509,-2.79132,-1.29071,-17.8482,0.244171,15.3136,0.219778,15.4924,-33.6642,8.31572,6.20855,0.0436838,0.138382,-0.017667,0.0277247,-1.93756,0.267481,0.345806,-0.0153876,0.0538248,0.0356186,0.172048,-0.196652,0.283437,0.129887,-0.000836154,-0.763875,6.88222,2.65743,1.4891,-3.68799,-19.3855,-0.134291,9.26319,-26.31,8.96303,11.9586,1.84539,-1.68098,0.0843355,
0.139135,-0.0182741,0.025463,-1.94185,0.27688,0.354987,-0.0152568,0.11824,-0.0310331,0.119941,-0.314057,0.707312,0.671385,0.00473503,1.45083,3.64694,1.44178,-1.49645,-0.952445,-14.5188,0.438999,15.0064,0.359524,15.1779,-33.2067,7.92655,5.94042,0.0590673,0.138382,-0.017667,0.0277247,-1.93756,0.267481,0.345806,-0.0153876,0.0538248,0.0356186,0.172048,-0.196652,0.283437,0.129887,-0.000836154,0,0,0,0,0,0,0,9.26319,-26.31,8.96303,11.9586,1.84539,-1.68098,0.0843355,
0.140249,-0.0176923,0.0296339,-1.94291,0.276602,0.352775,-0.0153473,0.118521,-0.0249548,0.120253,-0.319977,0.690013,0.63265,0.00471601,0.175796,3.79892,0.194754,-3.70027,-10.8118,-24.2093,-0.0118857,15.3136,0.219778,15.4924,-33.6642,8.31572,6.20855,0.0436838,0.138382,-0.017667,0.0277247,-1.93756,0.267481,0.345806,-0.0153876,0.0538248,0.0356186,0.172048,-0.196652,0.283437,0.129887,-0.000836154,0,0,0,0,0,0,0,9.26319,-26.31,8.96303,11.9586,1.84539,-1.68098,0.0843355,
0.141253,-0.0176508,0.0306517,-1.94563,0.281806,0.356832,-0.0152896,0.119914,-0.0189255,0.121647,-0.323791,0.68211,0.60753,0.00521522,0.870796,3.76837,0.871114,-2.38381,-4.93912,-15.7002,0.312005,15.0064,0.359524,15.1779,-33.2067,7.92655,5.94042,0.0590673,0.138382,-0.017667,0.0277247,-1.93756,0.267481,0.345806,-0.0153876,0.0538248,0.0356186,0.172048,-0.196652,0.283437,0.129887,-0.000836154,0,0,0,0,0,0,0,9.26319,-26.31,8.96303,11.9586,1.84539,-1.68098,0.0843355,
0.142299,-0.017578,0.0317113,-1.94827,0.286907,0.360944,-0.0152177,0.122081,-0.01332,0.123807,-0.325114,0.673214,0.58882,0.00596852,1.35456,3.50342,1.35032,-0.826681,-5.55975,-11.6938,0.470812,14.6586,0.548172,14.8287,-32.7186,7.2303,5.70138,0.0731587,0.141064,-0.0164221,0.0329409,-1.94399,0.27142,0.349627,-0.0153763,0.0845612,0.12892,0.150545,-0.22989,0.0528595,0.0813989,0.00202944,3.84204,11.6626,-2.68788,-4.15482,-28.8222,-6.06096,0.358199,-1.64288,-27.5835,-1.78832,17.1875,1.81518,-0.672983,-0.0163725,
0.143374,-0.0174889,0.0328,-1.95085,0.291781,0.365017,-0.0151383,0.124553,-0.00842887,0.126265,-0.324527,0.660419,0.572895,0.00676066,1.54465,3.05694,1.53608,0.36715,-7.99701,-9.95308,0.495086,14.3195,0.691937,14.4906,-32.2652,6.42518,5.43569,0.0852688,0.141064,-0.0164221,0.0329409,-1.94399,0.27142,0.349627,-0.0153763,0.0845612,0.12892,0.150545,-0.22989,0.0528595,0.0813989,0.00202944,0,0,0,0,0,0,0,-1.64288,-27.5835,-1.78832,17.1875,1.81518,-0.672983,-0.0163725,
0.142899,-0.0154502,0.0348155,-1.94983,0.278239,0.355613,-0.015326,0.122928,0.00403573,0.124692,-0.333785,0.626519,0.540921,0.00653021,-1.01563,7.79038,-0.982936,-5.78624,-21.1877,-19.9837,-0.144031,14.9829,0.410448,15.1534,-33.1717,7.92477,5.97075,0.0592783,0.141064,-0.0164221,0.0329409,-1.94399,0.27142,0.349627,-0.0153763,0.0845612,0.12892,0.150545,-0.22989,0.0528595,0.0813989,0.00202944,0,0,0,0,0,0,0,-1.64288,-27.5835,-1.78832,17.1875,1.81518,-0.672983,-0.0163725,
0.14387,-0.0150651,0.0358018,-1.95271,0.282506,0.359144,-0.0152593,0.122634,0.0128557,0.124411,-0.33908,0.607897,0.521018,0.00689129,-0.183643,5.51249,-0.176197,-3.30954,-11.6385,-12.4393,0.225678,14.6586,0.548172,14.8287,-32.7186,7.2303,5.70138,0.0731587,0.141064,-0.0164221,0.0329409,-1.94399,0.27142,0.349627,-0.0153763,0.0845612,0.12892,0.150545,-0.22989,0.0528595,0.0813989,0.00202944,0,0,0,0,0,0,0,-1.64288,-27.5835,-1.78832,17.1875,1.81518,-0.672983,-0.0163725,
0.144878,-0.0147188,0.0368231,-1.95549,0.286813,0.362751,-0.015182,0.123295,0.0189417,0.125061,-0.3407,0.593981,0.506993,0.00744703,0.412962,3.80376,0.406435,-1.0124,-8.69774,-8.76552,0.347336,14.3195,0.691937,14.4906,-32.2652,6.42518,5.43569,0.0852688,0.141064,-0.0164221,0.0329409,-1.94399,0.27142,0.349627,-0.0153763,0.0845612,0.12892,0.150545,-0.22989,0.0528595,0.0813989,0.00202944,0,0,0,0,0,0,0,-1.64288,-27.5835,-1.78832,17.1875,1.81518,-0.672983,-0.0163725,
0.145917,-0.0144104,0.0378761,-1.95816,0.290893,0.366359,-0.0150939,0.124629,0.0228637,0.126375,-0.339479,0.577174,0.495788,0.00815868,0.834049,2.4512,0.821149,0.763282,-10.5041,-7.00315,0.444779,13.9775,0.907452,14.1402,-31.7655,5.85197,5.21857,0.0935441,0.144212,-0.0140641,0.037813,-1.95223,0.271146,0.350975,-0.0153891,0.0994937,0.125014,0.114716,-0.325878,-0.00799356,0.0214028,-0.00072901,1.86657,-0.488198,-4.47871,-11.9985,-7.60663,-7.49951,-0.344806,-4.20575,-27.7065,-4.01,22.5433,1.71722,0.586783,0.0980684,
0.145941,-0.0127812,0.0395762,-1.95849,0.276555,0.355439,-0.0153059,0.121813,0.0331677,0.123593,-0.349301,0.541605,0.460989,0.00799265,-1.76006,6.44,-1.73823,-6.13883,-22.2306,-21.7495,-0.103771,14.6678,0.617725,14.8331,-32.6717,7.24528,5.75021,0.0730201,0.144212,-0.0140641,0.037813,-1.95223,0.271146,0.350975,-0.0153891,0.0994937,0.125014,0.114716,-0.325878,-0.00799356,0.0214028,-0.00072901,0,0,0,0,0,0,0,-4.20575,-27.7065,-4.01,22.5433,1.71722,0.586783,0.0980684,
0.14687,-0.0122477,0.040519,-1.96146,0.280157,0.358352,-0.0152317,0.120666,0.0398731,0.122444,-0.353858,0.523344,0.441612,0.00824816,-0.716952,4.19092,-0.718479,-2.8484,-11.4136,-12.1107,0.159699,14.3287,0.76149,14.4949,-32.2183,6.44016,5.48451,0.0851302,0.144212,-0.0140641,0.037813,-1.95223,0.271146,0.350975,-0.0153891,0.0994937,0.125014,0.114716,-0.325878,-0.00799356,0.0214028,-0.00072901,0,0,0,0,0,0,0,-4.20575,-27.7065,-4.01,22.5433,1.71722,0.586783,0.0980684,
0.147842,-0.0117733,0.0415048,-1.9643,0.28376,0.361444,-0.0151449,0.120841,0.0437566,0.1226,-0.35409,0.508727,0.430585,0.0087682,0.109236,2.4272,0.0973688,-0.145119,-9.13565,-6.89149,0.325024,13.9775,0.907452,14.1402,-31.7655,5.85197,5.21857,0.0935441,0.144212,-0.0140641,0.037813,-1.95223,0.271146,0.350975,-0.0153891,0.0994937,0.125014,0.114716,-0.325878,-0.00799356,0.0214028,-0.00072901,0,0,0,0,0,0,0,-4.20575,-27.7065,-4.01,22.5433,1.71722,0.586783,0.0980684,
0.148851,-0.0113566,0.0425263,-1.96702,0.287124,0.364625,-0.0150432,0.121889,0.0454244,0.123618,-0.351264,0.491094,0.424003,0.00955871,0.654951,1.04236,0.636675,1.76616,-11.0201,-4.114,0.494068,13.6388,1.08033,13.7949,-31.2299,5.00347,5.05155,0.10269,0.147342,-0.01172,0.0418075,-1.96238,0.269903,0.349873,-0.0153779,0.0917862,0.176733,0.11022,-0.31676,-0.0563528,-0.0589716,0.00132336,-0.963444,6.46487,-0.561949,1.13976,-6.0449,-10.0468,0.256546,-3.77331,-24.2153,-3.66088,18.8339,0.825497,1.32287,-0.0026396,
0.149002,-0.0099771,0.0435007,-1.96873,0.274297,0.353506,-0.0152756,0.118794,0.0560703,0.120547,-0.360183,0.459916,0.393946,0.00929823,-1.93436,6.65367,-1.91977,-5.57429,-19.4864,-18.7855,-0.162801,14.3252,0.783601,14.4857,-32.1392,6.45256,5.55103,0.0848822,0.147342,-0.01172,0.0418075,-1.96238,0.269903,0.349873,-0.0153779,0.0917862,0.176733,0.11022,-0.31676,-0.0563528,-0.0589716,0.00132336,0,0,0,0,0,0,0,-3.77331,-24.2153,-3.66088,18.8339,0.825497,1.32287,-0.0026396,
0.149904,-0.00929416,0.0444163,-1.97175,0.277292,0.356073,-0.0151918,0.117582,0.0619297,0.119327,-0.363625,0.442814,0.37933,0.00953195,-0.757177,3.66216,-0.762246,-2.15129,-10.6886,-9.13495,0.146077,13.9741,0.929564,14.1309,-31.6865,5.86437,5.28509,0.0932961,0.147342,-0.01172,0.0418075,-1.96238,0.269903,0.349873,-0.0153779,0.0917862,0.176733,0.11022,-0.31676,-0.0563528,-0.0589716,0.00132336,0,0,0,0,0,0,0,-3.77331,-24.2153,-3.66088,18.8339,0.825497,1.32287,-0.0026396,
0.150852,-0.00870259,0.0453774,-1.97462,0.280242,0.358858,-0.0150913,0.117768,0.0643331,0.119487,-0.362616,0.428,0.373095,0.0101396,0.115916,1.5021,0.100152,0.630909,-9.25904,-3.8972,0.379784,13.6388,1.08033,13.7949,-31.2299,5.00347,5.05155,0.10269,0.147342,-0.01172,0.0418075,-1.96238,0.269903,0.349873,-0.0153779,0.0917862,0.176733,0.11022,-0.31676,-0.0563528,-0.0589716,0.00132336,0,0,0,0,0,0,0,-3.77331,-24.2153,-3.66088,18.8339,0.825497,1.32287,-0.0026396,
0.151828,-0.00819168,0.046365,-1.97736,0.283066,0.361747,-0.014993,0.118611,0.0642391,0.12028,-0.35859,0.413004,0.370701,0.0105676,0.527099,-0.0587678,0.495527,2.5164,-9.37233,-1.49602,0.267509,13.3037,1.26741,13.4465,-30.6903,4.16343,4.91108,0.11838,0.150244,-0.00770117,0.0458203,-1.97124,0.26851,0.347445,-0.0153925,0.084105,0.194856,0.124859,-0.29463,-0.0576395,-0.139967,0.000659301,-0.96014,2.26541,1.82989,2.76629,-0.16084,-10.1244,-0.0830074,-1.3374,-25.0127,-1.21306,16.9138,0.880428,1.6607,0.0907442,
0.151955,-0.00584619,0.0475631,-1.97752,0.272406,0.35035,-0.0152735,0.116808,0.0722142,0.118479,-0.365259,0.388791,0.343374,0.0103505,-1.12662,4.98445,-1.12586,-4.16862,-15.1332,-17.0797,-0.135695,13.9834,0.969483,14.1284,-31.5985,5.87812,5.35412,0.0929423,0.150244,-0.00770117,0.0458203,-1.97124,0.26851,0.347445,-0.0153925,0.084105,0.194856,0.124859,-0.29463,-0.0576395,-0.139967,0.000659301,0,0,0,0,0,0,0,-1.3374,-25.0127,-1.21306,16.9138,0.880428,1.6607,0.0907442,
0.152877,-0.00513062,0.0484977,-1.98051,0.27494,0.352657,-0.015176,0.1165,0.0756605,0.118147,-0.36699,0.37437,0.332373,0.0107181,-0.192977,2.15393,-0.207175,-1.08133,-9.01338,-6.87526,0.229745,13.6481,1.12025,13.7924,-31.1419,5.01722,5.12058,0.102336,0.150244,-0.00770117,0.0458203,-1.97124,0.26851,0.347445,-0.0153925,0.084105,0.194856,0.124859,-0.29463,-0.0576395,-0.139967,0.000659301,0,0,0,0,0,0,0,-1.3374,-25.0127,-1.21306,16.9138,0.880428,1.6607,0.0907442,
0.15383,-0.00451193,0.0494612,-1.98335,0.27749,0.3552,-0.0150791,0.117011,0.0759956,0.118607,-0.364685,0.363252,0.329494,0.0109966,0.319644,0.209484,0.287033,1.44043,-6.94889,-1.79957,0.174038,13.3037,1.26741,13.4465,-30.6903,4.16343,4.91108,0.11838,0.150244,-0.00770117,0.0458203,-1.97124,0.26851,0.347445,-0.0153925,0.084105,0.194856,0.124859,-0.29463,-0.0576395,-0.139967,0.000659301,0,0,0,0,0,0,0,-1.3374,-25.0127,-1.21306,16.9138,0.880428,1.6607,0.0907442,
0.154816,-0.00397677,0.0504585,-1.98604,0.279592,0.357854,-0.0149803,0.118261,0.0741755,0.119817,-0.359068,0.343165,0.329938,0.0112673,0.781073,-1.1376,0.756679,3.51076,-12.5543,0.277476,0.169217,12.8197,1.49511,12.9381,-30.1768,3.70626,4.72731,0.115288,0.152693,-0.00303658,0.0494355,-1.97995,0.268074,0.341879,-0.0153923,0.0753087,0.209051,0.126108,-0.310064,0.0145896,-0.273487,-0.000784901,-1.09955,1.77435,0.156088,-1.92921,9.02864,-16.69,-0.180525,2.51484,-27.032,2.36146,20.7501,0.752255,1.96557,0.0980684,
0.154424,-0.000984082,0.0511958,-1.98633,0.271734,0.343336,-0.0152373,0.116931,0.0824445,0.118475,-0.366674,0.326256,0.295114,0.011369,-0.831409,5.16813,-0.839034,-4.75403,-10.5683,-21.7648,0.0635664,13.6558,1.20754,13.785,-31.0503,5.02371,5.21389,0.101885,0.152693,-0.00303658,0.0494355,-1.97995,0.268074,0.341879,-0.0153923,0.0753087,0.209051,0.126108,-0.310064,0.0145896,-0.273487,-0.000784901,0,0,0,0,0,0,0,2.51484,-27.032,2.36146,20.7501,0.752255,1.96557,0.0980684,
0.155355,-0.000190432,0.0521368,-1.98935,0.273966,0.345138,-0.015141,0.116814,0.0857969,0.118306,-0.368849,0.316804,0.281139,0.0115025,-0.0729278,2.09523,-0.105626,-1.35908,-5.90706,-8.73429,0.0834262,13.3114,1.3547,13.4391,-30.5987,4.16992,5.00439,0.117929,0.152693,-0.00303658,0.0494355,-1.97995,0.268074,0.341879,-0.0153923,0.0753087,0.209051,0.126108,-0.310064,0.0145896,-0.273487,-0.000784901,0,0,0,0,0,0,0,2.51484,-27.032,2.36146,20.7501,0.752255,1.96557,0.0980684,
0.156325,0.000495921,0.0531175,-1.99219,0.275845,0.347256,-0.0150424,0.117706,0.0857963,0.119161,-0.366073,0.300398,0.277858,0.011666,0.557555,-0.000352544,0.534545,1.73469,-10.2541,-2.05066,0.102189,12.8197,1.49511,12.9381,-30.1768,3.70626,4.72731,0.115288,0.152693,-0.00303658,0.0494355,-1.97995,0.268074,0.341879,-0.0153923,0.0753087,0.209051,0.126108,-0.310064,0.0145896,-0.273487,-0.000784901,0,0,0,0,0,0,0,2.51484,-27.032,2.36146,20.7501,0.752255,1.96557,0.0980684,
0.154424,-0.000968148,0.0511949,-1.98624,0.271165,0.343107,-0.0152227,0.116363,0.0919121,0.117802,-0.3711,0.284668,0.249967,0.011639,-0.839502,3.82235,-0.849324,-3.14161,-9.83093,-17.4323,-0.0168966,13.3047,1.3328,13.4155,-30.4484,4.17522,5.0928,0.117378,0.155016,0.0018594,0.0532112,-1.98793,0.268048,0.335477,-0.0153893,0.078169,0.232438,0.145449,-0.266539,0.00127149,-0.20907,0.000593705,0.357535,2.92336,2.41759,5.44061,-1.66477,8.05211,0.172326,6.97803,-30.4042,6.76118,24.2612,1.40594,2.04522,0.0577852,
0.155359,-0.000169185,0.0521405,-1.98919,0.272738,0.344734,-0.015125,0.116456,0.0935037,0.117881,-0.370766,0.267047,0.240657,0.0117534,0.0585119,0.994793,0.0491277,0.208295,-11.0132,-5.81869,0.0715274,12.813,1.4732,12.9144,-30.0265,3.71157,4.81572,0.114737,0.155016,0.0018594,0.0532112,-1.98793,0.268048,0.335477,-0.0153893,0.078169,0.232438,0.145449,-0.266539,0.00127149,-0.20907,0.000593705,0,0,0,0,0,0,0,6.97803,-30.4042,6.76118,24.2612,1.40594,2.04522,0.0577852,
0.156331,0.000520438,0.0531229,-1.99197,0.273849,0.346669,-0.0150299,0.117466,0.0920436,0.118865,-0.366111,0.241418,0.240894,0.0117793,0.630677,-0.912605,0.615323,2.90979,-16.0185,0.148248,0.0162027,12.3807,1.68071,12.4884,-29.5499,2.18075,4.54731,0.109461,0.155016,0.0018594,0.0532112,-1.98793,0.268048,0.335477,-0.0153893,0.078169,0.232438,0.145449,-0.266539,0.00127149,-0.20907,0.000593705,0,0,0,0,0,0,0,6.97803,-30.4042,6.76118,24.2612,1.40594,2.04522,0.0577852,
0.157329,0.00111548,0.0541306,-1.9946,0.274409,0.348789,-0.0149386,0.118922,0.0885108,0.120285,-0.358619,0.207128,0.245729,0.011708,0.910395,-2.20797,0.887431,4.68211,-21.4311,3.0217,-0.044563,12.0557,1.89045,12.1633,-29.0413,0.973805,4.28288,0.103222,0.155016,0.0018594,0.0532112,-1.98793,0.268048,0.335477,-0.0153893,0.078169,0.232438,0.145449,-0.266539,0.00127149,-0.20907,0.000593705,0,0,0,0,0,0,0,6.97803,-30.4042,6.76118,24.2612,1.40594,2.04522,0.0577852,
0.156847,0.00400504,0.0550688,-1.99391,0.270504,0.337371,-0.0152272,0.118509,0.0944861,0.119849,-0.3617,0.19717,0.230593,0.011649,-0.257916,3.73457,-0.272355,-1.92529,-6.22382,-9.45991,-0.036909,12.807,1.47914,12.8914,-29.9197,3.714,4.89051,0.114356,0.157862,0.00648165,0.0570269,-1.994,0.267475,0.328781,-0.0153847,0.0889733,0.24868,0.121116,-0.220387,-0.0183479,-0.257951,0.000987651,1.35055,2.03024,-3.04154,5.76893,-2.45243,-6.11014,0.0492433,4.2406,-31.7253,4.16261,26.5543,1.47277,2.13769,0.017502,
0.157815,0.0048005,0.0560462,-1.99676,0.271423,0.339139,-0.0151346,0.119009,0.0954752,0.120315,-0.360396,0.180721,0.228667,0.0116355,0.312461,0.618184,0.291264,0.814619,-10.2801,-1.2037,-0.00842777,12.3747,1.68664,12.4653,-29.4431,2.18319,4.6221,0.109081,0.157862,0.00648165,0.0570269,-1.994,0.267475,0.328781,-0.0153847,0.0889733,0.24868,0.121116,-0.220387,-0.0183479,-0.257951,0.000987651,0,0,0,0,0,0,0,4.2406,-31.7253,4.16261,26.5543,1.47277,2.13769,0.017502,
0.158808,0.00547874,0.0570477,-1.99944,0.271859,0.341142,-0.0150444,0.120027,0.0933363,0.121288,-0.355431,0.155472,0.233017,0.0115627,0.635861,-1.33685,0.608081,3.1032,-15.7809,2.71858,-0.04548,12.0496,1.89638,12.1403,-28.9345,0.97624,4.35766,0.102841,0.157862,0.00648165,0.0570269,-1.994,0.267475,0.328781,-0.0153847,0.0889733,0.24868,0.121116,-0.220387,-0.0183479,-0.257951,0.000987651,0,0,0,0,0,0,0,4.2406,-31.7253,4.16261,26.5543,1.47277,2.13769,0.017502,
0.159642,0.00864294,0.0588295,-1.99972,0.268708,0.330446,-0.0152253,0.118842,0.0982181,0.120076,-0.3566,0.138663,0.218217,0.0114521,-0.740606,3.05116,-0.757971,-0.730571,-10.5057,-9.24962,-0.069132,12.3747,1.68664,12.4653,-29.4431,2.18319,4.6221,0.109081,0.157862,0.00648165,0.0570269,-1.994,0.267475,0.328781,-0.0153847,0.0889733,0.24868,0.121116,-0.220387,-0.0183479,-0.257951,0.000987651,0,0,0,0,0,0,0,4.2406,-31.7253,4.16261,26.5543,1.47277,2.13769,0.017502,
0.160591,0.00942844,0.059786,-2.00248,0.26891,0.332138,-0.0151362,0.118786,0.098212,0.119972,-0.354352,0.115988,0.216877,0.0113915,-0.0351414,-0.00381662,-0.0645097,1.40498,-14.1719,-0.837496,-0.0378666,12.0452,1.78216,12.1211,-28.8154,0.969659,4.41143,0.10235,0.16054,0.0102404,0.0601639,-2.00156,0.266811,0.323761,-0.0153804,0.0679979,0.125911,0.0919146,-0.259624,-0.0771266,-0.00225324,0.0015395,-2.62192,-15.3462,-3.65022,-4.90463,-7.34733,31.9623,0.0689809,-2.30145,-43.7065,-2.16124,40.6024,1.87652,4.45855,-0.0227812,
0.161564,0.0100971,0.0607669,-2.0051,0.268663,0.334074,-0.0150487,0.119375,0.0952862,0.120501,-0.348975,0.0866175,0.221878,0.0112984,0.368408,-1.82866,0.330603,3.36095,-18.3565,3.12551,-0.0582255,11.8387,1.94256,11.912,-28.2998,-0.0201321,4.17357,0.0980892,0.16054,0.0102404,0.0601639,-2.00156,0.266811,0.323761,-0.0153804,0.0679979,0.125911,0.0919146,-0.259624,-0.0771266,-0.00225324,0.0015395,0,0,0,0,0,0,0,-2.30145,-43.7065,-2.16124,40.6024,1.87652,4.45855,-0.0227812,
0.162555,0.0106701,0.0617633,-2.00759,0.267967,0.33616,-0.0149628,0.120255,0.0905527,0.121311,-0.341534,0.0518906,0.229654,0.0111864,0.550209,-2.9584,0.505805,4.65026,-21.7043,4.86029,-0.0700085,11.7271,2.03504,11.7963,-27.7919,-0.832104,3.96754,0.0958327,0.16054,0.0102404,0.0601639,-2.00156,0.266811,0.323761,-0.0153804,0.0679979,0.125911,0.0919146,-0.259624,-0.0771266,-0.00225324,0.0015395,0,0,0,0,0,0,0,-2.30145,-43.7065,-2.16124,40.6024,1.87652,4.45855,-0.0227812,
0.162033,0.0114475,0.0616777,-2.00674,0.266445,0.327223,-0.0152169,0.115774,0.0861259,0.116831,-0.338003,0.0356954,0.233892,0.0111108,-2.80103,-2.76675,-2.79979,2.20718,-10.122,2.64876,-0.0471983,12.0452,1.78216,12.1211,-28.8154,0.969659,4.41143,0.10235,0.16054,0.0102404,0.0601639,-2.00156,0.266811,0.323761,-0.0153804,0.0679979,0.125911,0.0919146,-0.259624,-0.0771266,-0.00225324,0.0015395,0,0,0,0,0,0,0,-2.30145,-43.7065,-2.16124,40.6024,1.87652,4.45855,-0.0227812,
0.162873,0.0119306,0.0625244,-2.00923,0.265914,0.329485,-0.0151301,0.113599,0.080979,0.114632,-0.332751,0.0152822,0.243658,0.0110581,-1.35951,-3.21681,-1.37424,3.28263,-12.7583,6.10338,-0.0329927,11.8387,1.94256,11.912,-28.2998,-0.0201321,4.17357,0.0980892,0.16054,0.0102404,0.0601639,-2.00156,0.266811,0.323761,-0.0153804,0.0679979,0.125911,0.0919146,-0.259624,-0.0771266,-0.00225324,0.0015395,0,0,0,0,0,0,0,-2.30145,-43.7065,-2.16124,40.6024,1.87652,4.45855,-0.0227812,
0.163754,0.0123608,0.0634125,-2.01163,0.265026,0.331876,-0.0150443,0.112917,0.0755383,0.113907,-0.326047,-0.00996653,0.254701,0.0109938,-0.42595,-3.40044,-0.453204,4.18962,-15.7805,6.90189,-0.0401875,11.7187,2.0583,11.7705,-27.6935,-0.822266,4.02298,0.0955743,0.162357,0.0144872,0.0637636,-2.00875,0.2641,0.323162,-0.0153813,0.0196857,0.179453,0.0950784,-0.213771,-0.10694,-0.0345628,0.00152331,-6.03904,6.69279,0.395473,5.73163,-3.72669,-4.03869,-0.00202371,-1.26202,-32.1498,-1.10991,29.1211,1.62567,2.57531,0.017502,
0.164666,0.0127434,0.0643299,-2.01394,0.263789,0.334329,-0.0149593,0.113132,0.0699965,0.114062,-0.318521,-0.0389154,0.26509,0.0109198,0.134296,-3.46367,0.0967174,4.70397,-18.093,6.49295,-0.0462282,11.6737,2.08366,11.7207,-27.1991,-1.47833,3.84532,0.0951685,0.162357,0.0144872,0.0637636,-2.00875,0.2641,0.323162,-0.0153813,0.0196857,0.179453,0.0950784,-0.213771,-0.10694,-0.0345628,0.00152331,0,0,0,0,0,0,0,-1.26202,-32.1498,-1.10991,29.1211,1.62567,2.57531,0.017502,
0.163609,0.0160498,0.0650423,-2.01379,0.2627,0.326587,-0.0152165,0.107488,0.0730779,0.108455,-0.318632,-0.0512704,0.261939,0.0109275,-3.52718,1.92589,-3.50451,-0.0695438,-7.7219,-1.9692,0.0048253,11.8302,1.96582,11.8861,-28.2014,-0.0102933,4.22901,0.0978309,0.162357,0.0144872,0.0637636,-2.00875,0.2641,0.323162,-0.0153813,0.0196857,0.179453,0.0950784,-0.213771,-0.10694,-0.0345628,0.00152331,0,0,0,0,0,0,0,-1.26202,-32.1498,-1.10991,29.1211,1.62567,2.57531,0.017502,
0.164367,0.0166254,0.0658074,-2.01626,0.26158,0.328817,-0.0151285,0.104941,0.0728525,0.10589,-0.316683,-0.0690188,0.265309,0.0109425,-1.59192,-0.140842,-1.60304,1.21801,-11.0927,2.10654,0.00935565,11.7187,2.0583,11.7705,-27.6935,-0.822266,4.02298,0.0955743,0.162357,0.0144872,0.0637636,-2.00875,0.2641,0.323162,-0.0153813,0.0196857,0.179453,0.0950784,-0.213771,-0.10694,-0.0345628,0.00152331,0,0,0,0,0,0,0,-1.26202,-32.1498,-1.10991,29.1211,1.62567,2.57531,0.017502,
0.165183,0.0171214,0.0666289,-2.01864,0.260146,0.331161,-0.0150418,0.104355,0.0706821,0.105251,-0.312726,-0.0910659,0.270854,0.0109229,-0.366664,-1.35654,-0.399525,2.47317,-13.7794,3.46562,-0.0122222,11.6722,2.01112,11.7084,-27.1454,-1.46284,3.85658,0.0950032,0.163596,0.0169337,0.0673355,-2.01483,0.25913,0.323831,-0.015393,0.0317332,0.0947684,0.0526819,-0.15306,-0.199609,0.0450991,-0.000768867,1.50594,-10.5856,-5.29957,7.58886,-11.5837,9.95774,-0.286522,-6.81622,-42.8337,-6.33483,29.8907,0.984799,2.81426,0.0907442,
0.164667,0.0175709,0.0684284,-2.01916,0.256525,0.328368,-0.0152339,0.09838,0.0635183,0.0993161,-0.305963,-0.106883,0.279587,0.0108828,-3.73416,-4.47737,-3.70903,4.22715,-9.88551,5.45775,-0.0250873,11.7172,1.98575,11.7582,-27.6398,-0.806772,4.03424,0.095409,0.163596,0.0169337,0.0673355,-2.01483,0.25913,0.323831,-0.015393,0.0317332,0.0947684,0.0526819,-0.15306,-0.199609,0.0450991,-0.000768867,0,0,0,0,0,0,0,-6.81622,-42.8337,-6.33483,29.8907,0.984799,2.81426,0.0907442,
0.165355,0.0178303,0.069123,-2.02137,0.25494,0.331044,-0.015147,0.0958986,0.0572997,0.0968168,-0.3,-0.125115,0.290569,0.0108804,-1.55085,-3.88662,-1.56203,3.72651,-11.3954,6.86418,-0.0015182,11.6722,2.01112,11.7084,-27.1454,-1.46284,3.85658,0.0950032,0.163596,0.0169337,0.0673355,-2.01483,0.25913,0.323831,-0.015393,0.0317332,0.0947684,0.0526819,-0.15306,-0.199609,0.0450991,-0.000768867,0,0,0,0,0,0,0,-6.81622,-42.8337,-6.33483,29.8907,0.984799,2.81426,0.0907442,
0.166112,0.0180771,0.0698847,-2.02353,0.253129,0.333761,-0.0150605,0.0956336,0.0520102,0.0964966,-0.29402,-0.14537,0.300363,0.0108665,-0.165618,-3.30592,-0.200154,3.73789,-12.6593,6.12124,-0.00865252,11.668,1.97892,11.6988,-26.6665,-1.97345,3.7041,0.0955005,0.163596,0.0169337,0.0673355,-2.01483,0.25913,0.323831,-0.015393,0.0317332,0.0947684,0.0526819,-0.15306,-0.199609,0.0450991,-0.000768867,0,0,0,0,0,0,0,-6.81622,-42.8337,-6.33483,29.8907,0.984799,2.81426,0.0907442,
0.166919,0.0183098,0.0706956,-2.02564,0.251124,0.336465,-0.0149748,0.0966869,0.0474253,0.0974696,-0.28804,-0.166424,0.307892,0.0108362,0.658261,-2.86555,0.608117,3.73761,-13.1585,4.70508,-0.0189254,11.6866,1.92399,11.7009,-26.1491,-2.33069,3.59117,0.0967214,0.165091,0.0194639,0.0700356,-2.01929,0.252274,0.325581,-0.0153945,0.0445116,0.106398,0.0390725,-0.144687,-0.240707,0.0225043,-0.00162232,1.5973,1.45372,-1.70117,1.04667,-5.13714,-2.82435,-0.106681,-6.94317,-28.6308,-6.56096,19.9289,0.740353,1.81267,0.104477,
0.166162,0.0201954,0.0711246,-2.02355,0.248876,0.329827,-0.015235,0.0922262,0.0458528,0.0930479,-0.285547,-0.17705,0.305727,0.0108196,-2.78789,-0.982858,-2.76357,1.5581,-6.64148,-1.35272,-0.0104085,11.6733,2.03332,11.6986,-27.0924,-1.43557,3.87504,0.0948746,0.165091,0.0194639,0.0700356,-2.01929,0.252274,0.325581,-0.0153945,0.0445116,0.106398,0.0390725,-0.144687,-0.240707,0.0225043,-0.00162232,0,0,0,0,0,0,0,-6.94317,-28.6308,-6.56096,19.9289,0.740353,1.81267,0.104477,
0.166848,0.0204807,0.0718159,-2.02574,0.246937,0.332373,-0.0151476,0.0909241,0.0438145,0.0917211,-0.283098,-0.19013,0.308237,0.0108402,-0.813802,-1.27389,-0.829228,1.53043,-8.17502,1.5686,0.0129214,11.6691,2.00112,11.6889,-26.6135,-1.94618,3.72255,0.0953719,0.165091,0.0194639,0.0700356,-2.01929,0.252274,0.325581,-0.0153945,0.0445116,0.106398,0.0390725,-0.144687,-0.240707,0.0225043,-0.00162232,0,0,0,0,0,0,0,-6.94317,-28.6308,-6.56096,19.9289,0.740353,1.81267,0.104477,
0.167601,0.0207456,0.0725725,-2.02788,0.244831,0.334971,-0.0150609,0.0915613,0.0416734,0.0922932,-0.279968,-0.204745,0.311523,0.0108388,0.3982,-1.33825,0.357526,1.95594,-9.13406,2.05402,-0.000925239,11.6866,1.92399,11.7009,-26.1491,-2.33069,3.59117,0.0967214,0.165091,0.0194639,0.0700356,-2.01929,0.252274,0.325581,-0.0153945,0.0445116,0.106398,0.0390725,-0.144687,-0.240707,0.0225043,-0.00162232,0,0,0,0,0,0,0,-6.94317,-28.6308,-6.56096,19.9289,0.740353,1.81267,0.104477,
0.167945,0.0192762,0.0734825,-2.02803,0.241806,0.331155,-0.0152249,0.0918632,0.0292299,0.0925982,-0.273097,-0.204659,0.30773,0.0108235,0.188727,-7.77719,0.19065,4.29498,0.0536435,-2.3708,-0.00951393,11.6881,1.92862,11.7061,-26.568,-1.91718,3.72697,0.0951871,0.166544,0.0197144,0.0720636,-2.02419,0.244868,0.327001,-0.0153901,0.0487256,-0.0365258,0.0882285,-0.174878,-0.174563,0.0601514,-0.000872222,0.526751,-17.8655,6.14451,-3.77382,8.26792,4.70589,0.0937621,5.55774,-34.8952,5.66224,25.733,0.93536,2.64214,0.0641939,
0.16875,0.0192041,0.0742919,-2.03,0.239962,0.333721,-0.0151389,0.0936265,0.0215829,0.0943148,-0.267748,-0.209836,0.31033,0.01081,1.10204,-4.77934,1.07285,3.34308,-3.23546,1.62496,-0.00848718,11.7056,1.85149,11.7181,-26.1036,-2.30168,3.59558,0.0965366,0.166544,0.0197144,0.0720636,-2.02419,0.244868,0.327001,-0.0153901,0.0487256,-0.0365258,0.0882285,-0.174878,-0.174563,0.0601514,-0.000872222,0,0,0,0,0,0,0,5.55774,-34.8952,5.66224,25.733,0.93536,2.64214,0.0641939,
0.169598,0.0191958,0.0751417,-2.03196,0.237948,0.336373,-0.0150534,0.0960834,0.0170583,0.0966967,-0.263145,-0.21823,0.314564,0.0107841,1.53559,-2.82788,1.48874,2.87687,-5.24656,2.64599,-0.0161816,11.729,1.74196,11.7358,-25.6523,-2.56957,3.48209,0.0979215,0.166544,0.0197144,0.0720636,-2.02419,0.244868,0.327001,-0.0153901,0.0487256,-0.0365258,0.0882285,-0.174878,-0.174563,0.0601514,-0.000872222,0,0,0,0,0,0,0,5.55774,-34.8952,5.66224,25.733,0.93536,2.64214,0.0641939,
0.170473,0.0192286,0.0760183,-2.0339,0.235814,0.339038,-0.0149687,0.0987487,0.0144673,0.0992708,-0.25903,-0.227918,0.318283,0.0107449,1.66578,-1.61936,1.60878,2.57167,-6.05518,2.32482,-0.024464,11.749,1.61162,11.7502,-25.2118,-2.74136,3.38398,0.0995465,0.166544,0.0197144,0.0720636,-2.02419,0.244868,0.327001,-0.0153901,0.0487256,-0.0365258,0.0882285,-0.174878,-0.174563,0.0601514,-0.000872222,0,0,0,0,0,0,0,5.55774,-34.8952,5.66224,25.733,0.93536,2.64214,0.0641939,
0.167956,0.019281,0.0734935,-2.02796,0.241512,0.33102,-0.01522,0.0977611,0.00747345,0.0983188,-0.255468,-0.227297,0.311278,0.0107891,-0.617243,-4.37118,-0.594986,2.22615,0.388516,-4.3784,0.0276248,11.7064,1.82838,11.7143,-26.0416,-2.28021,3.62231,0.0963551,0.168217,0.0206409,0.0742634,-2.02962,0.240834,0.328858,-0.0153857,0.0593165,-0.00704934,0.0968694,-0.181153,-0.0615576,0.0410004,-0.00087027,1.32387,3.68456,1.08012,-0.784366,14.1257,-2.39389,0.000243964,6.44641,-34.4707,6.41206,30.7635,1.8399,2.84722,0.0239107,
0.168766,0.0192055,0.0743067,-2.0299,0.239515,0.33351,-0.0151329,0.0984524,0.0040914,0.0989852,-0.252827,-0.231746,0.311253,0.0108081,0.432052,-2.11378,0.4165,1.65051,-2.78054,-0.0155688,0.0118445,11.7299,1.71884,11.732,-25.5904,-2.5481,3.50883,0.0977399,0.168217,0.0206409,0.0742634,-2.02962,0.240834,0.328858,-0.0153857,0.0593165,-0.00704934,0.0968694,-0.181153,-0.0615576,0.0410004,-0.00087027,0,0,0,0,0,0,0,6.44641,-34.4707,6.41206,30.7635,1.8399,2.84722,0.0239107,
0.169615,0.0191914,0.0751577,-2.03183,0.237384,0.336087,-0.0150471,0.0999915,0.00292035,0.100465,-0.250454,-0.238688,0.313435,0.010792,0.961923,-0.731907,0.924748,1.48331,-4.33915,1.36406,-0.0100384,11.7498,1.5885,11.7464,-25.1498,-2.71989,3.41071,0.0993649,0.168217,0.0206409,0.0742634,-2.02962,0.240834,0.328858,-0.0153857,0.0593165,-0.00704934,0.0968694,-0.181153,-0.0615576,0.0410004,-0.00087027,0,0,0,0,0,0,0,6.44641,-34.4707,6.41206,30.7635,1.8399,2.84722,0.0239107,
0.17049,0.0192173,0.0760331,-2.03374,0.235175,0.338682,-0.0149622,0.101862,0.00298258,0.102257,-0.248164,-0.246165,0.315611,0.0107572,1.16898,0.0388936,1.11987,1.43133,-4.67273,1.35941,-0.0217613,11.7579,1.44683,11.749,-24.7182,-2.80456,3.32534,0.10061,0.168217,0.0206409,0.0742634,-2.02962,0.240834,0.328858,-0.0153857,0.0593165,-0.00704934,0.0968694,-0.181153,-0.0615576,0.0410004,-0.00087027,0,0,0,0,0,0,0,6.44641,-34.4707,6.41206,30.7635,1.8399,2.84722,0.0239107,
0.169776,0.0204835,0.0758403,-2.03343,0.238196,0.332497,-0.0152053,0.102,0.00109806,0.102439,-0.247244,-0.235704,0.304343,0.010892,0.0861563,-1.17782,0.114206,0.574954,6.53812,-7.04233,0.0842204,11.709,1.67796,11.7094,-25.5511,-2.54591,3.52648,0.0976443,0.170745,0.0207427,0.0769974,-2.03401,0.240534,0.33044,-0.0153962,0.0780053,0.0815835,0.0739748,-0.116809,-0.025308,0.0618656,0.000145656,2.3361,11.0791,-2.86182,8.04288,4.5312,2.60816,0.126991,1.50318,-38.5411,1.46089,29.1211,1.91864,1.85937,0.0907442,
0.170645,0.0204858,0.0767113,-2.03538,0.236341,0.334805,-0.0151166,0.103316,0.000935772,0.103726,-0.246534,-0.234939,0.301161,0.010931,0.822797,-0.101429,0.804151,0.443846,0.478052,-1.98864,0.0244214,11.7289,1.54762,11.7237,-25.1106,-2.71769,3.42836,0.0992693,0.170745,0.0207427,0.0769974,-2.03401,0.240534,0.33044,-0.0153962,0.0780053,0.0815835,0.0739748,-0.116809,-0.025308,0.0618656,0.000145656,0,0,0,0,0,0,0,1.50318,-38.5411,1.46089,29.1211,1.91864,1.85937,0.0907442,
0.171542,0.0205258,0.0776085,-2.03732,0.234307,0.337217,-0.0150301,0.10507,0.00174878,0.105412,-0.24554,-0.238812,0.301227,0.0109083,1.09632,0.508132,1.05362,0.621119,-2.421,0.0410296,-0.0142192,11.737,1.40595,11.7263,-24.679,-2.80236,3.343,0.100514,0.170745,0.0207427,0.0769974,-2.03401,0.240534,0.33044,-0.0153962,0.0780053,0.0815835,0.0739748,-0.116809,-0.025308,0.0618656,0.000145656,0,0,0,0,0,0,0,1.50318,-38.5411,1.46089,29.1211,1.91864,1.85937,0.0907442,
0.172453,0.0205894,0.0785194,-2.03923,0.232186,0.339665,-0.0149453,0.106847,0.00298983,0.107101,-0.244204,-0.244067,0.30218,0.010847,1.11073,0.775655,1.05606,0.834958,-3.28422,0.595939,-0.0383146,11.7296,1.26094,11.7137,-24.2541,-2.81935,3.26891,0.101713,0.170745,0.0207427,0.0769974,-2.03401,0.240534,0.33044,-0.0153962,0.0780053,0.0815835,0.0739748,-0.116809,-0.025308,0.0618656,0.000145656,0,0,0,0,0,0,0,1.50318,-38.5411,1.46089,29.1211,1.91864,1.85937,0.0907442,
0.17228,0.0211578,0.0785468,-2.0377,0.238159,0.334667,-0.0152156,0.10569,0.00643546,0.106014,-0.243591,-0.23202,0.299659,0.0109936,-0.723391,2.15352,-0.679574,0.383389,7.52978,-1.57554,0.0916085,11.7456,1.51199,11.7375,-25.0854,-2.70761,3.4351,0.0992127,0.173606,0.0210417,0.079746,-2.03785,0.239363,0.331894,-0.0153944,0.097115,0.00766808,0.0829418,-0.12342,-0.0757195,0.0289434,-0.000225817,2.38872,-9.23943,1.12086,-0.826282,-6.30144,-4.11528,-0.0464341,-4.53503,-33.2964,-4.18456,28.9188,1.8518,2.19811,0.0641939,
0.173138,0.0212965,0.0794064,-2.03964,0.236334,0.337106,-0.0151256,0.105996,0.00861664,0.1063,-0.243531,-0.231245,0.300721,0.0110448,0.191313,1.36324,0.178917,0.0369654,0.484077,0.663418,0.0320041,11.7537,1.37032,11.7401,-24.6538,-2.79228,3.34973,0.100457,0.173606,0.0210417,0.079746,-2.03785,0.239363,0.331894,-0.0153944,0.097115,0.00766808,0.0829418,-0.12342,-0.0757195,0.0289434,-0.000225817,0,0,0,0,0,0,0,-4.53503,-33.2964,-4.18456,28.9188,1.8518,2.19811,0.0641939,
0.174024,0.0214266,0.080292,-2.04157,0.234319,0.339573,-0.0150385,0.106943,0.0101459,0.107182,-0.243054,-0.235365,0.302257,0.0110128,0.592076,0.955767,0.550676,0.298709,-2.57485,0.959892,-0.0199947,11.7463,1.22531,11.7275,-24.2288,-2.80927,3.27564,0.101657,0.173606,0.0210417,0.079746,-2.03785,0.239363,0.331894,-0.0153944,0.097115,0.00766808,0.0829418,-0.12342,-0.0757195,0.0289434,-0.000225817,0,0,0,0,0,0,0,-4.53503,-33.2964,-4.18456,28.9188,1.8518,2.19811,0.0641939,
0.175291,0.0208335,0.0814392,-2.04134,0.236668,0.335696,-0.0152179,0.107348,0.00579252,0.107611,-0.239872,-0.227315,0.295547,0.0110691,0.252749,-2.72084,0.268387,1.98823,5.03104,-4.19322,0.0352168,11.7537,1.37032,11.7401,-24.6538,-2.79228,3.34973,0.100457,0.173606,0.0210417,0.079746,-2.03785,0.239363,0.331894,-0.0153944,0.097115,0.00766808,0.0829418,-0.12342,-0.0757195,0.0289434,-0.000225817,0,0,0,0,0,0,0,-4.53503,-33.2964,-4.18456,28.9188,1.8518,2.19811,0.0641939,
0.176195,0.0207873,0.0823437,-2.04318,0.234848,0.338042,-0.0151301,0.108481,0.00348014,0.108701,-0.237993,-0.227357,0.295094,0.0110523,0.708192,-1.44524,0.681398,1.17452,-0.0262514,-0.283278,-0.0104917,11.7463,1.22531,11.7275,-24.2288,-2.80927,3.27564,0.101657,0.173606,0.0210417,0.079746,-2.03785,0.239363,0.331894,-0.0153944,0.097115,0.00766808,0.0829418,-0.12342,-0.0757195,0.0289434,-0.000225817,0,0,0,0,0,0,0,-4.53503,-33.2964,-4.18456,28.9188,1.8518,2.19811,0.0641939,
0.177114,0.0207794,0.0832618,-2.04502,0.2329,0.340463,-0.0150446,0.10977,0.00258577,0.109914,-0.236373,-0.230584,0.296597,0.0109788,0.805415,-0.558986,0.758321,1.01235,-2.01654,0.939203,-0.0459528,11.7243,1.04055,11.696,-23.7679,-2.75642,3.23078,0.102182,0.176109,0.0217053,0.0828007,-2.04211,0.237707,0.332127,-0.0153841,0.0646808,-0.0182595,0.074216,-0.151349,-0.0529844,-0.0133859,0.00111415,-4.05428,-3.24094,-1.09072,-3.49115,2.84189,-5.29116,0.167496,-4.45569,-31.8007,-4.03777,29.4186,2.04132,3.23174,0.0101778,
0.178039,0.0207981,0.0841835,-2.04684,0.230918,0.3429,-0.0149611,0.110919,0.00253613,0.110975,-0.234722,-0.23402,0.298206,0.0108689,0.71828,-0.0310234,0.662596,1.03215,-2.1478,1.00586,-0.0687181,11.6779,0.90483,11.6449,-23.3517,-2.66975,3.17403,0.102667,0.176109,0.0217053,0.0828007,-2.04211,0.237707,0.332127,-0.0153841,0.0646808,-0.0182595,0.074216,-0.151349,-0.0529844,-0.0133859,0.00111415,0,0,0,0,0,0,0,-4.45569,-31.8007,-4.03777,29.4186,2.04132,3.23174,0.0101778,
0.177592,0.0213672,0.0842971,-2.04563,0.234992,0.335313,-0.0151943,0.108417,-0.00139778,0.108557,-0.233087,-0.22695,0.285727,0.011059,-1.5635,-2.45869,-1.51102,1.02173,4.4187,-7.79954,0.11882,11.7511,1.1832,11.7277,-24.1876,-2.79972,3.29574,0.101535,0.176109,0.0217053,0.0828007,-2.04211,0.237707,0.332127,-0.0153841,0.0646808,-0.0182595,0.074216,-0.151349,-0.0529844,-0.0133859,0.00111415,0,0,0,0,0,0,0,-4.45569,-31.8007,-4.03777,29.4186,2.04132,3.23174,0.0101778,
0.178433,0.021295,0.0851382,-2.04746,0.233153,0.337475,-0.0151043,0.107744,-0.00292323,0.107873,-0.232152,-0.227526,0.282643,0.0110975,-0.4209,-0.953408,-0.427306,0.584729,-0.359688,-1.92721,0.0240898,11.7243,1.04055,11.696,-23.7679,-2.75642,3.23078,0.102182,0.176109,0.0217053,0.0828007,-2.04211,0.237707,0.332127,-0.0153841,0.0646808,-0.0182595,0.074216,-0.151349,-0.0529844,-0.0133859,0.00111415,0,0,0,0,0,0,0,-4.45569,-31.8007,-4.03777,29.4186,2.04132,3.23174,0.0101778,
0.179302,0.0212703,0.0860066,-2.04928,0.231214,0.339769,-0.0150181,0.107936,-0.00295654,0.108007,-0.231175,-0.230499,0.283457,0.0110343,0.11981,-0.0208204,0.0835761,0.610086,-1.85815,0.50821,-0.0395102,11.6757,0.865774,11.6367,-23.2922,-2.66303,3.20015,0.102503,0.178475,0.0226697,0.0858536,-2.04706,0.23697,0.333032,-0.0153933,0.0760849,-0.0274907,0.0947669,-0.121198,-0.00254335,0.0179353,-0.00148491,1.42551,-1.1539,2.56886,3.76891,6.30513,3.91515,-0.324882,-0.198788,-39.8106,0.112013,29.0457,1.44256,3.05321,0.0641939,
0.180186,0.0212774,0.086888,-2.05108,0.22927,0.342117,-0.0149345,0.108449,-0.00218855,0.108441,-0.229969,-0.23299,0.285474,0.0109175,0.320921,0.479992,0.270994,0.753948,-1.55736,1.26088,-0.0729795,11.6083,0.739699,11.565,-22.8787,-2.53837,3.14989,0.102424,0.178475,0.0226697,0.0858536,-2.04706,0.23697,0.333032,-0.0153933,0.0760849,-0.0274907,0.0947669,-0.121198,-0.00254335,0.0179353,-0.00148491,0,0,0,0,0,0,0,-0.198788,-39.8106,0.112013,29.0457,1.44256,3.05321,0.0641939,
0.180132,0.0221507,0.0875216,-2.05031,0.23489,0.336636,-0.0152081,0.108331,-0.00737347,0.108382,-0.226393,-0.218815,0.28013,0.0110596,-0.0739595,-3.24057,-0.0369145,2.23487,8.85948,-3.33969,0.0888276,11.7221,1.00149,11.6877,-23.7083,-2.74971,3.25691,0.102018,0.178475,0.0226697,0.0858536,-2.04706,0.23697,0.333032,-0.0153933,0.0760849,-0.0274907,0.0947669,-0.121198,-0.00254335,0.0179353,-0.00148491,0,0,0,0,0,0,0,-0.198788,-39.8106,0.112013,29.0457,1.44256,3.05321,0.0641939,
0.181029,0.0220013,0.0884184,-2.05204,0.233311,0.338936,-0.0151197,0.109102,-0.00963512,0.109125,-0.224393,-0.214521,0.281604,0.0110587,0.481855,-1.41353,0.464343,1.25029,2.68385,0.920879,-0.000582908,11.6757,0.865774,11.6367,-23.2922,-2.66303,3.20015,0.102503,0.178475,0.0226697,0.0858536,-2.04706,0.23697,0.333032,-0.0153933,0.0760849,-0.0274907,0.0947669,-0.121198,-0.00254335,0.0179353,-0.00148491,0,0,0,0,0,0,0,-0.198788,-39.8106,0.112013,29.0457,1.44256,3.05321,0.0641939,
0.181941,0.0219103,0.0893278,-2.05377,0.23161,0.341332,-0.0150349,0.11008,-0.00998324,0.110035,-0.222896,-0.214137,0.285176,0.0109666,0.611797,-0.21758,0.568862,0.935829,0.239882,2.23286,-0.0575894,11.608,0.712292,11.5582,-22.8333,-2.53418,3.17054,0.102314,0.180822,0.0237089,0.0888049,-2.05142,0.236961,0.333883,-0.0153921,0.0730618,-0.0349163,0.0951127,-0.119298,-0.0189362,0.0267953,-0.000827583,-0.377886,-0.928208,0.0432204,0.237421,-2.0491,1.1075,0.0821655,1.90784,-36.7915,2.33766,23.3923,1.38122,1.91247,0.050461,
0.182856,0.0218611,0.0902386,-2.0555,0.229892,0.343756,-0.0149529,0.110929,-0.00921679,0.110798,-0.22152,-0.214281,0.288744,0.0108216,0.530354,0.479033,0.477009,0.859647,-0.089896,2.22956,-0.0906304,11.5212,0.597906,11.4674,-22.4213,-2.38542,3.12604,0.102044,0.180822,0.0237089,0.0888049,-2.05142,0.236961,0.333883,-0.0153921,0.0730618,-0.0349163,0.0951127,-0.119298,-0.0189362,0.0267953,-0.000827583,0,0,0,0,0,0,0,1.90784,-36.7915,2.33766,23.3923,1.38122,1.91247,0.050461,
0.182452,0.0231249,0.0904446,-2.05459,0.234832,0.337525,-0.0152084,0.109967,-0.0136918,0.109897,-0.218572,-0.203698,0.283037,0.0109578,-0.601493,-2.79691,-0.562964,1.84287,6.61427,-3.56658,0.0851673,11.6754,0.838367,11.6299,-23.2469,-2.65884,3.22081,0.102394,0.180822,0.0237089,0.0888049,-2.05142,0.236961,0.333883,-0.0153921,0.0730618,-0.0349163,0.0951127,-0.119298,-0.0189362,0.0267953,-0.000827583,0,0,0,0,0,0,0,1.90784,-36.7915,2.33766,23.3923,1.38122,1.91247,0.050461,
0.183335,0.0229529,0.0913261,-2.05628,0.233304,0.339831,-0.0151209,0.11005,-0.0152518,0.109955,-0.217093,-0.201152,0.284071,0.0109535,0.052132,-0.974981,0.0364117,0.924103,1.59173,0.645839,-0.00270899,11.608,0.712292,11.5582,-22.8333,-2.53418,3.17054,0.102314,0.180822,0.0237089,0.0888049,-2.05142,0.236961,0.333883,-0.0153921,0.0730618,-0.0349163,0.0951127,-0.119298,-0.0189362,0.0267953,-0.000827583,0,0,0,0,0,0,0,1.90784,-36.7915,2.33766,23.3923,1.38122,1.91247,0.050461,
0.184233,0.0228431,0.0922201,-2.05797,0.231688,0.342229,-0.0150373,0.110474,-0.0149462,0.110314,-0.216044,-0.201317,0.287209,0.0108526,0.265161,0.191012,0.223986,0.655403,-0.103423,1.9616,-0.0630696,11.5176,0.568527,11.4587,-22.3787,-2.3824,3.14763,0.101929,0.183858,0.0244082,0.0917221,-2.05533,0.237109,0.33435,-0.0153879,0.0971926,-0.0169204,0.081802,-0.0967987,-0.00162302,0.0230147,-0.00121518,3.01635,2.2495,-1.66384,2.81244,2.16415,-0.472569,-0.0484494,1.12232,-36.4424,1.38948,21.0239,1.25305,1.5545,0.0440523,
0.185541,0.0239136,0.0934093,-2.0584,0.235307,0.338067,-0.0152083,0.11012,-0.0175479,0.11,-0.213259,-0.189229,0.282583,0.0109464,-0.22134,-1.62604,-0.196415,1.74078,7.5551,-2.89149,0.0586285,11.6045,0.682914,11.5496,-22.7907,-2.53116,3.19213,0.102199,0.183858,0.0244082,0.0917221,-2.05533,0.237109,0.33435,-0.0153879,0.0971926,-0.0169204,0.081802,-0.0967987,-0.00162302,0.0230147,-0.00121518,0,0,0,0,0,0,0,1.12232,-36.4424,1.38948,21.0239,1.25305,1.5545,0.0440523,
0.186437,0.0237562,0.094303,-2.06005,0.233943,0.340383,-0.0151222,0.110502,-0.0179734,0.11034,-0.212053,-0.185497,0.283984,0.0109095,0.238481,-0.265983,0.212724,0.753822,2.33244,0.875813,-0.0230795,11.5176,0.568527,11.4587,-22.3787,-2.3824,3.14763,0.101929,0.183858,0.0244082,0.0917221,-2.05533,0.237109,0.33435,-0.0153879,0.0971926,-0.0169204,0.081802,-0.0967987,-0.00162302,0.0230147,-0.00121518,0,0,0,0,0,0,0,1.12232,-36.4424,1.38948,21.0239,1.25305,1.5545,0.0440523,
0.187342,0.023653,0.0952033,-2.06172,0.23249,0.342779,-0.01504,0.11102,-0.0169588,0.110781,-0.211238,-0.184722,0.287071,0.0107841,0.323722,0.634129,0.275408,0.509621,0.484273,1.92926,-0.078352,11.4115,0.466511,11.3488,-21.9677,-2.21298,3.1076,0.101144,0.183858,0.0244082,0.0917221,-2.05533,0.237109,0.33435,-0.0153879,0.0971926,-0.0169204,0.081802,-0.0967987,-0.00162302,0.0230147,-0.00121518,0,0,0,0,0,0,0,1.12232,-36.4424,1.38948,21.0239,1.25305,1.5545,0.0440523,
0.188245,0.0235897,0.0961006,-2.06338,0.231043,0.345193,-0.0149608,0.111386,-0.0151484,0.111056,-0.210418,-0.183941,0.290005,0.0106071,0.228727,1.13151,0.172381,0.512528,0.488223,1.83378,-0.110651,11.2904,0.334031,11.2222,-21.5162,-2.02897,3.0928,0.100083,0.186951,0.0244674,0.094433,-2.05929,0.237172,0.334233,-0.0153908,0.0944899,-0.00709716,0.0977643,-0.110206,-0.00286733,0.0225319,-0.00210046,-0.337842,1.2279,1.99528,-1.67589,-0.155539,-0.0603492,-0.11066,1.40003,-32.1498,1.71083,15.668,1.02142,0.466849,0.0706026,
0.188692,0.0241035,0.0961774,-2.06242,0.235491,0.337748,-0.015215,0.111434,-0.0162749,0.111145,-0.209198,-0.173316,0.282082,0.010702,0.0304803,-0.704032,0.0551373,0.762286,6.64043,-4.95188,0.059349,11.5199,0.525238,11.4589,-22.338,-2.37755,3.16906,0.101815,0.186951,0.0244674,0.094433,-2.05929,0.237172,0.334233,-0.0153908,0.0944899,-0.00709716,0.0977643,-0.110206,-0.00286733,0.0225319,-0.00210046,0,0,0,0,0,0,0,1.40003,-32.1498,1.71083,15.668,1.02142,0.466849,0.0706026,
0.189603,0.023989,0.0970842,-2.06408,0.234235,0.339959,-0.0151306,0.111913,-0.0158813,0.111588,-0.208939,-0.170045,0.280938,0.0106708,0.298907,0.24598,0.276906,0.161754,2.04443,-0.714676,-0.0194975,11.4137,0.423222,11.349,-21.9269,-2.20813,3.12903,0.10103,0.186951,0.0244674,0.094433,-2.05929,0.237172,0.334233,-0.0153908,0.0944899,-0.00709716,0.0977643,-0.110206,-0.00286733,0.0225319,-0.00210046,0,0,0,0,0,0,0,1.40003,-32.1498,1.71083,15.668,1.02142,0.466849,0.0706026,
0.190515,0.0239175,0.0979914,-2.06574,0.23291,0.342259,-0.0150501,0.112342,-0.0144937,0.111949,-0.208671,-0.169161,0.282254,0.0105481,0.268332,0.867221,0.225637,0.167717,0.552822,0.822231,-0.0766848,11.2904,0.334031,11.2222,-21.5162,-2.02897,3.0928,0.100083,0.186951,0.0244674,0.094433,-2.05929,0.237172,0.334233,-0.0153908,0.0944899,-0.00709716,0.0977643,-0.110206,-0.00286733,0.0225319,-0.00210046,0,0,0,0,0,0,0,1.40003,-32.1498,1.71083,15.668,1.02142,0.466849,0.0706026,
0.191421,0.0238774,0.0988907,-2.06739,0.231602,0.34459,-0.0149727,0.112514,-0.0125983,0.112041,-0.208122,-0.16802,0.284083,0.0103758,0.107585,1.18464,0.0577397,0.342873,0.712914,1.14333,-0.107688,11.1375,0.230158,11.0611,-21.0623,-1.83915,3.08377,0.0986031,0.1899,0.0250468,0.0981514,-2.063,0.237169,0.33421,-0.0153856,0.0797151,0.077182,0.114818,-0.0909774,-0.00787846,0.023729,0.000796897,-1.84685,10.5349,2.1317,2.40355,-0.626391,0.149641,0.362169,1.32465,-29.1069,1.58784,15.9656,0.93536,0.09606,0.0239107,
0.191622,0.0253618,0.0998769,-2.06625,0.235611,0.337791,-0.0152157,0.112039,-0.00740364,0.111603,-0.209233,-0.15883,0.27731,0.01047,-0.29673,3.24668,-0.273585,-0.694586,5.74387,-4.23328,0.0588807,11.4005,0.396199,11.3307,-21.8836,-2.20545,3.15334,0.100924,0.1899,0.0250468,0.0981514,-2.063,0.237169,0.33421,-0.0153856,0.0797151,0.077182,0.114818,-0.0909774,-0.00787846,0.023729,0.000796897,0,0,0,0,0,0,0,1.32465,-29.1069,1.58784,15.9656,0.93536,0.09606,0.0239107,
0.192518,0.025441,0.100768,-2.06798,0.234434,0.339943,-0.0151328,0.112032,-0.00394096,0.111558,-0.210547,-0.156487,0.275649,0.0104505,-0.00470256,2.16417,-0.0285526,-0.820906,1.46433,-1.03804,-0.0122071,11.2772,0.307007,11.2039,-21.4729,-2.02629,3.11712,0.0999768,0.1899,0.0250468,0.0981514,-2.063,0.237169,0.33421,-0.0153856,0.0797151,0.077182,0.114818,-0.0909774,-0.00787846,0.023729,0.000796897,0,0,0,0,0,0,0,1.32465,-29.1069,1.58784,15.9656,0.93536,0.09606,0.0239107,
0.193415,0.0255103,0.101658,-2.06969,0.233196,0.342154,-0.0150536,0.112044,-0.00141992,0.1115,-0.211105,-0.156133,0.275791,0.0103402,0.0076948,1.57565,-0.0363029,-0.349054,0.220906,0.0887964,-0.068948,11.1375,0.230158,11.0611,-21.0623,-1.83915,3.08377,0.0986031,0.1899,0.0250468,0.0981514,-2.063,0.237169,0.33421,-0.0153856,0.0797151,0.077182,0.114818,-0.0909774,-0.00787846,0.023729,0.000796897,0,0,0,0,0,0,0,1.32465,-29.1069,1.58784,15.9656,0.93536,0.09606,0.0239107,
0.194305,0.0255742,0.10254,-2.07136,0.231985,0.344386,-0.0149776,0.111873,0.000460152,0.111246,-0.210824,-0.155194,0.276427,0.0101724,-0.107299,1.17504,-0.15815,0.175957,0.587184,0.397035,-0.104845,10.9883,0.14362,10.9017,-20.6015,-1.64526,3.08081,0.0969752,0.1924,0.0259852,0.102046,-2.06706,0.237154,0.334007,-0.0153871,0.0732544,0.0976427,0.122363,-0.120008,-0.00996936,-0.00299309,-0.000278141,-0.807595,2.55759,0.943104,-3.6288,-0.261363,-3.34027,-0.13438,0.793033,-30.5788,0.961012,19.8535,1.11847,1.00426,0.0376436,
0.194119,0.0265774,0.103766,-2.0705,0.235645,0.337044,-0.015219,0.111437,0.00615031,0.110843,-0.213235,-0.147502,0.264625,0.0102763,-0.272022,3.55635,-0.252165,-1.50691,4.80766,-7.37582,0.0648953,11.2816,0.285408,11.2011,-21.4229,-2.01925,3.1453,0.0998458,0.1924,0.0259852,0.102046,-2.06706,0.237154,0.334007,-0.0153871,0.0732544,0.0976427,0.122363,-0.120008,-0.00996936,-0.00299309,-0.000278141,0,0,0,0,0,0,0,0.793033,-30.5788,0.961012,19.8535,1.11847,1.00426,0.0376436,
0.195009,0.0267543,0.104649,-2.07228,0.234539,0.33897,-0.0151375,0.111399,0.00934388,0.110764,-0.214963,-0.14565,0.259858,0.0102601,-0.0242267,1.99598,-0.0495213,-1.07977,1.15742,-2.97922,-0.0100761,11.1419,0.208559,11.0582,-21.0123,-1.83212,3.11195,0.098472,0.1924,0.0259852,0.102046,-2.06706,0.237154,0.334007,-0.0153871,0.0732544,0.0976427,0.122363,-0.120008,-0.00996936,-0.00299309,-0.000278141,0,0,0,0,0,0,0,0.793033,-30.5788,0.961012,19.8535,1.11847,1.00426,0.0376436,
0.195897,0.0268998,0.10553,-2.07401,0.233393,0.340993,-0.0150599,0.11134,0.0111106,0.110635,-0.215408,-0.145176,0.258446,0.0101469,-0.036302,1.10418,-0.0807119,-0.278611,0.29615,-0.882575,-0.0708033,10.9883,0.14362,10.9017,-20.6015,-1.64526,3.08081,0.0969752,0.1924,0.0259852,0.102046,-2.06706,0.237154,0.334007,-0.0153871,0.0732544,0.0976427,0.122363,-0.120008,-0.00996936,-0.00299309,-0.000278141,0,0,0,0,0,0,0,0.793033,-30.5788,0.961012,19.8535,1.11847,1.00426,0.0376436,
0.194105,0.0265853,0.103751,-2.07046,0.235796,0.336982,-0.0152229,0.110798,0.0147651,0.110126,-0.216336,-0.137156,0.249372,0.0102091,-0.339011,2.28406,-0.318026,-0.579519,5.01276,-5.67118,0.0388915,11.1419,0.208559,11.0582,-21.0123,-1.83212,3.11195,0.098472,0.1924,0.0259852,0.102046,-2.06706,0.237154,0.334007,-0.0153871,0.0732544,0.0976427,0.122363,-0.120008,-0.00996936,-0.00299309,-0.000278141,0,0,0,0,0,0,0,0.793033,-30.5788,0.961012,19.8535,1.11847,1.00426,0.0376436,
0.194984,0.026765,0.104623,-2.07221,0.234805,0.338872,-0.0151433,0.11062,0.0163042,0.109913,-0.216805,-0.134496,0.246756,0.0101594,-0.111013,0.961953,-0.133202,-0.293632,1.66247,-1.63553,-0.0310616,10.999,0.126712,10.9008,-20.5349,-1.63629,3.1161,0.0967859,0.194702,0.0277024,0.106127,-2.07228,0.237123,0.334127,-0.0153878,0.0736271,0.077026,0.121956,-0.179926,-0.00533501,0.00645919,-0.000140885,0.0465931,-2.57709,-0.0508304,-7.48973,0.579294,1.18153,0.0171571,0.134464,-31.3008,0.361952,21.8729,1.17981,0.924612,0.0440523,
0.195861,0.0269122,0.105492,-2.07392,0.233785,0.34086,-0.0150675,0.110419,0.016724,0.109646,-0.216197,-0.1331,0.247086,0.0100225,-0.126019,0.262404,-0.166392,0.380429,0.872433,0.206592,-0.0855651,10.8325,0.0726506,10.7316,-20.1239,-1.45019,3.08658,0.0949523,0.194702,0.0277024,0.106127,-2.07228,0.237123,0.334127,-0.0153878,0.0736271,0.077026,0.121956,-0.179926,-0.00533501,0.00645919,-0.000140885,0,0,0,0,0,0,0,0.134464,-31.3008,0.361952,21.8729,1.17981,0.924612,0.0440523,
0.196729,0.0270363,0.10635,-2.07559,0.232808,0.342903,-0.0149949,0.110021,0.0164823,0.109175,-0.214599,-0.130891,0.248752,0.00983141,-0.248324,-0.151093,-0.294664,0.998811,1.38045,1.0412,-0.119421,10.6553,0.0286364,10.5519,-19.7124,-1.27087,3.05799,0.0930498,0.194702,0.0277024,0.106127,-2.07228,0.237123,0.334127,-0.0153878,0.0736271,0.077026,0.121956,-0.179926,-0.00533501,0.00645919,-0.000140885,0,0,0,0,0,0,0,0.134464,-31.3008,0.361952,21.8729,1.17981,0.924612,0.0440523,
0.196405,0.028319,0.107826,-2.07587,0.235796,0.336637,-0.0152223,0.109677,0.0196963,0.108848,-0.216881,-0.12487,0.235676,0.00992906,-0.215244,2.00878,-0.204426,-1.42659,3.76311,-8.17259,0.0610314,10.999,0.126712,10.9008,-20.5349,-1.63629,3.1161,0.0967859,0.194702,0.0277024,0.106127,-2.07228,0.237123,0.334127,-0.0153878,0.0736271,0.077026,0.121956,-0.179926,-0.00533501,0.00645919,-0.000140885,0,0,0,0,0,0,0,0.134464,-31.3008,0.361952,21.8729,1.17981,0.924612,0.0440523,
0.197279,0.0285287,0.108691,-2.07764,0.234875,0.338332,-0.0151444,0.109588,0.0209989,0.108715,-0.217679,-0.122908,0.230906,0.00988964,-0.0559075,0.814127,-0.0833565,-0.498417,1.22602,-2.98144,-0.024638,10.8274,0.0408293,10.713,-20.0456,-1.44528,3.12263,0.0947627,0.197186,0.0298661,0.109565,-2.07828,0.237128,0.334561,-0.0153849,0.0843461,0.0795309,0.0938544,-0.179142,-0.0105779,0.0239553,0.00139872,1.33987,0.313104,-3.51271,0.098009,-0.655366,2.18702,0.192451,-1.46435,-37.4422,-1.13768,27.4747,1.23474,1.48125,0.017502,
0.198148,0.0287033,0.109551,-2.07935,0.233949,0.340166,-0.0150706,0.109404,0.0211639,0.108462,-0.216971,-0.121477,0.230595,0.00975571,-0.114723,0.103119,-0.157802,0.442198,0.894349,-0.19438,-0.0837061,10.6502,-0.00318488,10.5333,-19.6341,-1.26595,3.09404,0.0928603,0.197186,0.0298661,0.109565,-2.07828,0.237128,0.334561,-0.0153849,0.0843461,0.0795309,0.0938544,-0.179142,-0.0105779,0.0239553,0.00139872,0,0,0,0,0,0,0,-1.46435,-37.4422,-1.13768,27.4747,1.23474,1.48125,0.017502,
0.198781,0.0305129,0.111151,-2.08181,0.235851,0.337211,-0.0152216,0.107925,0.0237533,0.106995,-0.217991,-0.116234,0.222551,0.009831,-0.924289,1.61836,-0.916931,-0.637649,3.27729,-5.02737,0.0470551,10.8274,0.0408293,10.713,-20.0456,-1.44528,3.12263,0.0947627,0.197186,0.0298661,0.109565,-2.07828,0.237128,0.334561,-0.0153849,0.0843461,0.0795309,0.0938544,-0.179142,-0.0105779,0.0239553,0.00139872,0,0,0,0,0,0,0,-1.46435,-37.4422,-1.13768,27.4747,1.23474,1.48125,0.017502,
0.199612,0.0307306,0.111972,-2.08354,0.235,0.338946,-0.0151454,0.107098,0.0244444,0.106118,-0.217714,-0.114268,0.221403,0.00976942,-0.517059,0.431928,-0.548121,0.173177,1.22887,-0.717633,-0.0384868,10.6502,-0.00318488,10.5333,-19.6341,-1.26595,3.09404,0.0928603,0.197186,0.0298661,0.109565,-2.07828,0.237128,0.334561,-0.0153849,0.0843461,0.0795309,0.0938544,-0.179142,-0.0105779,0.0239553,0.00139872,0,0,0,0,0,0,0,-1.46435,-37.4422,-1.13768,27.4747,1.23474,1.48125,0.017502,
0.200443,0.0309099,0.112793,-2.08522,0.234158,0.34081,-0.0150733,0.106466,0.0240387,0.105411,-0.216106,-0.11246,0.223731,0.00961795,-0.395049,-0.253529,-0.441971,1.00546,1.12951,1.45517,-0.0946678,10.4513,-0.0628319,10.319,-19.1503,-1.08961,3.09711,0.0905578,0.19994,0.0320014,0.112404,-2.08326,0.237097,0.335124,-0.0153941,0.0814731,0.117766,0.0895751,-0.127244,-0.0137827,0.0146137,-0.00166772,-0.359123,4.77943,-0.534911,6.48719,-0.400599,-1.1677,-0.383305,0.539127,-33.2488,0.711073,26.0822,1.37573,1.07018,0.0907442,
0.201268,0.0310596,0.113606,-2.08684,0.23338,0.342759,-0.0150045,0.105801,0.022974,0.104664,-0.213443,-0.109401,0.227708,0.00941348,-0.415634,-0.665452,-0.466928,1.66382,1.9119,2.48564,-0.127798,10.2569,-0.0900289,10.1224,-18.7381,-0.927164,3.06914,0.088374,0.19994,0.0320014,0.112404,-2.08326,0.237097,0.335124,-0.0153941,0.0814731,0.117766,0.0895751,-0.127244,-0.0137827,0.0146137,-0.00166772,0,0,0,0,0,0,0,0.539127,-33.2488,0.711073,26.0822,1.37573,1.07018,0.0907442,
0.20147,0.0328293,0.113923,-2.08661,0.236056,0.338083,-0.0152411,0.104232,0.0266905,0.103119,-0.213717,-0.103357,0.224021,0.00948145,-0.980555,2.32279,-0.96551,-0.171192,3.77742,-2.30419,0.0424873,10.6379,-0.0276869,10.508,-19.562,-1.26261,3.12505,0.0927079,0.19994,0.0320014,0.112404,-2.08326,0.237097,0.335124,-0.0153941,0.0814731,0.117766,0.0895751,-0.127244,-0.0137827,0.0146137,-0.00166772,0,0,0,0,0,0,0,0.539127,-33.2488,0.711073,26.0822,1.37573,1.07018,0.0907442,
0.20227,0.0330802,0.114713,-2.0883,0.235331,0.339928,-0.0151669,0.103393,0.0276245,0.102237,-0.213229,-0.100802,0.225341,0.00944022,-0.524234,0.583763,-0.550988,0.305401,1.59698,0.824858,-0.0257714,10.4513,-0.0628319,10.319,-19.1503,-1.08961,3.09711,0.0905578,0.19994,0.0320014,0.112404,-2.08326,0.237097,0.335124,-0.0153941,0.0814731,0.117766,0.0895751,-0.127244,-0.0137827,0.0146137,-0.00166772,0,0,0,0,0,0,0,0.539127,-33.2488,0.711073,26.0822,1.37573,1.07018,0.0907442,
0.203074,0.0332791,0.115504,-2.08994,0.23461,0.341868,-0.0150967,0.102813,0.0270712,0.101586,-0.211532,-0.0986632,0.22877,0.00930762,-0.362486,-0.345816,-0.407066,1.06023,1.33696,2.14292,-0.0828749,10.271,-0.148276,10.1282,-18.6821,-0.922783,3.0967,0.0882015,0.202122,0.0330827,0.115168,-2.08822,0.237157,0.334248,-0.0153879,0.063765,0.0427344,0.0930116,-0.145674,-0.00301666,-0.00674649,0.00753749,-2.21352,-9.37899,0.429566,-2.30375,1.34576,-2.67002,1.15065,0.25745,-38.2634,0.413527,34.8499,1.10656,3.60345,0.0440523,
0.203874,0.0334404,0.116291,-2.09152,0.233947,0.343868,-0.0150298,0.102245,0.0256898,0.100938,-0.208811,-0.0955016,0.233004,0.0091196,-0.355169,-0.863374,-0.405134,1.70106,1.97598,2.64632,-0.117513,10.0701,-0.168656,9.92515,-18.2698,-0.769829,3.06864,0.0858446,0.202122,0.0330827,0.115168,-2.08822,0.237157,0.334248,-0.0153879,0.063765,0.0427344,0.0930116,-0.145674,-0.00301666,-0.00674649,0.00753749,0,0,0,0,0,0,0,0.25745,-38.2634,0.413527,34.8499,1.10656,3.60345,0.0440523,
0.20358,0.0333313,0.116617,-2.0914,0.236285,0.336887,-0.0152312,0.10062,0.0231093,0.0993749,-0.207448,-0.089784,0.225388,0.00922606,-1.01545,-1.61285,-0.976841,0.85186,3.57352,-4.75963,0.0665394,10.4654,-0.121079,10.3248,-19.0942,-1.08523,3.12467,0.0903853,0.202122,0.0330827,0.115168,-2.08822,0.237157,0.334248,-0.0153879,0.063765,0.0427344,0.0930116,-0.145674,-0.00301666,-0.00674649,0.00753749,0,0,0,0,0,0,0,0.25745,-38.2634,0.413527,34.8499,1.10656,3.60345,0.0440523,
0.204355,0.0334208,0.117382,-2.09299,0.235679,0.338694,-0.0151588,0.0998749,0.0207262,0.0986138,-0.205716,-0.0869632,0.225485,0.00919094,-0.46579,-1.48944,-0.475671,1.08199,1.76295,0.0604886,-0.0219554,10.271,-0.148276,10.1282,-18.6821,-0.922783,3.0967,0.0882015,0.202122,0.0330827,0.115168,-2.08822,0.237157,0.334248,-0.0153879,0.063765,0.0427344,0.0930116,-0.145674,-0.00301666,-0.00674649,0.00753749,0,0,0,0,0,0,0,0.25745,-38.2634,0.413527,34.8499,1.10656,3.60345,0.0440523,
0.205137,0.0335028,0.118152,-2.09454,0.235086,0.340642,-0.0150905,0.099455,0.0186287,0.0981424,-0.203265,-0.0844005,0.22911,0.00905954,-0.262452,-1.3109,-0.294618,1.53219,1.6017,2.26549,-0.0821249,10.068,-0.212093,9.91339,-18.211,-0.767324,3.09479,0.0856993,0.204125,0.0344337,0.118009,-2.09252,0.237149,0.333941,-0.0153816,0.0597686,0.0261949,0.0877731,-0.121058,-3.44005e-05,-0.00700974,-0.00211394,-0.499547,-2.06744,-0.654807,3.07702,0.372783,-0.0329057,-1.20643,-0.29797,-37.9897,-0.110155,36.171,1.23474,4.08043,-0.0026396,
0.205917,0.0335773,0.118919,-2.09604,0.234551,0.342675,-0.0150256,0.0990674,0.0167657,0.0976895,-0.200177,-0.0809013,0.234112,0.0088696,-0.242202,-1.16438,-0.283049,1.93018,2.187,3.12633,-0.118712,9.86189,-0.226529,9.70531,-17.7984,-0.626713,3.06598,0.0833456,0.204125,0.0344337,0.118009,-2.09252,0.237149,0.333941,-0.0153816,0.0597686,0.0261949,0.0877731,-0.121058,-3.44005e-05,-0.00700974,-0.00211394,0,0,0,0,0,0,0,-0.29797,-37.9897,-0.110155,36.171,1.23474,4.08043,-0.0026396,
0.205519,0.0344752,0.119394,-2.09548,0.236482,0.336768,-0.0152334,0.0973253,0.0136831,0.0960141,-0.198079,-0.0752251,0.228844,0.00896254,-1.08886,-1.9266,-1.04714,1.31082,3.54764,-3.29236,0.0580932,10.2689,-0.191873,10.1164,-18.6232,-0.920972,3.12439,0.088058,0.204125,0.0344337,0.118009,-2.09252,0.237149,0.333941,-0.0153816,0.0597686,0.0261949,0.0877731,-0.121058,-3.44005e-05,-0.00700974,-0.00211394,0,0,0,0,0,0,0,-0.29797,-37.9897,-0.110155,36.171,1.23474,4.08043,-0.0026396,
0.206267,0.0344938,0.120131,-2.09698,0.235998,0.338674,-0.0151631,0.0965612,0.0114099,0.0952363,-0.196111,-0.0722831,0.230717,0.00892765,-0.477524,-1.4208,-0.48612,1.23041,1.83873,1.17033,-0.0218073,10.0679,-0.21225,9.91335,-18.2109,-0.768018,3.09633,0.0857011,0.204125,0.0344337,0.118009,-2.09252,0.237149,0.333941,-0.0153816,0.0597686,0.0261949,0.0877731,-0.121058,-3.44005e-05,-0.00700974,-0.00211394,0,0,0,0,0,0,0,-0.29797,-37.9897,-0.110155,36.171,1.23474,4.08043,-0.0026396,
